; generated by SuperSlicer 2.4 on 2023-06-01 at 18:39:17 UTC

; 

; external perimeters extrusion width = 0.42mm
; perimeters extrusion width = 0.44mm
; infill extrusion width = 0.44mm
; solid infill extrusion width = 0.44mm
; top infill extrusion width = 0.44mm
; first layer extrusion width = 0.56mm

; object:{"name":"5mm_Calibration_Steps","id":"5mm_Calibration_Steps.stl id:0 copy 0","object_center":[116.000000,116.000000,0.000000],"boundingbox_center":[116.000000,116.000000,12.500000],"boundingbox_size":[24.999998,25.000000,25.000000]}
; plater:{"center":[116.000000,116.000000,0.000000],"boundingbox_center":[116.000000,116.000000,12.500000],"boundingbox_size":[24.999998,25.000000,25.000000]}

;TYPE:Custom
; custom gcode: start_gcode
G90 ; use absolute coordinates
M83 ; extruder relative mode
M104 S215 ; set extruder temp
M140 S50 ; set bed temp
M190 S50 ; wait for bed temp
M109 S215 ; wait for extruder temp
G28 ; home all
G1 Z2 F240
G1 X2 Y10 F3000
G1 Z0.28 F240
G92 E0.0
G1 Y190 E15.0 F1500.0 ; intro line
G1 X2.3 F5000
G1 Y10 E30 F1200.0 ; intro line
G92 E0.0
; custom gcode end: start_gcode
M107
G21 ; set units to millimeters
G90 ; use absolute coordinates
M83 ; use relative distances for extrusion
; custom gcode: start_filament_gcode
M900 K200; Filament gcode
; custom gcode end: start_filament_gcode
;_TOOLCHANGE 0
;LAYER_CHANGE
;Z:0.24
;HEIGHT:0.24
; custom gcode: before_layer_gcode
;BEFORE_LAYER_CHANGE
;0.24

; custom gcode end: before_layer_gcode

G1 E-6 F3600
G1 Z0.24 F10800
; custom gcode: layer_gcode
;AFTER_LAYER_CHANGE
;0.24
; custom gcode end: layer_gcode

G92 E0
; printing object 5mm_Calibration_Steps.stl id:0 copy 0
M204 S500
G1 X104.847 Y104.847
G1 E6 F2400
;TYPE:Internal perimeter
;WIDTH:0.56
G1 F1800
G1 X107.153 Y104.847 E0.117
G1 X107.153 Y109.847 E0.25369
G1 X112.153 Y109.847 E0.25369
G1 X112.153 Y114.847 E0.25369
G1 X117.153 Y114.847 E0.25369
G1 X117.153 Y119.847 E0.25369
G1 X122.153 Y119.847 E0.25369
G1 X122.153 Y124.847 E0.25369
G1 X127.153 Y124.847 E0.25369
G1 X127.153 Y127.153 E0.117
G1 X119.847 Y127.153 E0.37069
G1 X119.847 Y122.153 E0.25369
G1 X107.153 Y122.153 E0.64407
G1 X107.153 Y127.153 E0.25369
G1 X104.847 Y127.153 E0.117
G1 X104.847 Y104.907 E1.12872
G1 X104.338 Y104.338 F10800
G1 F1800
G1 X107.662 Y104.338 E0.1686
G1 X107.662 Y109.338 E0.25369
G1 X112.662 Y109.338 E0.25369
G1 X112.662 Y114.338 E0.25369
G1 X117.662 Y114.338 E0.25369
G1 X117.662 Y119.338 E0.25369
G1 X122.662 Y119.338 E0.25369
G1 X122.662 Y124.338 E0.25369
G1 X127.662 Y124.338 E0.25369
G1 X127.662 Y127.662 E0.1686
G1 X119.338 Y127.662 E0.42229
G1 X119.338 Y122.662 E0.25369
G1 X107.662 Y122.662 E0.59247
G1 X107.662 Y127.662 E0.25369
G1 X104.338 Y127.662 E0.1686
G1 X104.338 Y104.398 E1.18032
G1 X103.83 Y103.83 F10800
;TYPE:External perimeter
G1 F1800
G1 X108.17 Y103.83 E0.2202
G1 X108.17 Y108.83 E0.25369
G1 X113.17 Y108.83 E0.25369
G1 X113.17 Y113.83 E0.25369
G1 X118.17 Y113.83 E0.25369
G1 X118.17 Y118.83 E0.25369
G1 X123.17 Y118.83 E0.25369
G1 X123.17 Y123.83 E0.25369
G1 X128.17 Y123.83 E0.25369
G1 X128.17 Y128.17 E0.2202
G1 X118.83 Y128.17 E0.47389
G1 X118.83 Y123.17 E0.25369
G1 X108.17 Y123.17 E0.54087
G1 X108.17 Y128.17 E0.25369
G1 X103.83 Y128.17 E0.2202
G1 X103.83 Y103.89 E1.23192
;WIPE_START
G1 X104.176 Y104.03 F10800
;WIPE_END
G1 E-4.2 F3600
;WIPE_START
G1 F8640
G1 X107.97 Y104.03 E-1.50163
G1 X107.97 Y104.556 E-0.20837
;WIPE_END
G1 E-0.09 F3600
; acceleration to travel
M204 S1500
G1 X123.981 Y122.767 F10800
; decel to extrusion
M204 S500
G1 X125.957 Y125.015
; end travel
G1 E6 F2400
;TYPE:Solid infill
;WIDTH:0.561045
G1 F1800
G1 X126.767 Y125.824 E0.05818
G1 X126.767 Y126.543 E0.03655
G1 X125.457 Y125.233 E0.09415
G1 X124.738 Y125.233 E0.03655
G1 X126.271 Y126.767 E0.11022
G1 X125.552 Y126.767 E0.03655
G1 X124.019 Y125.233 E0.11022
G1 X123.3 Y125.233 E0.03655
G1 X124.833 Y126.767 E0.11022
G1 X124.114 Y126.767 E0.03655
G1 X122.362 Y125.015 E0.12593
G1 E-4.2 F3600
;WIPE_START
G1 F8640
G1 X124.114 Y126.767 E-0.98065
G1 X124.833 Y126.767 E-0.28465
G1 X124.038 Y125.972 E-0.4447
;WIPE_END
G1 E-0.09 F3600
; acceleration to travel
M204 S1500
G1 X122.211 Y121.584 F10800
; decel to extrusion
M204 S500
G1 X121.985 Y121.043
; end travel
G1 E6 F2400
G1 F1800
G1 X121.176 Y120.233 E0.05818
G1 X120.457 Y120.233 E0.03655
G1 X121.767 Y121.543 E0.09415
G1 X121.767 Y122.262 E0.03655
G1 X119.738 Y120.233 E0.14585
G1 X119.019 Y120.233 E0.03655
G1 X121.767 Y122.981 E0.19755
G1 X121.767 Y123.701 E0.03655
G1 X118.3 Y120.233 E0.24924
G1 X117.58 Y120.233 E0.03655
G1 X119.332 Y121.985 E0.12593
G1 X120.015 Y122.668 F10800
G1 F1800
G1 X121.985 Y124.638 E0.14165
G1 E-4.2 F3600
;WIPE_START
G1 F8640
G1 X120.015 Y122.668 E-1.10305
;WIPE_END
G1 E-0.69695 F3600
G1 X120.015 Y123.387 F10800
G1 E6 F2400
G1 F1800
G1 X123.394 Y126.767 E0.24296
G1 X122.675 Y126.767 E0.03655
G1 X120.233 Y124.325 E0.17554
G1 X120.233 Y125.044 E0.03655
G1 X121.956 Y126.767 E0.12384
G1 X121.237 Y126.767 E0.03655
G1 X120.233 Y125.763 E0.07215
G1 X120.233 Y126.482 E0.03655
G1 X120.737 Y126.985 E0.03617
G1 E-4.2 F3600
;WIPE_START
G1 F8640
G1 X120.233 Y126.482 E-0.28166
G1 X120.233 Y125.763 E-0.28465
G1 X121.237 Y126.767 E-0.56182
G1 X121.956 Y126.767 E-0.28465
G1 X121.425 Y126.236 E-0.29721
;WIPE_END
G1 E-0.09 F3600
; acceleration to travel
M204 S1500
G1 X117.473 Y117.163 F10800
; decel to extrusion
M204 S500
G1 X116.985 Y116.043
; end travel
G1 E6 F2400
G1 F1800
G1 X116.176 Y115.233 E0.05818
G1 X115.457 Y115.233 E0.03655
G1 X116.767 Y116.543 E0.09415
G1 X116.767 Y117.262 E0.03655
G1 X114.738 Y115.233 E0.14585
G1 X114.019 Y115.233 E0.03655
G1 X116.767 Y117.981 E0.19755
G1 X116.767 Y118.701 E0.03655
G1 X113.299 Y115.233 E0.24924
G1 X112.58 Y115.233 E0.03655
G1 X116.985 Y119.638 E0.31666
G1 E-4.2 F3600
;WIPE_START
G1 F8640
G1 X113.931 Y116.584 E-1.71
;WIPE_END
G1 E-0.09 F3600
; acceleration to travel
M204 S1500
G1 X111.284 Y110.736 F10800
; decel to extrusion
M204 S500
G1 X110.957 Y110.015
; end travel
G1 E6 F2400
G1 F1800
G1 X111.767 Y110.824 E0.05818
G1 X111.767 Y111.543 E0.03655
G1 X110.457 Y110.233 E0.09415
G1 X109.738 Y110.233 E0.03655
G1 X111.767 Y112.262 E0.14585
G1 X111.767 Y112.981 E0.03655
G1 X109.019 Y110.233 E0.19755
G1 X108.299 Y110.233 E0.03655
G1 X111.767 Y113.7 E0.24924
G1 X111.767 Y114.42 E0.03655
G1 X107.362 Y110.015 E0.31666
G1 E-4.2 F3600
;WIPE_START
G1 F8640
G1 X110.416 Y113.069 E-1.71
;WIPE_END
G1 E-0.09 F3600
; acceleration to travel
M204 S1500
G1 X106.447 Y105.9 F10800
; decel to extrusion
M204 S500
G1 X105.957 Y105.015
; end travel
G1 E6 F2400
G1 F1800
G1 X106.767 Y105.824 E0.05818
G1 X106.767 Y106.543 E0.03655
G1 X105.457 Y105.233 E0.09415
G1 X105.233 Y105.233 E0.01136
G1 X105.233 Y105.729 E0.0252
G1 X106.767 Y107.262 E0.11022
G1 X106.767 Y107.981 E0.03655
G1 X105.233 Y106.448 E0.11022
G1 X105.233 Y107.167 E0.03655
G1 X106.767 Y108.7 E0.11022
G1 X106.767 Y109.42 E0.03655
G1 X105.233 Y107.886 E0.11022
G1 X105.233 Y108.606 E0.03655
G1 X118.394 Y121.767 E0.94612
G1 X117.675 Y121.767 E0.03655
G1 X105.233 Y109.325 E0.89442
G1 X105.233 Y110.044 E0.03655
G1 X116.956 Y121.767 E0.84273
G1 X116.237 Y121.767 E0.03655
G1 X105.233 Y110.763 E0.79103
G1 X105.233 Y111.482 E0.03655
G1 X115.518 Y121.767 E0.73933
G1 X114.799 Y121.767 E0.03655
G1 X105.233 Y112.201 E0.68764
G1 X105.233 Y112.92 E0.03655
G1 X114.08 Y121.767 E0.63594
G1 X113.361 Y121.767 E0.03655
G1 X105.233 Y113.639 E0.58424
G1 X105.233 Y114.359 E0.03655
G1 X112.641 Y121.767 E0.53255
G1 X111.922 Y121.767 E0.03655
G1 X105.233 Y115.078 E0.48085
G1 X105.233 Y115.797 E0.03655
G1 X111.203 Y121.767 E0.42916
G1 X110.484 Y121.767 E0.03655
G1 X105.233 Y116.516 E0.37746
G1 X105.233 Y117.235 E0.03655
G1 X109.765 Y121.767 E0.32576
G1 X109.046 Y121.767 E0.03655
G1 X105.233 Y117.954 E0.27407
G1 X105.233 Y118.673 E0.03655
G1 X108.327 Y121.767 E0.22237
G1 X107.608 Y121.767 E0.03655
G1 X105.233 Y119.392 E0.17068
G1 X105.233 Y120.112 E0.03655
G1 X106.888 Y121.767 E0.11898
G1 X106.767 Y121.767 E0.0062
G1 X106.767 Y122.364 E0.03036
G1 X105.233 Y120.831 E0.11022
G1 X105.233 Y121.55 E0.03655
G1 X106.767 Y123.083 E0.11022
G1 X106.767 Y123.802 E0.03655
G1 X105.233 Y122.269 E0.11022
G1 X105.233 Y122.988 E0.03655
G1 X106.767 Y124.521 E0.11022
G1 X106.767 Y125.24 E0.03655
G1 X105.233 Y123.707 E0.11022
G1 X105.233 Y124.426 E0.03655
G1 X106.767 Y125.959 E0.11022
G1 X106.767 Y126.679 E0.03655
G1 X105.233 Y125.145 E0.11022
G1 X105.233 Y125.864 E0.03655
G1 X106.136 Y126.767 E0.06485
G1 X105.416 Y126.767 E0.03655
G1 X105.015 Y126.365 E0.02887
M106 S84.15
;LAYER_CHANGE
;Z:0.4
;HEIGHT:0.16
; custom gcode: before_layer_gcode
;BEFORE_LAYER_CHANGE
;0.4

; custom gcode end: before_layer_gcode

G1 E-4.2 F3600
;WIPE_START
G1 F8640
G1 X105.416 Y126.767 E-0.22483
G1 X106.136 Y126.767 E-0.28465
G1 X105.233 Y125.864 E-0.50499
G1 X105.233 Y125.145 E-0.28465
G1 X105.967 Y125.879 E-0.41088
;WIPE_END
G1 E-0.09 F3600
; stop printing object 5mm_Calibration_Steps.stl id:0 copy 0
G1 Z0.4 F10800
; custom gcode: layer_gcode
;AFTER_LAYER_CHANGE
;0.4
; custom gcode end: layer_gcode

G92 E0
M104 S210 ; set temperature
; printing object 5mm_Calibration_Steps.stl id:0 copy 0
; acceleration to travel
M204 S1500
G1 X107.308 Y122.892
; decel to extrusion
M204 S500
G1 X107.489 Y122.489
; end travel
G1 E6 F2400
;TYPE:Internal perimeter
;WIDTH:0.44
G1 F3600
G1 X107.489 Y127.489 E0.13492
G1 X104.511 Y127.489 E0.08034
G1 X104.511 Y104.511 E0.62004
G1 X107.489 Y104.511 E0.08034
G1 X107.489 Y109.511 E0.13492
G1 X112.489 Y109.511 E0.13492
G1 X112.489 Y114.511 E0.13492
G1 X117.489 Y114.511 E0.13492
G1 X117.489 Y119.511 E0.13492
G1 X122.489 Y119.511 E0.13492
G1 X122.489 Y124.511 E0.13492
G1 X127.489 Y124.511 E0.13492
G1 X127.489 Y127.489 E0.08034
G1 X119.511 Y127.489 E0.21527
G1 X119.511 Y122.489 E0.13492
G1 X107.549 Y122.489 E0.32281
G1 X107.894 Y122.894 F10800
G1 F3600
G1 X107.894 Y127.894 E0.13492
G1 X104.106 Y127.894 E0.10224
G1 X104.106 Y104.106 E0.64193
G1 X107.894 Y104.106 E0.10224
G1 X107.894 Y109.106 E0.13492
G1 X112.894 Y109.106 E0.13492
G1 X112.894 Y114.106 E0.13492
G1 X117.894 Y114.106 E0.13492
G1 X117.894 Y119.106 E0.13492
G1 X122.894 Y119.106 E0.13492
G1 X122.894 Y124.106 E0.13492
G1 X127.894 Y124.106 E0.13492
G1 X127.894 Y127.894 E0.10224
G1 X119.106 Y127.894 E0.23716
G1 X119.106 Y122.894 E0.13492
G1 X107.954 Y122.894 E0.30092
G1 X108.29 Y123.29 F10800
;TYPE:External perimeter
;WIDTH:0.42
G1 F1800
G1 X108.29 Y128.29 E0.12827
G1 X103.71 Y128.29 E0.1175
G1 X103.71 Y103.71 E0.63059
G1 X108.29 Y103.71 E0.1175
G1 X108.29 Y108.71 E0.12827
G1 X113.29 Y108.71 E0.12827
G1 X113.29 Y113.71 E0.12827
G1 X118.29 Y113.71 E0.12827
G1 X118.29 Y118.71 E0.12827
G1 X123.29 Y118.71 E0.12827
G1 X123.29 Y123.71 E0.12827
G1 X128.29 Y123.71 E0.12827
G1 X128.29 Y128.29 E0.1175
G1 X118.71 Y128.29 E0.24577
G1 X118.71 Y123.29 E0.12827
G1 X108.35 Y123.29 E0.26578
;WIPE_START
G1 X107.89 Y123.29 F10800
;WIPE_END
G1 E-4.2 F3600
;WIPE_START
G1 F8640
G1 X108.07 Y127.606 E-1.71
;WIPE_END
G1 E-0.09 F3600
; acceleration to travel
M204 S1500
G1 X105.021 Y124.398 F10800
; decel to extrusion
M204 S500
G1 X104.645 Y124.002
; end travel
G1 E6 F2400
;TYPE:Solid infill
;WIDTH:0.442874
G1 F1800
G1 X113.827 Y114.82 E0.35271
G1 X113.254 Y114.82 E0.01558
G1 X104.82 Y123.254 E0.32397
G1 X104.82 Y122.68 E0.01558
G1 X112.68 Y114.82 E0.30193
G1 X112.18 Y114.82 E0.01357
G1 X112.18 Y114.746 E0.00201
G1 X104.82 Y122.106 E0.28274
G1 X104.82 Y121.533 E0.01558
G1 X112.18 Y114.172 E0.28274
G1 X112.18 Y113.598 E0.01558
G1 X104.82 Y120.959 E0.28274
G1 X104.82 Y120.385 E0.01558
G1 X112.18 Y113.025 E0.28274
G1 X112.18 Y112.451 E0.01558
G1 X104.82 Y119.812 E0.28274
G1 X104.82 Y119.238 E0.01558
G1 X112.18 Y111.877 E0.28274
G1 X112.18 Y111.303 E0.01558
G1 X104.82 Y118.664 E0.28274
G1 X104.82 Y118.09 E0.01558
G1 X112.18 Y110.73 E0.28274
G1 X112.18 Y110.156 E0.01558
G1 X104.82 Y117.517 E0.28274
G1 X104.82 Y116.943 E0.01558
G1 X111.943 Y109.82 E0.27362
G1 X111.369 Y109.82 E0.01558
G1 X104.82 Y116.369 E0.25159
G1 X104.82 Y115.796 E0.01558
G1 X110.796 Y109.82 E0.22955
G1 X110.222 Y109.82 E0.01558
G1 X104.82 Y115.222 E0.20752
G1 X104.82 Y114.648 E0.01558
G1 X109.648 Y109.82 E0.18548
G1 X109.075 Y109.82 E0.01558
G1 X104.82 Y114.075 E0.16344
G1 X104.82 Y113.501 E0.01558
G1 X108.501 Y109.82 E0.14141
G1 X107.927 Y109.82 E0.01558
G1 X104.82 Y112.927 E0.11937
G1 X104.82 Y112.354 E0.01558
G1 X107.354 Y109.82 E0.09733
G1 X107.18 Y109.82 E0.0047
G1 X107.18 Y109.419 E0.01088
G1 X104.82 Y111.78 E0.09068
G1 X104.82 Y111.206 E0.01558
G1 X107.18 Y108.845 E0.09068
G1 X107.18 Y108.272 E0.01558
G1 X104.82 Y110.632 E0.09068
G1 X104.82 Y110.059 E0.01558
G1 X107.18 Y107.698 E0.09068
G1 X107.18 Y107.124 E0.01558
G1 X104.82 Y109.485 E0.09068
G1 X104.82 Y108.911 E0.01558
G1 X107.18 Y106.551 E0.09068
G1 X107.18 Y105.977 E0.01558
G1 X104.82 Y108.338 E0.09068
G1 X104.82 Y107.764 E0.01558
G1 X107.18 Y105.403 E0.09068
G1 X107.18 Y104.83 E0.01558
G1 X104.82 Y107.19 E0.09068
G1 X104.82 Y106.617 E0.01558
G1 X106.617 Y104.82 E0.06903
G1 X106.043 Y104.82 E0.01558
G1 X104.82 Y106.043 E0.04699
G1 X104.82 Y105.469 E0.01558
G1 X105.469 Y104.82 E0.02495
G1 X104.896 Y104.82 E0.01558
G1 X104.645 Y105.07 E0.00962
G1 E-4.2 F3600
;WIPE_START
G1 F8640
G1 X104.896 Y104.82 E-0.14014
G1 X105.469 Y104.82 E-0.22709
G1 X104.82 Y105.469 E-0.36364
G1 X104.82 Y106.043 E-0.22709
G1 X106.043 Y104.82 E-0.68479
G1 X106.213 Y104.82 E-0.06725
;WIPE_END
G1 E-0.09 F3600
; acceleration to travel
M204 S1500
G1 X106.429 Y124.879 F10800
; decel to extrusion
M204 S500
G1 X106.455 Y127.355
; end travel
G1 E6 F2400
G1 F1800
G1 X107.18 Y126.63 E0.02784
G1 X107.18 Y126.056 E0.01558
G1 X106.056 Y127.18 E0.04318
G1 X105.483 Y127.18 E0.01558
G1 X107.18 Y125.483 E0.06522
G1 X107.18 Y124.909 E0.01558
G1 X104.909 Y127.18 E0.08725
G1 X104.82 Y127.18 E0.00242
G1 X104.82 Y126.696 E0.01316
G1 X107.18 Y124.335 E0.09068
G1 X107.18 Y123.761 E0.01558
G1 X104.82 Y126.122 E0.09068
G1 X104.82 Y125.549 E0.01558
G1 X107.18 Y123.188 E0.09068
G1 X107.18 Y122.614 E0.01558
G1 X104.82 Y124.975 E0.09068
G1 X104.82 Y124.401 E0.01558
G1 X114.401 Y114.82 E0.36804
G1 X114.975 Y114.82 E0.01558
G1 X107.614 Y122.18 E0.28274
G1 X108.188 Y122.18 E0.01558
G1 X115.549 Y114.82 E0.28274
G1 X116.122 Y114.82 E0.01558
G1 X108.761 Y122.18 E0.28274
G1 X109.335 Y122.18 E0.01558
G1 X116.696 Y114.82 E0.28274
G1 X117.18 Y114.82 E0.01316
G1 X117.18 Y114.909 E0.00242
G1 X109.909 Y122.18 E0.27931
G1 X110.483 Y122.18 E0.01558
G1 X117.18 Y115.483 E0.25728
G1 X117.18 Y116.056 E0.01558
G1 X111.056 Y122.18 E0.23524
G1 X111.63 Y122.18 E0.01558
G1 X117.18 Y116.63 E0.2132
G1 X117.18 Y117.204 E0.01558
G1 X112.204 Y122.18 E0.19117
G1 X112.777 Y122.18 E0.01558
G1 X117.18 Y117.777 E0.16913
G1 X117.18 Y118.351 E0.01558
G1 X113.351 Y122.18 E0.14709
G1 X113.925 Y122.18 E0.01558
G1 X117.18 Y118.925 E0.12506
G1 X117.18 Y119.498 E0.01558
G1 X114.498 Y122.18 E0.10302
G1 X115.072 Y122.18 E0.01558
G1 X117.433 Y119.82 E0.09068
G1 X118.007 Y119.82 E0.01558
G1 X115.646 Y122.18 E0.09068
G1 X116.219 Y122.18 E0.01558
G1 X118.58 Y119.82 E0.09068
G1 X119.154 Y119.82 E0.01558
G1 X116.793 Y122.18 E0.09068
G1 X117.367 Y122.18 E0.01558
G1 X119.728 Y119.82 E0.09068
G1 X120.301 Y119.82 E0.01558
G1 X117.941 Y122.18 E0.09068
G1 X118.514 Y122.18 E0.01558
G1 X120.875 Y119.82 E0.09068
G1 X121.449 Y119.82 E0.01558
G1 X119.088 Y122.18 E0.09068
G1 X119.662 Y122.18 E0.01558
G1 X122.022 Y119.82 E0.09068
G1 X122.18 Y119.82 E0.00429
G1 X122.18 Y120.235 E0.01129
G1 X119.82 Y122.596 E0.09068
G1 X119.82 Y123.17 E0.01558
G1 X122.18 Y120.809 E0.09068
G1 X122.18 Y121.383 E0.01558
G1 X119.82 Y123.743 E0.09068
G1 X119.82 Y124.317 E0.01558
G1 X122.18 Y121.956 E0.09068
G1 X122.18 Y122.53 E0.01558
G1 X119.82 Y124.891 E0.09068
G1 X119.82 Y125.465 E0.01558
G1 X122.18 Y123.104 E0.09068
G1 X122.18 Y123.677 E0.01558
G1 X119.82 Y126.038 E0.09068
G1 X119.82 Y126.612 E0.01558
G1 X122.18 Y124.251 E0.09068
G1 X122.18 Y124.82 E0.01544
G1 X122.186 Y124.82 E0.00014
G1 X119.825 Y127.18 E0.09068
G1 X120.399 Y127.18 E0.01558
G1 X122.759 Y124.82 E0.09068
G1 X123.333 Y124.82 E0.01558
