;FLAVOR:Marlin
M117 Time Left 0h17m08s
;TIME:1028
;Filament used: 0.591082m
;Layer height: 0.2
;MINX:97
;MINY:104.1
;MINZ:0.2
;MAXX:138
;MAXY:130.917
;MAXZ:9
;POSTPROCESSED
;Generated with Cura_SteamEngine 5.0.0-beta+1
M140 S50
M105
M190 S50
M104 S200
M105
M109 S200
M82 ;absolute extrusion mode
;;; Script based on an original created by tjjfvi (https://github.com/tjjfvi)
; An up-to-date version of the tjjfvi's original script can be found
; here:  https://csi.t6.fyi/
; Note - This script will only work in Cura V4.2 and above!
; --- Global Settings
; layer_height = 0.2
; smooth_spiralized_contours = True
; magic_mesh_surface_mode = normal
; machine_extruder_count = 1
; --- Single Extruder Settings
; speed_z_hop = 5
; retraction_amount = 5
; retraction_hop = 0.2
; retraction_hop_enabled = False
; retraction_enable = True
; retraction_speed = 45
; retraction_retract_speed = 45
; retraction_prime_speed = 45
; speed_travel = 150.0

;; Moved to OctoPrint
;;; Ender 3 Custom Start G-code
;;G92 E0 ; Reset Extruder
;;G28 ; Home all axes
;;G1 Z2.0 F3000 ; Move Z Axis up little to prevent scratching of Heat Bed
;;G1 X0.1 Y20 Z0.3 F5000.0 ; Move to start position
;;G1 X0.1 Y200.0 Z0.3 F1500.0 E15 ; Draw the first line
;;G1 X0.4 Y200.0 Z0.3 F5000.0 ; Move to side a little
;;G1 X0.4 Y20 Z0.3 F1500.0 E30 ; Draw the second line
;;G92 E0 ; Reset Extruder
;;G1 Z2.0 F3000 ; Move Z Axis up little to prevent scratching of Heat Bed
;;G1 X5 Y20 Z0.3 F5000.0 ; Move over to prevent blob squish
G92 E0
G92 E0
G1 F2700 E-5
;LAYER_COUNT:47
;LAYER:0
M107
G0 F6000 X114.429 Y105.538 Z0.2
G0 X111.659 Y108.843
;TYPE:SKIRT
G1 F2700 E0
G1 F1200 X113.418 Y106.771 E0.0904
G1 X113.983 Y106.073 E0.12027
G1 X114.429 Y105.538 E0.14343
G1 X114.82 Y105.13 E0.16223
G1 X115.266 Y104.782 E0.18104
G1 X115.756 Y104.5 E0.19985
G1 X116.28 Y104.29 E0.21862
G1 X116.83 Y104.156 E0.23745
G1 X117.392 Y104.1 E0.25624
G1 X117.957 Y104.125 E0.27505
G1 X118.513 Y104.229 E0.29386
G1 X119.048 Y104.41 E0.31265
G1 X119.553 Y104.665 E0.33146
G1 X120.016 Y104.989 E0.35026
G1 X120.576 Y105.54 E0.37639
G1 X121.116 Y106.191 E0.40452
G1 X121.847 Y107.094 E0.44316
G1 X123.653 Y109.201 E0.53546
G1 X125.453 Y111.184 E0.62453
G1 X127.342 Y113.151 E0.71524
G1 X129.295 Y115.073 E0.80638
G1 X131.264 Y116.903 E0.89578
G1 X133.291 Y118.683 E0.98551
G1 X136.522 Y121.325 E1.12432
G1 X136.933 Y121.713 E1.14312
G1 X137.286 Y122.155 E1.16194
G1 X137.572 Y122.643 E1.18075
G1 X137.787 Y123.165 E1.19953
G1 X137.927 Y123.713 E1.21834
G1 X137.988 Y124.299 E1.23793
G1 X138 Y124.747 E1.25284
G1 X138 Y126.231 E1.3022
G1 X137.991 Y126.958 E1.32638
G1 X137.944 Y127.521 E1.34517
G1 X137.818 Y128.072 E1.36397
G1 X137.616 Y128.6 E1.38277
G1 X137.341 Y129.094 E1.40158
G1 X136.999 Y129.544 E1.42038
G1 X136.597 Y129.942 E1.43919
G1 X136.144 Y130.279 E1.45797
G1 X135.647 Y130.549 E1.47678
G1 X135.117 Y130.746 E1.49559
G1 X134.565 Y130.867 E1.51438
G1 X134.103 Y130.906 E1.52981
G1 X133.67 Y130.917 E1.54421
G1 X101.655 Y130.917 E2.60903
G1 X100.957 Y130.908 E2.63225
G1 X100.394 Y130.86 E2.65105
G1 X99.843 Y130.734 E2.66985
G1 X99.315 Y130.532 E2.68865
G1 X98.821 Y130.257 E2.70745
G1 X98.371 Y129.915 E2.72625
G1 X97.973 Y129.513 E2.74507
G1 X97.637 Y129.059 E2.76385
G1 X97.367 Y128.562 E2.78266
G1 X97.17 Y128.032 E2.80147
G1 X97.05 Y127.48 E2.82026
G1 X97.01 Y127.016 E2.83575
G1 X97 Y126.575 E2.85042
G1 X97 Y125.053 E2.90104
G1 X97.01 Y124.365 E2.92393
G1 X97.059 Y123.802 E2.94272
G1 X97.186 Y123.251 E2.96153
G1 X97.389 Y122.723 E2.98035
G1 X97.665 Y122.23 E2.99914
G1 X98.007 Y121.78 E3.01794
G1 X98.502 Y121.307 E3.04071
G1 X99.921 Y120.165 E3.10129
G1 X102.032 Y118.398 E3.19285
G1 X104.066 Y116.595 E3.28326
G1 X106.042 Y114.743 E3.37333
G1 X107.957 Y112.841 E3.4631
G1 X109.858 Y110.844 E3.55481
G1 X111.659 Y108.843 E3.64435
G1 F2700 E-1.35565
G0 F6000 X108.246 Y113.118
G1 F2700 E3.64435
G1 F1200 X110.144 Y111.124 E3.73591
G1 X111.963 Y109.104 E3.82632
G1 X113.734 Y107.017 E3.91736
G1 X114.29 Y106.329 E3.94678
G1 X114.736 Y105.794 E3.96995
G1 X115.109 Y105.409 E3.98777
G1 X115.535 Y105.083 E4.00562
G1 X116.005 Y104.825 E4.02345
G1 X116.508 Y104.639 E4.04129
G1 X117.033 Y104.53 E4.05912
G1 X117.569 Y104.5 E4.07698
G1 X118.102 Y104.55 E4.09478
G1 X118.623 Y104.678 E4.11262
G1 X119.119 Y104.883 E4.13047
G1 X119.579 Y105.159 E4.14832
G1 X119.992 Y105.5 E4.16613
G1 X120.268 Y105.796 E4.17959
G1 X120.805 Y106.442 E4.20753
G1 X121.562 Y107.378 E4.24757
G1 X123.336 Y109.447 E4.33822
G1 X125.151 Y111.447 E4.42805
G1 X127.074 Y113.449 E4.52037
G1 X129.007 Y115.351 E4.61057
G1 X131.011 Y117.213 E4.70155
G1 X133.027 Y118.984 E4.79081
G1 X136.269 Y121.635 E4.9301
G1 X136.658 Y122.005 E4.94795
G1 X136.987 Y122.428 E4.96577
G1 X137.25 Y122.895 E4.9836
G1 X137.441 Y123.396 E5.00143
G1 X137.555 Y123.92 E5.01927
G1 X137.588 Y124.311 E5.03232
G1 X137.6 Y124.747 E5.04683
G1 X137.6 Y126.226 E5.09602
G1 X137.591 Y126.953 E5.1202
G1 X137.544 Y127.487 E5.13803
G1 X137.419 Y128.008 E5.15585
G1 X137.217 Y128.505 E5.1737
G1 X136.944 Y128.967 E5.19154
G1 X136.606 Y129.383 E5.20937
G1 X136.209 Y129.744 E5.22722
G1 X135.763 Y130.042 E5.24506
G1 X135.278 Y130.27 E5.26288
G1 X134.764 Y130.424 E5.28073
G1 X134.092 Y130.507 E5.30325
G1 X133.67 Y130.517 E5.31729
G1 X101.661 Y130.517 E6.38191
G1 X100.963 Y130.508 E6.40513
G1 X100.428 Y130.461 E6.42299
G1 X99.907 Y130.335 E6.44082
G1 X99.41 Y130.133 E6.45867
G1 X98.949 Y129.86 E6.47649
G1 X98.533 Y129.521 E6.49433
G1 X98.172 Y129.125 E6.51216
G1 X97.874 Y128.679 E6.53
G1 X97.646 Y128.193 E6.54785
G1 X97.493 Y127.679 E6.56569
G1 X97.41 Y127.005 E6.58828
G1 X97.4 Y126.575 E6.60258
G1 X97.4 Y125.059 E6.653
G1 X97.41 Y124.371 E6.67589
G1 X97.458 Y123.837 E6.69372
G1 X97.585 Y123.315 E6.71159
G1 X97.787 Y122.819 E6.7294
G1 X98.061 Y122.358 E6.74724
G1 X98.401 Y121.943 E6.76508
G1 X98.752 Y121.619 E6.78097
G1 X100.198 Y120.455 E6.84271
G1 X102.289 Y118.705 E6.9334
G1 X104.342 Y116.885 E7.02465
G1 X106.315 Y115.036 E7.11459
G1 X108.246 Y113.118 E7.20511
G1 F2700 E2.20511
G0 F6000 X104.597 Y117.193
G1 F2700 E7.20511
G1 F1200 X106.623 Y115.294 E7.29747
G1 X108.535 Y113.395 E7.3871
G1 X110.432 Y111.402 E7.47861
G1 X112.264 Y109.367 E7.56968
G1 X114.03 Y107.287 E7.66044
G1 X114.597 Y106.585 E7.69045
G1 X115.043 Y106.05 E7.71362
G1 X115.396 Y105.688 E7.73043
G1 X115.802 Y105.387 E7.74724
G1 X116.251 Y105.153 E7.76408
G1 X116.73 Y104.993 E7.78088
G1 X117.229 Y104.911 E7.7977
G1 X117.735 Y104.908 E7.81453
G1 X118.234 Y104.984 E7.83132
G1 X118.716 Y105.139 E7.84816
G1 X119.167 Y105.367 E7.86497
G1 X119.576 Y105.663 E7.88176
G1 X119.961 Y106.052 E7.89996
G1 X120.495 Y106.694 E7.92774
G1 X121.267 Y107.648 E7.96855
G1 X123.035 Y109.71 E8.0589
G1 X124.883 Y111.747 E8.15037
G1 X126.77 Y113.711 E8.24096
G1 X128.718 Y115.628 E8.33186
G1 X130.74 Y117.508 E8.42369
G1 X132.778 Y119.297 E8.51389
G1 X136.016 Y121.945 E8.65301
G1 X136.381 Y122.295 E8.66983
G1 X136.686 Y122.698 E8.68664
G1 X136.924 Y123.144 E8.70345
G1 X137.088 Y123.622 E8.72026
G1 X137.188 Y124.324 E8.74385
G1 X137.2 Y124.747 E8.75792
G1 X137.2 Y126.221 E8.80695
G1 X137.191 Y126.948 E8.83113
G1 X137.145 Y127.451 E8.84793
G1 X137.02 Y127.941 E8.86475
G1 X136.819 Y128.405 E8.88157
G1 X136.548 Y128.832 E8.89839
G1 X136.213 Y129.211 E8.91521
G1 X135.823 Y129.532 E8.93201
G1 X135.387 Y129.788 E8.94883
G1 X134.916 Y129.971 E8.96563
G1 X134.422 Y130.079 E8.98245
G1 X134.081 Y130.107 E8.99383
G1 X133.67 Y130.117 E9.00751
G1 X101.666 Y130.117 E10.07196
G1 X100.968 Y130.108 E10.09518
G1 X100.464 Y130.061 E10.11202
G1 X99.974 Y129.936 E10.12884
G1 X99.51 Y129.735 E10.14565
G1 X99.084 Y129.464 E10.16245
G1 X98.705 Y129.129 E10.17927
G1 X98.384 Y128.738 E10.1961
G1 X98.129 Y128.302 E10.2129
G1 X97.945 Y127.831 E10.22972
G1 X97.838 Y127.337 E10.24653
G1 X97.81 Y126.994 E10.25797
G1 X97.8 Y126.575 E10.27191
G1 X97.8 Y125.064 E10.32217
G1 X97.81 Y124.376 E10.34505
G1 X97.858 Y123.873 E10.36186
G1 X97.984 Y123.384 E10.37866
G1 X98.185 Y122.92 E10.39547
G1 X98.457 Y122.494 E10.41229
G1 X98.793 Y122.116 E10.42911
G1 X99.003 Y121.93 E10.43844
G1 X100.465 Y120.753 E10.50086
G1 X102.544 Y119.013 E10.59103
G1 X104.597 Y117.193 E10.68228
G1 F2700 E5.68228
;MESH:Door catch v3.stl
G0 F6000 X104.597 Y123.752
G0 X101.2 Y126.717
;TYPE:WALL-OUTER
G1 F2700 E10.68228
G1 F1200 X133.8 Y126.717 E11.76657
G1 X133.8 Y124.617 E11.83641
G1 X119.6 Y124.617 E12.30871
G1 X119.496 Y124.588 E12.3123
G1 X119.4 Y124.435 E12.3183
G1 X119.4 Y120.417 E12.45194
G1 X119.426 Y120.317 E12.45538
G1 X121.4 Y116.898 E12.58669
G1 X121.4 Y115.009 E12.64952
G1 X117.5 Y108.473 E12.90266
G1 X113.6 Y115.009 E13.15581
G1 X113.6 Y116.898 E13.21864
G1 X115.574 Y120.317 E13.34995
G1 X115.6 Y120.417 E13.35339
G1 X115.6 Y124.435 E13.48702
G1 X115.504 Y124.588 E13.49303
G1 X115.4 Y124.617 E13.49662
G1 X101.2 Y124.617 E13.96892
G1 X101.2 Y126.717 E14.03876
G0 F6000 X101.6 Y126.317
;TYPE:WALL-INNER
G1 F1200 X133.4 Y126.317 E15.09644
G1 X133.4 Y125.017 E15.13967
G1 X119.6 Y125.017 E15.59866
G1 X119.288 Y124.93 E15.60944
G1 X119.088 Y124.731 E15.61882
G1 X119.001 Y124.47 E15.62797
G1 X119 Y120.417 E15.76277
G1 X119.08 Y120.117 E15.7731
G1 X121 Y116.791 E15.90083
G1 X121 Y115.119 E15.95644
G1 X117.5 Y109.254 E16.18361
G1 X114 Y115.119 E16.41077
G1 X114 Y116.791 E16.46639
G1 X115.92 Y120.117 E16.59412
G1 X116 Y120.417 E16.60444
G1 X115.999 Y124.47 E16.73925
G1 X115.912 Y124.731 E16.7484
G1 X115.712 Y124.93 E16.75778
G1 X115.4 Y125.017 E16.76856
G1 X101.6 Y125.017 E17.22755
G1 X101.6 Y126.317 E17.27078
G0 F6000 X101.98 Y125.937
G0 X115.617 Y125.888
G1 F1118.9 X116.1 Y125.917 E17.28804
G1 F1200 X118.9 Y125.917 E17.38117
G1 F1165 X119.25 Y125.905 E17.39317
G1 F1098.4 X119.6 Y125.892 E17.4059
G1 F1066.7 X132.975 Y125.892 E17.90636
G1 X132.975 Y125.442 E17.9232
G1 X119.6 Y125.442 E18.42366
G1 F1098.4 X119.34 Y125.357 E18.4336
G1 F1165 X119.08 Y125.272 E18.44297
G1 F1200 X118.747 Y124.94 E18.45861
G1 X118.615 Y124.59 E18.47105
G1 X118.6 Y124.417 E18.47682
G1 X118.6 Y120.417 E18.60986
G1 X118.638 Y120.139 E18.6192
G1 X118.733 Y119.917 E18.62723
G1 X120.6 Y116.684 E18.7514
G1 X120.6 Y115.229 E18.79979
G1 X117.5 Y110.034 E19.001
G1 X114.4 Y115.229 E19.20222
G1 X114.4 Y116.684 E19.25061
G1 X116.267 Y119.917 E19.37478
G1 X116.362 Y120.139 E19.38281
G1 X116.4 Y120.417 E19.39215
G1 X116.4 Y124.417 E19.52519
G1 X116.385 Y124.59 E19.53096
G1 X116.253 Y124.94 E19.5434
G1 X115.92 Y125.272 E19.55904
G1 F1118.9 X115.578 Y125.432 E19.57251
G1 F1057.3 X115.4 Y125.442 E19.57924
G1 F1066.7 X102.025 Y125.442 E20.0797
G1 X102.025 Y125.892 E20.09654
G1 X115.4 Y125.892 E20.597
G1 F1057.3 X115.617 Y125.888 E20.6052
G0 F6000 X116.224 Y125.517
G1 F1200 X118.776 Y125.517 E20.69008
G1 X118.406 Y125.149 E20.70743
G1 X118.221 Y124.659 E20.72485
G1 X118.2 Y124.417 E20.73293
G1 X118.2 Y120.417 E20.86597
G1 X118.254 Y120.028 E20.87903
G1 X118.387 Y119.717 E20.89028
G1 X120.2 Y116.577 E21.01088
G1 X120.2 Y115.339 E21.05206
G1 X117.5 Y110.815 E21.22728
G1 X114.8 Y115.339 E21.40251
G1 X114.8 Y116.577 E21.44369
G1 X116.613 Y119.717 E21.56429
G1 X116.746 Y120.028 E21.57554
G1 X116.8 Y120.417 E21.5886
G1 X116.8 Y124.417 E21.72164
G1 X116.779 Y124.659 E21.72972
G1 X116.594 Y125.149 E21.74714
G1 X116.224 Y125.517 E21.76449
G0 F6000 X117.12 Y125.051
G1 F902.3 X117.88 Y125.051 E21.79811
G1 X117.762 Y124.74 E21.81283
G1 F930.2 X117.75 Y124.417 E21.8267
G1 F960 X117.75 Y120.417 E21.993
G1 F1010.5 X117.81 Y120.167 E22.00315
G1 F1129.4 X117.87 Y119.917 E22.01224
G1 F1200 X118.04 Y119.517 E22.02669
G1 X119.8 Y116.469 E22.14376
G1 X119.8 Y115.45 E22.17765
G1 X117.5 Y111.596 E22.32692
G1 X115.2 Y115.45 E22.4762
G1 X115.2 Y116.469 E22.51009
G1 X116.96 Y119.517 E22.62716
G1 X117.13 Y119.917 E22.64161
G1 F1129.4 X117.19 Y120.167 E22.6507
G1 F1010.5 X117.25 Y120.417 E22.66085
G1 F960 X117.25 Y124.417 E22.82715
G1 F930.2 X117.238 Y124.74 E22.84102
G1 F902.3 X117.12 Y125.051 E22.85574
G0 F6000 X117.5 Y119.772
G1 F1200 X117.694 Y119.317 E22.87219
G1 X119.4 Y116.362 E22.98567
G1 X119.4 Y115.56 E23.01235
G1 X117.5 Y112.377 E23.13564
G1 X115.92 Y115.027 E23.23826
G1 X115.6 Y115.56 E23.25894
G1 X115.6 Y116.362 E23.28561
G1 X117.306 Y119.317 E23.3991
G1 X117.5 Y119.772 E23.41555
G0 F6000 X117.499 Y118.93
;TYPE:SKIN
G1 F1200 X119.04 Y116.263 E23.518
G1 X119.04 Y115.966 E23.52788
G1 X119.04 Y115.66 E23.53805
G1 X117.499 Y113.079 E23.63803
G1 X115.96 Y115.66 E23.73798
G1 X115.96 Y116.266 E23.75814
G1 X117.499 Y118.93 E23.86046
G0 F6000 X117.668 Y118.234
G1 F1200 X116.862 Y117.428 E23.89838
G0 F6000 X116.464 Y117.657
G0 X117.5 Y119.305
G0 X118.275 Y118.108
G0 X117.876 Y117.876
G1 F1200 X116.159 Y116.159 E23.97914
G0 F6000 X116.204 Y115.638
G1 F1200 X118.083 Y117.517 E24.06752
G0 F6000 X118.29 Y117.159
G1 F1200 X116.415 Y115.284 E24.15572
G0 F6000 X116.626 Y114.929
G1 F1200 X118.497 Y116.8 E24.24372
G0 F6000 X118.704 Y116.442
G1 F1200 X116.838 Y114.575 E24.33152
G0 F6000 X117.049 Y114.221
G1 F1200 X118.839 Y116.01 E24.41569
G0 F6000 X119.3 Y116.01
G0 X119.251 Y115.683
G0 X118.833 Y114.809
G0 X118.438 Y115.044
G1 F1200 X117.26 Y113.866 E24.4711
G0 F6000 X117.598 Y113.639
G1 F1200 X117.472 Y113.512 E24.47705
G0 F6000 X116.822 Y113.124
G1 F2700 E19.47705
;MESH:NONMESH
G0 F300 X116.822 Y113.124 Z0.44
G0 F6000 X113.848 Y116.833
G0 X115.848 Y120.297
G0 X115.838 Y124.855
G0 X101.48 Y126.437
G1 F2700 E24.47705
G0 F6000 X101.2 Y126.717
M117 Time Left 0h16m21s
;TIME_ELAPSED:46.699573
;LAYER:1
M106 S38.2
;TYPE:WALL-OUTER
;MESH:Door catch v3.stl
G1 F1350 X133.8 Y126.717 E25.77818
G1 X133.8 Y125.667 E25.82009
G1 X133.8 Y124.617 E25.862
G1 X119.6 Y124.617 E26.42875
G1 X119.496 Y124.588 E26.43306
G1 X119.4 Y124.435 E26.44027
G1 X119.4 Y120.417 E26.60064
G1 X119.426 Y120.317 E26.60476
G1 X121.4 Y116.898 E26.76233
G1 X121.4 Y115.009 E26.83773
G1 X117.5 Y108.473 E27.1415
G1 X113.6 Y115.009 E27.44528
G1 X113.6 Y116.898 E27.52067
G1 X115.574 Y120.317 E27.67825
G1 X115.6 Y120.417 E27.68237
G1 X115.6 Y124.435 E27.84274
G1 X115.504 Y124.588 E27.84995
G1 X115.4 Y124.617 E27.85425
G1 X101.2 Y124.617 E28.42101
G1 X101.2 Y126.717 E28.50482
G0 F7500 X101.6 Y126.317
;TYPE:WALL-INNER
G1 F1350 X133.4 Y126.317 E29.77403
G1 X133.4 Y125.667 E29.79997
G1 X133.4 Y125.017 E29.82592
G1 X119.6 Y125.017 E30.3767
G1 X119.288 Y124.93 E30.38963
G1 X119.088 Y124.731 E30.40089
G1 X119.001 Y124.47 E30.41187
G1 X119 Y120.417 E30.57364
G1 X119.08 Y120.117 E30.58603
G1 X121 Y116.791 E30.73931
G1 X121 Y115.119 E30.80604
G1 X117.5 Y109.254 E31.07864
G1 X114 Y115.119 E31.35124
G1 X114 Y116.791 E31.41797
G1 X115.92 Y120.117 E31.57125
G1 X116 Y120.417 E31.58364
G1 X115.999 Y124.47 E31.7454
G1 X115.912 Y124.731 E31.75638
G1 X115.712 Y124.93 E31.76765
G1 X115.4 Y125.017 E31.78057
G1 X101.6 Y125.017 E32.33136
G1 X101.6 Y126.317 E32.38325
G0 F7500 X101.98 Y125.937
G0 X115.617 Y125.888
G1 F1258.7 X116.1 Y125.917 E32.40396
G1 F1350 X118.9 Y125.917 E32.51571
G1 F1310.7 X119.25 Y125.905 E32.53011
G1 F1235.7 X119.6 Y125.892 E32.54538
G1 F1200 X132.975 Y125.892 E33.14594
G1 X132.975 Y125.667 E33.15604
G1 X132.975 Y125.442 E33.16614
G1 X119.6 Y125.442 E33.76669
G1 F1235.7 X119.34 Y125.357 E33.77862
G1 F1310.7 X119.08 Y125.272 E33.78987
G1 F1350 X118.747 Y124.94 E33.80863
G1 X118.615 Y124.59 E33.82356
G1 X118.6 Y124.417 E33.83049
G1 X118.6 Y120.417 E33.99014
G1 X118.638 Y120.139 E34.00134
G1 X118.733 Y119.917 E34.01098
G1 X120.6 Y116.684 E34.15999
G1 X120.6 Y115.229 E34.21806
G1 X117.5 Y110.034 E34.45951
G1 X114.4 Y115.229 E34.70097
G1 X114.4 Y116.684 E34.75904
G1 X116.267 Y119.917 E34.90805
G1 X116.362 Y120.139 E34.91768
