;FLAVOR:Marlin
M117 Time Left 1h30m25s
;Filament used: 2.48725m
;Layer height: 0.12
;MINX:79.083
;MINY:79.197
;MINZ:0.12
;MAXX:155.803
;MAXY:155.803
;MAXZ:16.44
;POSTPROCESSED
;Generated with Cura_SteamEngine 4.6.1
M140 S60
M105
M190 S60
M104 S200
M105
M109 S200
M82 ;absolute extrusion mode
; Ender 3 Custom Start G-code
G92 E0 ; Reset Extruder
G28 ; Home all axes
G1 Z2.0 F3000 ; Move Z Axis up little to prevent scratching of Heat Bed
G1 X0.1 Y20 Z0.3 F5000.0 ; Move to start position
G1 X0.1 Y200.0 Z0.3 F1500.0 E15 ; Draw the first line
G1 X0.4 Y200.0 Z0.3 F5000.0 ; Move to side a little
G1 X0.4 Y20 Z0.3 F1500.0 E30 ; Draw the second line
G92 E0 ; Reset Extruder
G1 Z2.0 F3000 ; Move Z Axis up little to prevent scratching of Heat Bed
G1 X5 Y20 Z0.3 F5000.0 ; Move over to prevent blob squish
G92 E0
G92 E0
G1 F1500 E-6.5
;LAYER_COUNT:137
;LAYER:0
M107
G0 F9000 X119.939 Y80.072 Z0.12
;TYPE:SKIRT
M204 S750
M205 X5

G1 F1500 E0
G1 F2400 X120.815 Y80.139 E0.01753
G1 X121.459 Y80.201 E0.03044
G1 X121.843 Y80.245 E0.03816
G1 X123.113 Y80.416 E0.06373
G1 X123.457 Y80.469 E0.07068
G1 X124.444 Y80.641 E0.09067
G1 X125.432 Y80.843 E0.11079
G1 X126.158 Y81.009 E0.12566
G1 X126.49 Y81.091 E0.13248
G1 X127.787 Y81.437 E0.15927
G1 X128.659 Y81.696 E0.17742
G1 X129.61 Y82.006 E0.19738
G1 X129.906 Y82.108 E0.20363
G1 X130.525 Y82.331 E0.21676
G1 X130.845 Y82.452 E0.22359
G1 X132.17 Y82.985 E0.25209
G1 X132.975 Y83.337 E0.26962
G1 X133.761 Y83.703 E0.28692
G1 X134.03 Y83.834 E0.2929
G1 X134.87 Y84.261 E0.3117
G1 X135.861 Y84.804 E0.33425
G1 X136.516 Y85.181 E0.34933
G1 X136.789 Y85.344 E0.35568
G1 X137.807 Y85.973 E0.37956
G1 X138.104 Y86.163 E0.38659
G1 X138.852 Y86.667 E0.40459
G1 X139.795 Y87.343 E0.42775
G1 X140.669 Y88.008 E0.44966
G1 X141.553 Y88.723 E0.47235
G1 X142.003 Y89.105 E0.48413
G1 X142.28 Y89.348 E0.49149
G1 X143.223 Y90.209 E0.51697
G1 X143.469 Y90.442 E0.52373
G1 X144.01 Y90.97 E0.53882
G1 X144.244 Y91.206 E0.54545
G1 X144.928 Y91.921 E0.5652
G1 X145.296 Y92.319 E0.57601
G1 X145.52 Y92.57 E0.58273
G1 X146.398 Y93.591 E0.6096
G1 X146.788 Y94.07 E0.62193
G1 X146.993 Y94.33 E0.62853
G1 X147.584 Y95.106 E0.648
G1 X147.762 Y95.348 E0.65399
G1 X148.351 Y96.178 E0.6743
G1 X148.972 Y97.109 E0.69664
G1 X149.425 Y97.824 E0.71353
G1 X149.604 Y98.117 E0.72038
G1 X150.205 Y99.147 E0.74418
G1 X150.581 Y99.831 E0.75976
G1 X150.736 Y100.125 E0.76639
G1 X151.271 Y101.187 E0.79012
G1 X151.519 Y101.711 E0.80169
G1 X151.66 Y102.022 E0.8085
G1 X152.153 Y103.17 E0.83343
G1 X152.489 Y104.004 E0.85138
G1 X152.62 Y104.348 E0.85872
G1 X152.792 Y104.824 E0.86882
G1 X153.2 Y105.999 E0.89365
G1 X153.366 Y106.522 E0.9046
G1 X153.684 Y107.638 E0.92775
G1 X153.946 Y108.648 E0.94858
G1 X154.162 Y109.585 E0.96777
G1 X154.247 Y109.989 E0.976
G1 X154.321 Y110.378 E0.98391
G1 X154.563 Y111.8 E1.01269
G1 X154.615 Y112.139 E1.01954
G1 X154.734 Y113.043 E1.03773
G1 X154.822 Y113.871 E1.05435
G1 X154.868 Y114.37 E1.06435
G1 X154.917 Y114.977 E1.0765
G1 X154.938 Y115.302 E1.083
G1 X154.991 Y116.493 E1.10679
G1 X155.003 Y117.4 E1.12489
G1 X154.984 Y118.668 E1.1502
G1 X154.953 Y119.444 E1.1657
G1 X154.934 Y119.777 E1.17236
G1 X154.842 Y120.984 E1.19651
G1 X154.763 Y121.755 E1.21198
G1 X154.723 Y122.092 E1.21875
G1 X154.545 Y123.373 E1.24456
G1 X154.484 Y123.748 E1.25214
G1 X154.425 Y124.075 E1.25877
G1 X154.18 Y125.323 E1.28415
G1 X154.104 Y125.677 E1.29138
G1 X153.883 Y126.602 E1.31036
G1 X153.565 Y127.786 E1.33482
G1 X153.381 Y128.416 E1.34792
G1 X153.283 Y128.731 E1.3545
G1 X152.877 Y129.959 E1.38032
G1 X152.748 Y130.32 E1.38797
G1 X152.626 Y130.645 E1.39489
G1 X152.151 Y131.844 E1.42063
G1 X152.008 Y132.187 E1.42805
G1 X151.703 Y132.871 E1.44299
G1 X151.152 Y134.026 E1.46853
G1 X150.909 Y134.513 E1.47939
G1 X150.317 Y135.651 E1.50499
G1 X150.1 Y136.041 E1.5139
G1 X149.661 Y136.794 E1.53129
G1 X148.969 Y137.905 E1.55741
G1 X148.635 Y138.413 E1.56954
G1 X148.42 Y138.726 E1.57712
G1 X147.548 Y139.943 E1.607
G1 X146.931 Y140.746 E1.62721
G1 X146.282 Y141.544 E1.64773
G1 X145.79 Y142.12 E1.66285
G1 X145.573 Y142.365 E1.66938
G1 X144.905 Y143.098 E1.68917
G1 X144.679 Y143.338 E1.69575
G1 X143.932 Y144.102 E1.71708
G1 X143.393 Y144.627 E1.73209
G1 X143.029 Y144.971 E1.74209
G1 X142.622 Y145.347 E1.75314
G1 X142.375 Y145.568 E1.75976
G1 X141.632 Y146.211 E1.77937
G1 X141.373 Y146.427 E1.7861
G1 X140.634 Y147.025 E1.80507
G1 X140.35 Y147.247 E1.81226
G1 X139.17 Y148.131 E1.84168
G1 X138.865 Y148.35 E1.84918
G1 X138.302 Y148.727 E1.8627
G1 X136.753 Y149.685 E1.89905
G1 X135.999 Y150.121 E1.91643
G1 X135.072 Y150.624 E1.93747
G1 X134.546 Y150.894 E1.94927
G1 X133.743 Y151.294 E1.96718
G1 X132.868 Y151.712 E1.98653
G1 X132.316 Y151.955 E1.99856
G1 X131.605 Y152.25 E2.01392
G1 X130.666 Y152.619 E2.03406
G1 X130.18 Y152.796 E2.04438
G1 X129.422 Y153.059 E2.06039
G1 X128.576 Y153.333 E2.07814
G1 X127.462 Y153.659 E2.1013
G1 X126.905 Y153.807 E2.1128
G1 X126.569 Y153.89 E2.11971
G1 X125.219 Y154.196 E2.14733
G1 X124.415 Y154.356 E2.16369
G1 X124.093 Y154.414 E2.17022
G1 X123.215 Y154.557 E2.18797
G1 X122.473 Y154.663 E2.20293
G1 X122.133 Y154.706 E2.20977
G1 X121.049 Y154.823 E2.23153
G1 X120.491 Y154.874 E2.24271
G1 X119.605 Y154.938 E2.26044
G1 X118.741 Y154.98 E2.2777
G1 X118.429 Y154.99 E2.28393
G1 X117.452 Y155.003 E2.30343
G1 X116.164 Y154.983 E2.32914
G1 X115.371 Y154.95 E2.34497
G1 X115.044 Y154.931 E2.35151
G1 X114.01 Y154.852 E2.37221
G1 X113.509 Y154.802 E2.38225
G1 X113.16 Y154.761 E2.38927
G1 X111.69 Y154.558 E2.41888
G1 X111.017 Y154.446 E2.4325
G1 X110.679 Y154.384 E2.43935
G1 X109.378 Y154.118 E2.46585
G1 X108.579 Y153.93 E2.48223
G1 X107.52 Y153.654 E2.50407
G1 X107.188 Y153.562 E2.51095
G1 X106.582 Y153.382 E2.52356
G1 X106.272 Y153.284 E2.53005
G1 X104.977 Y152.851 E2.5573
G1 X104.184 Y152.56 E2.57416
G1 X103.199 Y152.17 E2.5953
G1 X102.893 Y152.043 E2.60191
G1 X101.954 Y151.631 E2.62237
G1 X101.025 Y151.192 E2.64288
G1 X100.331 Y150.845 E2.65836
G1 X99.994 Y150.669 E2.66595
G1 X98.846 Y150.036 E2.69211
G1 X98.341 Y149.742 E2.70377
G1 X98.06 Y149.572 E2.71033
G1 X96.893 Y148.837 E2.73785
G1 X96.482 Y148.564 E2.7477
G1 X96.207 Y148.375 E2.75436
G1 X95.285 Y147.718 E2.77695
G1 X95.003 Y147.51 E2.78394
G1 X94.23 Y146.914 E2.80342
G1 X93.502 Y146.323 E2.82213
G1 X92.941 Y145.846 E2.83683
G1 X92.68 Y145.616 E2.84377
G1 X91.636 Y144.659 E2.87203
G1 X91.084 Y144.123 E2.88739
G1 X90.848 Y143.886 E2.89406
G1 X90.004 Y143.006 E2.9184
G1 X89.638 Y142.608 E2.92919
G1 X89.42 Y142.363 E2.93573
G1 X88.556 Y141.354 E2.96224
G1 X88.204 Y140.92 E2.97339
G1 X87.991 Y140.648 E2.98029
G1 X87.189 Y139.58 E3.00694
G1 X86.446 Y138.529 E3.03262
G1 X85.937 Y137.758 E3.05106
G1 X85.611 Y137.247 E3.06316
G1 X85.441 Y136.971 E3.06963
G1 X85.081 Y136.365 E3.08369
G1 X84.911 Y136.067 E3.09054
G1 X84.394 Y135.117 E3.11212
G1 X84.092 Y134.523 E3.12542
G1 X83.588 Y133.501 E3.14816
G1 X83.394 Y133.084 E3.15734
G1 X82.865 Y131.877 E3.18364
G1 X82.729 Y131.552 E3.19067
G1 X82.386 Y130.679 E3.20939
G1 X82.031 Y129.692 E3.23032
G1 X81.833 Y129.102 E3.24274
G1 X81.729 Y128.776 E3.24957
G1 X81.362 Y127.547 E3.27516
G1 X81.267 Y127.203 E3.28228
G1 X81.056 Y126.377 E3.2993
G1 X80.803 Y125.254 E3.32227
G1 X80.666 Y124.567 E3.33625
G1 X80.607 Y124.244 E3.3428
G1 X80.447 Y123.261 E3.36268
G1 X80.333 Y122.459 E3.37884
G1 X80.289 Y122.107 E3.38592
G1 X80.181 Y121.092 E3.40629
G1 X80.131 Y120.535 E3.41745
G1 X80.061 Y119.577 E3.43662
G1 X79.888 Y116.055 E3.50699
G1 X79.884 Y115.152 E3.52501
G1 X79.96 Y114.252 E3.54304
G1 X80.041 Y113.726 E3.55366
G1 X80.169 Y113.028 E3.56782
G1 X80.551 Y111.049 E3.60804
G1 X80.808 Y109.758 E3.63431
G1 X80.919 Y109.242 E3.64484
G1 X81.065 Y108.602 E3.65794
G1 X81.139 Y108.302 E3.66411
G1 X81.43 Y107.201 E3.68683
G1 X81.66 Y106.431 E3.70287
G1 X82.079 Y105.161 E3.72956
G1 X82.289 Y104.572 E3.74204
G1 X82.428 Y104.206 E3.74985
G1 X82.952 Y102.91 E3.77775
G1 X83.435 Y101.813 E3.80167
G1 X83.868 Y100.906 E3.82173
G1 X84.305 Y100.044 E3.84101
G1 X84.665 Y99.385 E3.856
G1 X85.39 Y98.12 E3.88509
G1 X85.653 Y97.687 E3.8952
G1 X86.178 Y96.871 E3.91457
G1 X86.687 Y96.115 E3.93275
G1 X87.361 Y95.174 E3.95585
G1 X87.766 Y94.637 E3.96928
G1 X87.966 Y94.381 E3.97576
G1 X88.764 Y93.397 E4.00104
G1 X89.211 Y92.874 E4.01477
G1 X89.444 Y92.61 E4.0218
G1 X90.166 Y91.822 E4.04313
G1 X90.397 Y91.579 E4.04982
G1 X91.177 Y90.786 E4.07201
G1 X91.969 Y90.029 E4.09388
G1 X92.369 Y89.659 E4.10475
G1 X92.623 Y89.432 E4.11155
G1 X93.623 Y88.573 E4.13786
G1 X94.038 Y88.235 E4.14854
G1 X94.31 Y88.021 E4.15545
G1 X95.427 Y87.179 E4.18336
G1 X95.992 Y86.778 E4.19719
G1 X96.263 Y86.593 E4.20373
G1 X97.431 Y85.823 E4.23165
G1 X98.223 Y85.332 E4.25025
G1 X99.109 Y84.818 E4.27069
G1 X99.966 Y84.352 E4.29016
G1 X100.459 Y84.1 E4.30121
G1 X101.477 Y83.597 E4.32387
G1 X101.885 Y83.407 E4.33285
G1 X103.082 Y82.88 E4.35895
G1 X103.404 Y82.745 E4.36592
G1 X104.019 Y82.499 E4.37913
G1 X104.7 Y82.247 E4.39362
G1 X105.549 Y81.951 E4.41157
G1 X105.958 Y81.818 E4.42015
G1 X107.319 Y81.407 E4.44852
G1 X107.678 Y81.305 E4.45597
G1 X108.544 Y81.082 E4.47382
G1 X109.796 Y80.797 E4.49944
G1 X110.817 Y80.597 E4.5202
G1 X111.957 Y80.41 E4.54326
G1 X112.571 Y80.325 E4.55563
G1 X112.882 Y80.287 E4.56188
G1 X113.916 Y80.178 E4.58263
G1 X114.47 Y80.128 E4.59373
G1 X115.117 Y80.078 E4.60668
G1 X115.429 Y80.059 E4.61292
G1 X116.539 Y80.011 E4.63509
G1 X117.192 Y79.998 E4.64812
G1 X117.535 Y79.997 E4.65497
G1 X118.555 Y80.011 E4.67532
G1 X119.939 Y80.072 E4.70297
G0 F9000 X119.968 Y79.673
G1 F2400 X120.854 Y79.741 E4.7207
G1 X121.498 Y79.803 E4.73361
G1 X121.896 Y79.849 E4.74161
G1 X123.166 Y80.02 E4.76718
G1 X123.524 Y80.074 E4.77441
G1 X124.208 Y80.19 E4.78825
G1 X124.523 Y80.249 E4.79465
G1 X125.521 Y80.453 E4.81498
G1 X126.247 Y80.619 E4.82984
G1 X126.593 Y80.704 E4.83695
G1 X127.899 Y81.053 E4.86392
G1 X128.465 Y81.218 E4.87569
G1 X128.783 Y81.316 E4.88233
G1 X130.042 Y81.731 E4.90879
G1 X130.661 Y81.954 E4.92192
G1 X130.993 Y82.081 E4.92901
G1 X132.329 Y82.618 E4.95774
G1 X133.144 Y82.975 E4.9755
G1 X134.209 Y83.476 E4.99899
G1 X134.751 Y83.748 E5.01109
G1 X135.061 Y83.91 E5.01807
G1 X136.061 Y84.457 E5.04082
G1 X137 Y85.003 E5.06249
G1 X138.018 Y85.632 E5.08637
G1 X138.326 Y85.83 E5.09368
G1 X139.084 Y86.341 E5.11192
G1 X140.036 Y87.023 E5.13529
G1 X140.662 Y87.495 E5.15094
G1 X140.92 Y87.696 E5.15746
G1 X141.812 Y88.418 E5.18037
G1 X142.262 Y88.8 E5.19215
G1 X142.549 Y89.053 E5.19978
G1 X143.492 Y89.914 E5.22526
G1 X143.749 Y90.156 E5.23231
G1 X144.29 Y90.684 E5.24739
G1 X144.532 Y90.929 E5.25427
G1 X145.222 Y91.65 E5.27418
G1 X145.59 Y92.048 E5.285
G1 X145.823 Y92.308 E5.29197
G1 X146.708 Y93.338 E5.31907
G1 X147.098 Y93.817 E5.33139
G1 X147.311 Y94.088 E5.33827
G1 X148.088 Y95.115 E5.36397
G1 X148.504 Y95.696 E5.37823
G1 X148.683 Y95.955 E5.38451
G1 X149.31 Y96.895 E5.40706
G1 X149.763 Y97.61 E5.42395
G1 X149.949 Y97.914 E5.43107
G1 X150.555 Y98.955 E5.4551
G1 X150.931 Y99.639 E5.47068
G1 X151.092 Y99.944 E5.47756
G1 X151.632 Y101.015 E5.5015
G1 X151.88 Y101.539 E5.51307
G1 X152.027 Y101.864 E5.52019
G1 X152.524 Y103.021 E5.54532
G1 X152.86 Y103.855 E5.56326
G1 X152.996 Y104.212 E5.57088
G1 X153.17 Y104.693 E5.58109
G1 X153.578 Y105.868 E5.60591
G1 X153.75 Y106.412 E5.6173
G1 X154.071 Y107.536 E5.64063
G1 X154.335 Y108.557 E5.66167
G1 X154.554 Y109.503 E5.68105
G1 X154.639 Y109.907 E5.68929
G1 X154.716 Y110.311 E5.69749
G1 X154.958 Y111.733 E5.72628
G1 X155.012 Y112.085 E5.73339
G1 X155.132 Y113.001 E5.75182
G1 X155.221 Y113.834 E5.76854
G1 X155.267 Y114.338 E5.77864
G1 X155.316 Y114.945 E5.79079
G1 X155.337 Y115.283 E5.79755
G1 X155.391 Y116.486 E5.82158
G1 X155.402 Y117.08 E5.83344
G1 X155.403 Y117.405 E5.83992
G1 X155.384 Y118.684 E5.86545
G1 X155.353 Y119.46 E5.88095
G1 X155.333 Y119.806 E5.88787
G1 X155.24 Y121.024 E5.91224
G1 X155.161 Y121.795 E5.92771
G1 X155.119 Y122.146 E5.93476
G1 X154.939 Y123.437 E5.96078
G1 X154.878 Y123.812 E5.96836
G1 X154.817 Y124.152 E5.97525
G1 X154.572 Y125.4 E6.00063
G1 X154.493 Y125.768 E6.00814
G1 X154.27 Y126.705 E6.02736
G1 X153.949 Y127.898 E6.05202
G1 X153.765 Y128.528 E6.06512
G1 X153.664 Y128.855 E6.07195
G1 X153.254 Y130.094 E6.09799
G1 X153.125 Y130.455 E6.10564
G1 X152.998 Y130.792 E6.11283
G1 X152.523 Y131.991 E6.13856
G1 X152.374 Y132.348 E6.14628
G1 X152.064 Y133.043 E6.16147
G1 X151.511 Y134.204 E6.18713
G1 X151.265 Y134.696 E6.19811
G1 X150.816 Y135.567 E6.21767
G1 X150.447 Y136.24 E6.23298
G1 X150.173 Y136.716 E6.24394
G1 X150.001 Y137.004 E6.25064
G1 X149.303 Y138.124 E6.27697
G1 X148.969 Y138.632 E6.28911
G1 X148.746 Y138.958 E6.29699
G1 X147.866 Y140.185 E6.32712
G1 X147.434 Y140.753 E6.34136
G1 X147.242 Y140.997 E6.34756
G1 X146.586 Y141.804 E6.36831
G1 X146.094 Y142.38 E6.38343
G1 X145.869 Y142.635 E6.39022
G1 X145.201 Y143.368 E6.41001
G1 X144.966 Y143.617 E6.41684
G1 X144.211 Y144.388 E6.43837
G1 X143.668 Y144.917 E6.4535
G1 X143.3 Y145.265 E6.46361
G1 X142.893 Y145.641 E6.47467
G1 X142.637 Y145.87 E6.48152
G1 X141.894 Y146.513 E6.50113
G1 X141.625 Y146.738 E6.50813
G1 X140.886 Y147.336 E6.5271
G1 X140.59 Y147.567 E6.53459
G1 X139.403 Y148.456 E6.56419
G1 X139.098 Y148.675 E6.57168
G1 X138.513 Y149.067 E6.58573
G1 X136.955 Y150.031 E6.6223
G1 X136.191 Y150.471 E6.63989
G1 X135.255 Y150.98 E6.66115
G1 X134.724 Y151.252 E6.67306
G1 X133.917 Y151.654 E6.69105
G1 X133.031 Y152.077 E6.71064
G1 X132.47 Y152.324 E6.72288
G1 X131.752 Y152.622 E6.73839
G1 X130.803 Y152.995 E6.75874
G1 X130.312 Y153.173 E6.76916
G1 X129.547 Y153.439 E6.78532
G1 X128.689 Y153.717 E6.80332
G1 X127.565 Y154.046 E6.82669
G1 X127.008 Y154.194 E6.8382
G1 X126.659 Y154.28 E6.84537
G1 X125.297 Y154.588 E6.87324
G1 X124.493 Y154.748 E6.88959
G1 X124.159 Y154.809 E6.89637
G1 X123.272 Y154.953 E6.9143
G1 X122.53 Y155.059 E6.92926
G1 X122.177 Y155.104 E6.93636
G1 X121.086 Y155.221 E6.95826
G1 X120.522 Y155.272 E6.96956
G1 X119.625 Y155.337 E6.98751
G1 X118.436 Y155.39 E7.01126
G1 X117.447 Y155.403 E7.031
G1 X116.147 Y155.383 E7.05694
G1 X115.354 Y155.35 E7.07278
G1 X115.014 Y155.33 E7.07958
G1 X113.97 Y155.25 E7.10047
G1 X113.469 Y155.2 E7.11052
G1 X113.107 Y155.157 E7.1178
G1 X111.949 Y155.001 E7.14111
G1 X111.624 Y154.952 E7.14767
G1 X110.951 Y154.84 E7.16129
G1 X110.601 Y154.776 E7.16839
G1 X109.288 Y154.508 E7.19513
G1 X108.782 Y154.392 E7.20549
G1 X108.478 Y154.317 E7.21174
G1 X107.419 Y154.041 E7.23358
G1 X107.074 Y153.945 E7.24073
G1 X106.468 Y153.765 E7.25334
G1 X106.146 Y153.664 E7.26008
G1 X104.841 Y153.227 E7.28754
G1 X104.037 Y152.932 E7.30463
G1 X103.052 Y152.542 E7.32577
G1 X102.733 Y152.409 E7.33267
G1 X101.784 Y151.993 E7.35335
G1 X100.847 Y151.55 E7.37403
G1 X100.153 Y151.203 E7.38951
G1 X99.802 Y151.02 E7.39741
G1 X98.645 Y150.382 E7.42378
G1 X98.14 Y150.088 E7.43544
G1 X97.848 Y149.911 E7.44226
G1 X96.672 Y149.171 E7.46998
G1 X96.261 Y148.898 E7.47983
G1 X95.975 Y148.701 E7.48676
G1 X95.053 Y148.044 E7.50935
G1 X94.76 Y147.827 E7.51663
G1 X93.979 Y147.225 E7.53631
G1 X93.243 Y146.627 E7.55523
G1 X92.682 Y146.15 E7.56993
G1 X92.411 Y145.912 E7.57713
G1 X91.605 Y145.178 E7.59888
G1 X91.358 Y144.946 E7.60564
G1 X90.806 Y144.41 E7.621
G1 X90.56 Y144.163 E7.62796
G1 X89.71 Y143.277 E7.65246
G1 X89.117 Y142.625 E7.67005
G1 X88.245 Y141.606 E7.69681
G1 X87.893 Y141.172 E7.70796
G1 X87.672 Y140.889 E7.71513
G1 X86.863 Y139.813 E7.74199
G1 X86.313 Y139.041 E7.76091
G1 X86.113 Y138.75 E7.76795
G1 X85.6 Y137.973 E7.78653
G1 X85.274 Y137.462 E7.79863
G1 X85.097 Y137.175 E7.80536
G1 X84.737 Y136.569 E7.81943
G1 X84.56 Y136.26 E7.82653
