;FLAVOR:Marlin
M117 Time Left 1h35m26s
;Filament used: 3.66689m
;Layer height: 0.12
;MINX:70
;MINY:94
;MINZ:0.12
;MAXX:141
;MAXY:165
;MAXZ:24.96
;POSTPROCESSED
;Generated with Cura_SteamEngine 4.4.1
M140 S60
M105
M190 S60
M104 S200
M105
M109 S200
M82 ;absolute extrusion mode
M201 X500.00 Y500.00 Z100.00 E5000.00 ;Setup machine max acceleration
M203 X500.00 Y500.00 Z10.00 E50.00 ;Setup machine max feedrate
M204 P500.00 R1000.00 T500.00 ;Setup Print/Retract/Travel acceleration
M205 X8.00 Y8.00 Z0.40 E5.00 ;Setup Jerk
M220 S100 ;Reset Feedrate
M221 S100 ;Reset Flowrate

G28 ;Home

G92 E0 ;Reset Extruder
G1 Z2.0 F3000 ;Move Z Axis up
G1 X10.1 Y20 Z0.28 F5000.0 ;Move to start position
G1 X10.1 Y200.0 Z0.28 F1500.0 E15 ;Draw the first line
G1 X10.4 Y200.0 Z0.28 F5000.0 ;Move to side a little
G1 X10.4 Y20 Z0.28 F1500.0 E30 ;Draw the second line
G92 E0 ;Reset Extruder
G1 Z2.0 F3000 ;Move Z Axis up

G92 E0
G92 E0
G1 F1500 E-6.5
;LAYER_COUNT:208
;LAYER:0
M107
G0 F6000 X97.366 Y97.097 Z0.12
;TYPE:SKIRT
M204 S750
M205 X5

G1 F1500 E0
G1 F1200 X98.069 Y96.476 E0.01872
G1 X98.822 Y95.918 E0.03742
G1 X99.621 Y95.425 E0.05616
G1 X100.458 Y95.002 E0.07487
G1 X101.328 Y94.653 E0.09358
G1 X102.225 Y94.378 E0.1123
G1 X103.142 Y94.181 E0.13102
G1 X104.212 Y94.052 E0.15253
G1 X104.549 Y94.028 E0.15927
G1 X105.33 Y94 E0.17487
G1 X129.293 Y94 E0.65307
G1 X129.451 Y94.001 E0.65623
G1 X130.149 Y94.011 E0.67016
G1 X131.085 Y94.065 E0.68887
G1 X132.013 Y94.197 E0.70757
G1 X132.927 Y94.409 E0.7263
G1 X133.819 Y94.698 E0.74501
G1 X134.684 Y95.061 E0.76373
G1 X135.514 Y95.497 E0.78244
G1 X136.305 Y96.002 E0.80117
G1 X137.049 Y96.573 E0.81988
G1 X137.742 Y97.205 E0.8386
G1 X138.379 Y97.893 E0.85731
G1 X138.954 Y98.634 E0.87603
G1 X139.465 Y99.42 E0.89474
G1 X139.907 Y100.248 E0.91347
G1 X140.276 Y101.11 E0.93218
G1 X140.571 Y102 E0.95089
G1 X140.789 Y102.912 E0.9696
G1 X140.929 Y103.84 E0.98833
G1 X140.987 Y104.701 E1.00555
G1 X140.996 Y105.021 E1.01194
G1 X141 Y105.33 E1.01811
G1 X141 Y129.293 E1.49632
G1 X140.999 Y129.451 E1.49947
G1 X140.989 Y130.147 E1.51336
G1 X140.935 Y131.083 E1.53207
G1 X140.802 Y132.012 E1.5508
G1 X140.591 Y132.925 E1.5695
G1 X140.302 Y133.818 E1.58823
G1 X139.939 Y134.682 E1.60693
G1 X139.503 Y135.513 E1.62566
G1 X138.997 Y136.303 E1.64438
G1 X138.427 Y137.047 E1.66308
G1 X137.795 Y137.74 E1.6818
G1 X137.106 Y138.377 E1.70053
G1 X136.455 Y138.888 E1.71704
G1 X135.858 Y139.322 E1.73177
G1 X133.715 Y140.91 E1.785
G1 X131.727 Y142.47 E1.83543
G1 X129.789 Y144.082 E1.88573
G1 X127.886 Y145.76 E1.93637
G1 X126.074 Y147.449 E1.9858
G1 X124.285 Y149.215 E2.03596
G1 X122.527 Y151.049 E2.08666
G1 X120.83 Y152.925 E2.13715
G1 X119.22 Y154.81 E2.18662
G1 X117.613 Y156.8 E2.23766
G1 X116.117 Y158.767 E2.28698
G1 X115.323 Y159.874 E2.31416
G1 X115.237 Y159.991 E2.31706
G1 X114.872 Y160.486 E2.32933
G1 X114.533 Y160.924 E2.34039
G1 X114.506 Y160.957 E2.34124
G1 X113.881 Y161.657 E2.35997
G1 X113.2 Y162.301 E2.37867
G1 X112.466 Y162.884 E2.39738
G1 X111.684 Y163.404 E2.41612
G1 X110.862 Y163.854 E2.43482
G1 X110.004 Y164.233 E2.45354
G1 X109.117 Y164.538 E2.47225
G1 X108.207 Y164.766 E2.49098
G1 X107.281 Y164.915 E2.50969
G1 X106.299 Y164.987 E2.52934
G1 X105.977 Y164.996 E2.53577
G1 X105.67 Y165 E2.5419
G1 X96.707 Y165 E2.72076
G1 X96.554 Y164.999 E2.72382
G1 X95.837 Y164.989 E2.73813
G1 X95.522 Y164.98 E2.74442
G1 X94.879 Y164.953 E2.75726
G1 X92.241 Y164.878 E2.80992
G1 X89.753 Y164.878 E2.85958
G1 X87.179 Y164.951 E2.91096
G1 X86.821 Y164.969 E2.91812
G1 X86.578 Y164.978 E2.92297
G1 X85.985 Y164.995 E2.93481
G1 X85.67 Y165 E2.94109
G1 X81.707 Y165 E3.02018
G1 X81.565 Y164.999 E3.02301
G1 X80.867 Y164.99 E3.03694
G1 X79.931 Y164.938 E3.05565
G1 X79.002 Y164.806 E3.07438
G1 X78.088 Y164.596 E3.09309
G1 X77.195 Y164.309 E3.11181
G1 X76.33 Y163.946 E3.13053
G1 X75.499 Y163.512 E3.14924
G1 X74.708 Y163.008 E3.16796
G1 X73.963 Y162.438 E3.18668
G1 X73.269 Y161.807 E3.2054
G1 X72.632 Y161.12 E3.22409
G1 X72.055 Y160.38 E3.24282
G1 X71.543 Y159.594 E3.26154
G1 X71.1 Y158.767 E3.28026
G1 X70.729 Y157.906 E3.29897
G1 X70.433 Y157.016 E3.31769
G1 X70.214 Y156.104 E3.3364
G1 X70.073 Y155.177 E3.35512
G1 X70.013 Y154.288 E3.3729
G1 X70.004 Y153.955 E3.37955
G1 X70 Y153.658 E3.38547
G1 X70 Y129.707 E3.86344
G1 X70.001 Y129.549 E3.86659
G1 X70.011 Y128.851 E3.88053
G1 X70.065 Y127.915 E3.89924
G1 X70.197 Y126.987 E3.91794
G1 X70.409 Y126.073 E3.93667
G1 X70.698 Y125.181 E3.95538
G1 X71.061 Y124.316 E3.9741
G1 X71.497 Y123.486 E3.99281
G1 X72.002 Y122.695 E4.01154
G1 X72.573 Y121.951 E4.03025
G1 X73.205 Y121.258 E4.04897
G1 X73.893 Y120.621 E4.06768
G1 X74.562 Y120.097 E4.08464
G1 X75.179 Y119.65 E4.09984
G1 X77.285 Y118.09 E4.15214
G1 X79.273 Y116.53 E4.20257
G1 X81.211 Y114.918 E4.25288
G1 X83.114 Y113.24 E4.30351
G1 X84.926 Y111.551 E4.35294
G1 X86.715 Y109.785 E4.40311
G1 X88.473 Y107.951 E4.45381
G1 X90.17 Y106.075 E4.50429
G1 X91.78 Y104.19 E4.55376
G1 X93.387 Y102.2 E4.6048
G1 X94.894 Y100.219 E4.65448
G1 X95.703 Y99.091 E4.68218
G1 X95.778 Y98.987 E4.68474
G1 X96.131 Y98.507 E4.69663
G1 X96.719 Y97.776 E4.71535
G1 X97.366 Y97.097 E4.73407
G0 F6000 X97.668 Y97.362
G1 F1200 X98.36 Y96.755 E4.75243
G1 X99.103 Y96.211 E4.77081
G1 X99.89 Y95.733 E4.78919
G1 X100.715 Y95.326 E4.80755
G1 X101.573 Y94.991 E4.82593
G1 X102.456 Y94.732 E4.84429
G1 X103.359 Y94.551 E4.86267
G1 X104.24 Y94.451 E4.88036
G1 X104.577 Y94.427 E4.88711
G1 X105.33 Y94.4 E4.90214
G1 X129.293 Y94.4 E5.38035
G1 X129.445 Y94.401 E5.38338
G1 X130.143 Y94.411 E5.39731
G1 X131.062 Y94.464 E5.41568
G1 X131.973 Y94.597 E5.43406
G1 X132.869 Y94.808 E5.45243
G1 X133.743 Y95.096 E5.47079
G1 X134.59 Y95.459 E5.48918
G1 X135.401 Y95.894 E5.50755
G1 X136.171 Y96.398 E5.52591
G1 X136.895 Y96.967 E5.54429
G1 X137.567 Y97.597 E5.56267
G1 X138.182 Y98.282 E5.58104
G1 X138.735 Y99.018 E5.59941
G1 X139.222 Y99.799 E5.61778
G1 X139.639 Y100.62 E5.63616
G1 X139.984 Y101.474 E5.65454
G1 X140.253 Y102.354 E5.6729
G1 X140.445 Y103.255 E5.69128
G1 X140.558 Y104.168 E5.70964
G1 X140.587 Y104.712 E5.72051
G1 X140.596 Y105.032 E5.7269
G1 X140.6 Y105.33 E5.73285
G1 X140.6 Y129.293 E6.21106
G1 X140.599 Y129.445 E6.21409
G1 X140.589 Y130.141 E6.22798
G1 X140.536 Y131.06 E6.24635
G1 X140.403 Y131.971 E6.26472
G1 X140.192 Y132.868 E6.28311
G1 X139.903 Y133.742 E6.30148
G1 X139.54 Y134.588 E6.31986
G1 X139.105 Y135.399 E6.33822
G1 X138.601 Y136.17 E6.3566
G1 X138.033 Y136.894 E6.37497
G1 X137.403 Y137.566 E6.39335
G1 X136.718 Y138.18 E6.41171
G1 X136.22 Y138.565 E6.42427
G1 X135.54 Y139.059 E6.44104
G1 X133.475 Y140.589 E6.49233
G1 X131.469 Y142.163 E6.54321
G1 X129.535 Y143.773 E6.59343
G1 X127.651 Y145.434 E6.64355
G1 X125.768 Y147.189 E6.69492
G1 X123.998 Y148.936 E6.74455
G1 X122.224 Y150.786 E6.7957
G1 X120.545 Y152.643 E6.84566
G1 X118.921 Y154.544 E6.89556
G1 X117.299 Y156.552 E6.94707
G1 X115.789 Y158.538 E6.99686
G1 X114.998 Y159.641 E7.02394
G1 X114.915 Y159.754 E7.02674
G1 X114.55 Y160.249 E7.03901
G1 X114.223 Y160.67 E7.04965
G1 X114.196 Y160.703 E7.0505
G1 X113.583 Y161.39 E7.06888
G1 X112.912 Y162.021 E7.08726
G1 X112.189 Y162.591 E7.10563
G1 X111.419 Y163.096 E7.12401
G1 X110.609 Y163.533 E7.14237
G1 X109.764 Y163.897 E7.16074
G1 X108.89 Y164.187 E7.17911
G1 X107.994 Y164.4 E7.19749
G1 X107.083 Y164.535 E7.21587
G1 X106.288 Y164.587 E7.23177
G1 X105.966 Y164.596 E7.2382
G1 X105.67 Y164.6 E7.2441
G1 X96.707 Y164.6 E7.42297
G1 X96.559 Y164.599 E7.42592
G1 X95.842 Y164.589 E7.44023
G1 X95.539 Y164.58 E7.44628
G1 X94.908 Y164.553 E7.45889
G1 X92.252 Y164.478 E7.51191
G1 X89.742 Y164.478 E7.562
G1 X87.148 Y164.551 E7.61379
G1 X86.801 Y164.569 E7.62072
G1 X86.567 Y164.579 E7.6254
G1 X85.974 Y164.596 E7.63724
G1 X85.67 Y164.6 E7.6433
G1 X81.707 Y164.6 E7.72239
G1 X81.57 Y164.599 E7.72512
G1 X80.872 Y164.59 E7.73905
G1 X79.953 Y164.538 E7.75742
G1 X79.042 Y164.407 E7.77579
G1 X78.146 Y164.197 E7.79415
G1 X77.271 Y163.91 E7.81253
G1 X76.424 Y163.548 E7.83091
G1 X75.612 Y163.114 E7.84929
G1 X74.841 Y162.612 E7.86765
G1 X74.116 Y162.044 E7.88603
G1 X73.443 Y161.415 E7.90441
G1 X72.828 Y160.731 E7.92277
G1 X72.274 Y159.996 E7.94113
G1 X71.786 Y159.215 E7.95951
G1 X71.367 Y158.395 E7.97789
G1 X71.021 Y157.542 E7.99626
G1 X70.751 Y156.662 E8.01463
G1 X70.558 Y155.761 E8.03301
G1 X70.444 Y154.848 E8.05138
G1 X70.413 Y154.277 E8.06279
G1 X70.404 Y153.944 E8.06944
G1 X70.4 Y153.658 E8.07514
G1 X70.4 Y129.707 E8.55311
G1 X70.401 Y129.555 E8.55615
G1 X70.411 Y128.857 E8.57008
G1 X70.464 Y127.938 E8.58845
G1 X70.597 Y127.027 E8.60682
G1 X70.808 Y126.131 E8.62519
G1 X71.096 Y125.257 E8.64355
G1 X71.459 Y124.41 E8.66194
G1 X71.894 Y123.599 E8.68031
G1 X72.398 Y122.829 E8.69867
G1 X72.967 Y122.105 E8.71705
G1 X73.597 Y121.433 E8.73543
G1 X74.282 Y120.818 E8.7538
G1 X74.796 Y120.421 E8.76676
G1 X75.476 Y119.929 E8.78351
G1 X77.525 Y118.411 E8.8344
G1 X79.531 Y116.837 E8.88529
G1 X81.465 Y115.227 E8.9355
G1 X83.349 Y113.566 E8.98563
G1 X85.232 Y111.811 E9.03699
G1 X87.002 Y110.064 E9.08662
G1 X88.776 Y108.214 E9.13777
G1 X90.455 Y106.357 E9.18773
G1 X92.079 Y104.456 E9.23763
G1 X93.701 Y102.448 E9.28914
G1 X95.234 Y100.431 E9.3397
G1 X96.028 Y99.325 E9.36687
G1 X96.101 Y99.224 E9.36936
G1 X96.454 Y98.744 E9.38125
G1 X97.031 Y98.027 E9.39961
G1 X97.668 Y97.362 E9.41799
G0 F6000 X97.969 Y97.628
G1 F1200 X98.651 Y97.035 E9.43602
G1 X99.383 Y96.506 E9.45405
G1 X100.158 Y96.043 E9.47206
G1 X100.971 Y95.65 E9.49008
G1 X101.816 Y95.331 E9.50811
G1 X102.686 Y95.088 E9.52613
G1 X103.574 Y94.923 E9.54416
G1 X104.268 Y94.85 E9.55809
G1 X104.605 Y94.826 E9.56483
G1 X105.33 Y94.8 E9.5793
G1 X129.293 Y94.8 E10.05751
G1 X129.439 Y94.801 E10.06043
G1 X130.137 Y94.811 E10.07436
G1 X131.039 Y94.864 E10.09239
G1 X131.932 Y94.996 E10.1104
G1 X132.81 Y95.207 E10.12842
G1 X133.666 Y95.495 E10.14645
G1 X134.493 Y95.857 E10.16446
G1 X135.285 Y96.292 E10.18249
G1 X136.036 Y96.794 E10.20052
G1 X136.739 Y97.361 E10.21854
G1 X137.389 Y97.988 E10.23657
G1 X137.981 Y98.67 E10.25459
G1 X138.511 Y99.401 E10.27261
G1 X138.973 Y100.177 E10.29063
G1 X139.366 Y100.99 E10.30865
G1 X139.684 Y101.835 E10.32667
G1 X139.927 Y102.705 E10.3447
G1 X140.092 Y103.593 E10.36272
G1 X140.187 Y104.723 E10.38535
G1 X140.196 Y105.043 E10.39174
G1 X140.2 Y105.33 E10.39747
G1 X140.2 Y129.293 E10.87567
G1 X140.199 Y129.44 E10.87861
G1 X140.189 Y130.136 E10.8925
G1 X140.136 Y131.037 E10.91051
G1 X140.004 Y131.93 E10.92852
G1 X139.793 Y132.809 E10.94656
G1 X139.505 Y133.665 E10.96459
G1 X139.142 Y134.492 E10.98261
G1 X138.708 Y135.284 E11.00063
G1 X138.206 Y136.034 E11.01864
G1 X137.639 Y136.737 E11.03667
G1 X137.012 Y137.387 E11.05469
G1 X135.985 Y138.241 E11.08134
G1 X135.382 Y138.679 E11.09622
G1 X133.213 Y140.286 E11.15009
G1 X131.233 Y141.839 E11.20031
G1 X129.278 Y143.467 E11.25108
G1 X127.359 Y145.158 E11.30212
G1 X125.496 Y146.894 E11.35294
G1 X123.71 Y148.657 E11.40302
G1 X121.956 Y150.488 E11.45362
G1 X120.244 Y152.381 E11.50455
G1 X118.574 Y154.335 E11.55585
G1 X117.015 Y156.266 E11.60537
G1 X115.461 Y158.309 E11.6566
G1 X114.673 Y159.408 E11.68358
G1 X114.593 Y159.516 E11.68627
G1 X114.228 Y160.011 E11.69854
G1 X113.913 Y160.417 E11.70879
G1 X113.886 Y160.45 E11.70965
G1 X113.284 Y161.123 E11.72767
G1 X112.625 Y161.74 E11.74568
G1 X111.913 Y162.296 E11.76371
G1 X111.155 Y162.788 E11.78174
G1 X110.357 Y163.21 E11.79976
G1 X109.525 Y163.56 E11.81777
G1 X108.664 Y163.835 E11.83581
G1 X107.783 Y164.033 E11.85383
G1 X106.888 Y164.152 E11.87184
G1 X106.277 Y164.187 E11.88406
G1 X105.955 Y164.196 E11.89049
G1 X105.67 Y164.2 E11.89617
G1 X96.707 Y164.2 E12.07504
G1 X96.565 Y164.199 E12.07787
G1 X95.848 Y164.189 E12.09218
G1 X95.556 Y164.181 E12.09801
G1 X94.867 Y164.152 E12.11178
G1 X92.263 Y164.078 E12.16376
G1 X89.73 Y164.078 E12.21431
G1 X87.162 Y164.151 E12.26558
G1 X86.781 Y164.17 E12.27319
G1 X86.555 Y164.179 E12.27771
G1 X85.962 Y164.196 E12.28954
G1 X85.67 Y164.2 E12.29537
G1 X81.707 Y164.2 E12.37446
G1 X81.575 Y164.199 E12.37709
G1 X80.877 Y164.19 E12.39102
G1 X79.976 Y164.139 E12.40903
G1 X79.082 Y164.007 E12.42707
G1 X78.204 Y163.798 E12.44508
G1 X77.347 Y163.511 E12.46311
G1 X76.52 Y163.15 E12.48112
G1 X75.727 Y162.717 E12.49915
G1 X74.976 Y162.216 E12.51717
G1 X74.272 Y161.65 E12.53519
G1 X73.621 Y161.024 E12.55322
G1 X73.028 Y160.343 E12.57124
G1 X72.498 Y159.612 E12.58926
G1 X72.034 Y158.837 E12.60728
G1 X71.64 Y158.024 E12.62531
G1 X71.32 Y157.18 E12.64332
G1 X71.076 Y156.31 E12.66136
G1 X70.91 Y155.422 E12.67938
G1 X70.813 Y154.267 E12.70251
G1 X70.804 Y153.934 E12.70916
G1 X70.8 Y153.658 E12.71467
G1 X70.8 Y129.707 E13.19264
G1 X70.801 Y129.561 E13.19555
G1 X70.811 Y128.863 E13.20948
G1 X70.864 Y127.961 E13.22751
G1 X70.996 Y127.068 E13.24553
G1 X71.207 Y126.19 E13.26355
G1 X71.495 Y125.334 E13.28157
G1 X71.857 Y124.507 E13.29959
G1 X72.292 Y123.715 E13.31762
G1 X72.794 Y122.964 E13.33565
G1 X73.361 Y122.261 E13.35367
G1 X73.988 Y121.611 E13.37169
G1 X74.67 Y121.019 E13.38972
G1 X75.031 Y120.745 E13.39876
G1 X75.659 Y120.291 E13.41422
G1 X77.787 Y118.714 E13.46708
G1 X79.767 Y117.161 E13.5173
G1 X81.722 Y115.533 E13.56807
G1 X83.641 Y113.842 E13.61911
G1 X85.504 Y112.106 E13.66993
G1 X87.29 Y110.343 E13.72001
G1 X89.044 Y108.512 E13.77061
G1 X90.756 Y106.619 E13.82154
G1 X92.426 Y104.665 E13.87284
G1 X93.985 Y102.734 E13.92237
G1 X95.562 Y100.661 E13.97434
G1 X96.353 Y99.558 E14.00143
G1 X96.423 Y99.461 E14.00382
G1 X96.776 Y98.981 E14.01571
G1 X97.343 Y98.278 E14.03373
G1 X97.969 Y97.628 E14.05174
G1 F1500 E7.55174
;MESH:cube.stl
G0 F6000 X105.414 Y104.335
G0 X105.414 Y105.414
G0 X106 Y129
;TYPE:WALL-INNER
M204 S1500
M205 X5

G1 F1500 E14.05174
G1 F1200 X106 Y106 E14.51073
G1 X129 Y106 E14.96972
G1 X129 Y129 E15.42871
G1 X106 Y129 E15.8877
G0 F6000 X105.6 Y129.4
G1 F1200 X105.6 Y105.6 E16.36266
G1 X129.4 Y105.6 E16.83761
G1 X129.4 Y129.4 E17.31256
G1 X105.6 Y129.4 E17.78752
G0 F6000 X105.2 Y129.8
;TYPE:WALL-OUTER
M204 S750
M205 X5

G1 F1200 X105.2 Y105.2 E18.27844
G1 X129.8 Y105.2 E18.76936
G1 X129.8 Y129.8 E19.26028
G1 X105.2 Y129.8 E19.7512
G0 F6000 X105.47 Y129.53
G0 X106.11 Y128.61
G0 X106.39 Y128.61
;TYPE:SKIN
M204 S750
M205 X5

G1 F1200 X106.39 Y106.39 E20.19462
G1 X128.61 Y106.39 E20.63805
G1 X128.61 Y128.61 E21.08147
G1 X106.39 Y128.61 E21.52489
G0 F6000 X106.953 Y128.449
G1 F1200 X106.549 Y128.045 E21.5363
G0 F6000 X106.549 Y127.48
G1 F1200 X107.519 Y128.449 E21.56366
G0 F6000 X108.084 Y128.449
G1 F1200 X106.549 Y126.914 E21.60698
G0 F6000 X106.549 Y126.348
G1 F1200 X108.65 Y128.449 E21.66627
G0 F6000 X109.216 Y128.449
G1 F1200 X106.549 Y125.782 E21.74154
G0 F6000 X106.549 Y125.217
G1 F1200 X109.781 Y128.449 E21.83276
G0 F6000 X110.347 Y128.449
G1 F1200 X106.549 Y124.651 E21.93994
G0 F6000 X106.549 Y124.085
G1 F1200 X110.913 Y128.449 E22.0631
G0 F6000 X111.478 Y128.449
G1 F1200 X106.549 Y123.52 E22.20221
G0 F6000 X106.549 Y122.954
G1 F1200 X112.044 Y128.449 E22.35729
G0 F6000 X112.61 Y128.449
G1 F1200 X106.549 Y122.388 E22.52835
G0 F6000 X106.549 Y121.823
G1 F1200 X113.175 Y128.449 E22.71535
G0 F6000 X113.741 Y128.449
G1 F1200 X106.549 Y121.257 E22.91832
G0 F6000 X106.549 Y120.691
G1 F1200 X114.307 Y128.449 E23.13727
G0 F6000 X114.873 Y128.449
G1 F1200 X106.549 Y120.126 E23.37218
G0 F6000 X106.549 Y119.56
G1 F1200 X115.438 Y128.449 E23.62304
G0 F6000 X116.004 Y128.449
G1 F1200 X106.549 Y118.994 E23.88988
G0 F6000 X106.549 Y118.429
G1 F1200 X116.57 Y128.449 E24.17268
G0 F6000 X117.135 Y128.449
G1 F1200 X106.549 Y117.863 E24.47144
G0 F6000 X106.549 Y117.297
