;FLAVOR:Marlin
M117 Time Left 0h25m34s
;TIME:1534
;Filament used: 0.701953m
;Layer height: 0.16
;MINX:83.71
;MINY:85.351
;MINZ:0.2
;MAXX:151.289
;MAXY:149.653
;MAXZ:2.8
;POSTPROCESSED
;Generated with Cura_SteamEngine 5.3.1
M82 ;absolute extrusion mode
;;; Script based on an original created by tjjfvi (https://github.com/tjjfvi)
; An up-to-date version of the tjjfvi's original script can be found
; here:  https://csi.t6.fyi/
; Note - This script will only work in Cura V4.2 and above!
; --- Global Settings
; layer_height = 0.16
; smooth_spiralized_contours = True
; magic_mesh_surface_mode = normal
; machine_extruder_count = 1
; --- Single Extruder Settings
; speed_z_hop = 5
; retraction_amount = 5
; retraction_hop = 0.2
; retraction_hop_enabled = False
; retraction_enable = True
; retraction_speed = 45
; retraction_retract_speed = 45
; retraction_prime_speed = 45
; speed_travel = 150.0

;; Sun 11-06-2023 18:41:47

;; layer_height = 0.16
;; wall_thickness = 1.2000000000000002
;; retraction_enable = True
;; solid_layer_thickness = {solid_layer_thickness}
;; fill_density = {fill_density}
;; print_speed = {print_speed}
;; print_temperature = 200
;; print_temperature2 = {print_temperature2}
;; print_temperature3 = {print_temperature3}
;; print_temperature4 = {print_temperature4}
;; print_temperature5 = {print_temperature5}
;; print_bed_temperature = 50
;; support = 0
;; platform_adhesion = 0
;; support_dual_extrusion = {support_dual_extrusion}
;; wipe_tower = {wipe_tower}
;; wipe_tower_volume = {wipe_tower_volume}
;; ooze_shield = {ooze_shield}
;; filament_diameter = {filament_diameter}
;; filament_diameter2 = {filament_diameter2}
;; filament_diameter3 = {filament_diameter3}
;; filament_diameter4 = {filament_diameter4}
;; filament_diameter5 = {filament_diameter5}
;; filament_flow = {filament_flow}
;; nozzle_size = {nozzle_size}
;; retraction_speed = 45
;; retraction_amount = 5
;; retraction_dual_amount = {retraction_dual_amount}
;; retraction_min_travel = 1.5
;; retraction_combing = noskin
;; retraction_minimal_extrusion = {retraction_minimal_extrusion}
;; retraction_hop = 0.2
;; bottom_thickness = 0.8400000000000001
;; layer0_width_factor = {layer0_width_factor}
;; object_sink = {object_sink}
;; enable_skin = {enable_skin}
;; overlap_dual = {overlap_dual}
;; travel_speed = 150.0
;; bottom_layer_speed = {bottom_layer_speed}
;; infill_speed = {infill_speed}
;; solidarea_speed = {solidarea_speed}
;; inset0_speed = {inset0_speed}
;; insetx_speed = {insetx_speed}
;; cool_min_layer_time = 10
;; fan_enabled = {fan_enabled}
;; skirt_line_count = 3
;; skirt_gap = 10.0
;; skirt_minimal_length = {skirt_minimal_length}
;; fan_full_height = {fan_full_height}
;; fan_speed = {fan_speed}
;; fan_speed_max = {fan_speed_max}
;; cool_min_feedrate = {cool_min_feedrate}
;; cool_head_lift = {cool_head_lift}
;; solid_top = {solid_top}
;; solid_bottom = {solid_bottom}
;; fill_overlap = {fill_overlap}
;; perimeter_before_infill = {perimeter_before_infill}
;; support_type = everywhere
;; support_angle = 51
;; support_fill_rate = {support_fill_rate}
;; support_xy_distance = 0.8
;; support_z_distance = 0.16
;; spiralize = {spiralize}
;; simple_mode = {simple_mode}
;; bridge_speed = {bridge_speed}
;; brim_line_count = 20
;; raft_margin = 15
;; raft_line_spacing = {raft_line_spacing}
;; raft_base_thickness = 0.24
;; raft_base_linewidth = {raft_base_linewidth}
;; raft_interface_thickness = 0.24
;; raft_interface_linewidth = {raft_interface_linewidth}
;; raft_airgap_all = {raft_airgap_all}
;; raft_airgap = 0.3
;; raft_surface_layers = 2
;; raft_surface_thickness = 0.16
;; raft_surface_linewidth = {raft_surface_linewidth}
;; fix_horrible_union_all_type_a = {fix_horrible_union_all_type_a}
;; fix_horrible_union_all_type_b = {fix_horrible_union_all_type_b}
;; fix_horrible_use_open_bits = {fix_horrible_use_open_bits}
;; fix_horrible_extensive_stitching = {fix_horrible_extensive_stitching}
;; plugin_config = {plugin_config}
;; object_center_x = {object_center_x}
;; object_center_y = {object_center_y}
;; save_profile = {save_profile}
;; filament_cost_kg = {filament_cost_kg}
;; filament_cost_meter = {filament_cost_meter}
;; auto_detect_sd = {auto_detect_sd}
;; sdcard_rootfolder = {sdcard_rootfolder}
;; check_for_updates = {check_for_updates}
;; submit_slice_information = {submit_slice_information}
;; youmagine_token = {youmagine_token}
;; filament_physical_density = {filament_physical_density}
;; language = {language}
;; active_machine = {active_machine}
;; model_colour = {model_colour}
;; model_colour2 = {model_colour2}
;; model_colour3 = {model_colour3}
;; model_colour4 = {model_colour4}
;; printing_window = {printing_window}
;; window_maximized = {window_maximized}
;; window_pos_x = {window_pos_x}
;; window_pos_y = {window_pos_y}
;; window_width = {window_width}
;; window_height = {window_height}
;; window_normal_sash = {window_normal_sash}
;; last_run_version = {last_run_version}
;; machine_name = Creality Ender-3
;; machine_type = {machine_type}
;; machine_width = 235
;; machine_depth = 235
;; machine_height = 250
;; machine_center_is_zero = False
;; machine_shape = rectangular
;; ultimaker_extruder_upgrade = {ultimaker_extruder_upgrade}
;; has_heated_bed = {has_heated_bed}
;; gcode_flavor = {gcode_flavor}
;; extruder_amount = {extruder_amount}
;; extruder_offset_x1 = {extruder_offset_x1}
;; extruder_offset_y1 = {extruder_offset_y1}
;; extruder_offset_x2 = {extruder_offset_x2}
;; extruder_offset_y2 = {extruder_offset_y2}
;; extruder_offset_x3 = {extruder_offset_x3}
;; extruder_offset_y3 = {extruder_offset_y3}
;; extruder_offset_x4 = {extruder_offset_x4}
;; extruder_offset_y4 = {extruder_offset_y4}
;; steps_per_e = {steps_per_e}
;; serial_port = {serial_port}
;; serial_port_auto = {serial_port_auto}
;; serial_baud = {serial_baud}
;; serial_baud_auto = {serial_baud_auto}
;; extruder_head_size_min_x = {extruder_head_size_min_x}
;; extruder_head_size_min_y = {extruder_head_size_min_y}
;; extruder_head_size_max_x = {extruder_head_size_max_x}
;; extruder_head_size_max_y = {extruder_head_size_max_y}
;; extruder_head_size_height = {extruder_head_size_height}
;; machine_acceleration = 500
;; machine_max_xy_jerk = {machine_max_xy_jerk}
;; machine_max_z_jerk = {machine_max_z_jerk}
;; machine_max_e_jerk = {machine_max_e_jerk}

START_PRINT BED_TEMP=50 EXTRUDER_TEMP=200

;; Moved to OctoPrint

;;; M155
;;; M140 S100 ; 60 for PLA
;;; M104 S240 ; 200 for PLA
;;; G90 ;absolute positioning
;;; ; Ender 3 Custom Start G-code
;;; G92 E0 ; Reset Extruder
;;; G28 ; Home all axes
;;; M420 S1 ; Enable mesh
;;; G1 Z5.0 F3000 ; Move Z Axis up little to prevent scratching of Heat Bed
;;; G1 X1 Y20 Z0.3 F5000.0 ; Move to start position
;;; ; Need to be at temperature now
;;; M190 S100 ; S60
;;; M109 S240 ; S200
;;; G1 X1 Y200.0 Z0.3 F1500.0 E15 ; Draw the first line
;;; G1 X1.3 Y200.0 Z0.3 F5000.0 ; Move to side a little
;;; G1 X1.3 Y20 Z0.3 F1500.0 E30 ; Draw the second line
;;; G1 E28 ; Retract a little
;;; G1 E30 ; and back again
;;; G92 E0 ; Reset Extruder
;;; G1 Z1.0 F3000 ; Move Z Axis up little to prevent scratching of Heat Bed
;;; G1 X1.3 Y25 Z0.3 F5000.0 ; Move over to prevent blob squish
;;; G1 X5 Y25 Z0.3 F5000.0 ; Move over to prevent blob squish
;;; G1 X5 Y20 Z0.3 F5000.0 ; Move over to prevent blob squish
;;; G1 X1.3 Y20 Z0.3 F5000.0 ; Move over to prevent blob squish
;;; G1 X1.3 Y25 Z0.3 F5000.0 ; Move over to prevent blob squish
;;; G1 X5 Y25 Z0.3 F5000.0 ; Move over to prevent blob squish
;;; G1 X5 Y20 Z0.3 F5000.0 ; Move over to prevent blob squish
G92 E0
G92 E0
G1 F2700 E-5
;LAYER_COUNT:16
;LAYER:0
M107
G0 F6000 X96.516 Y92.067 Z0.2
;TYPE:SKIRT
G1 F2700 E0
G1 F1200 X97.158 Y91.432 E0.03003
G1 X98.009 Y90.743 E0.06645
G1 X98.253 Y90.566 E0.07648
G1 X99.29 Y89.905 E0.11738
G1 X99.707 Y89.673 E0.13325
G1 X101.996 Y88.359 E0.22104
G1 X102.672 Y87.95 E0.24731
G1 X103.055 Y87.729 E0.26202
G1 X103.931 Y87.273 E0.29487
G1 X104.867 Y86.884 E0.32858
G1 X105.728 Y86.613 E0.3586
G1 X106.96 Y86.365 E0.4004
G1 X107.51 Y86.289 E0.41887
G1 X108.096 Y86.221 E0.43849
G1 X109.013 Y86.163 E0.46905
G1 X109.666 Y86.151 E0.49077
G1 X110.266 Y86.154 E0.51073
G1 X111.151 Y86.207 E0.54022
G1 X111.79 Y86.273 E0.56158
G1 X112.408 Y86.351 E0.5823
G1 X113.297 Y86.51 E0.61234
G1 X114.169 Y86.748 E0.6424
G1 X115.248 Y87.162 E0.68084
G1 X115.492 Y87.272 E0.68974
G1 X116.513 Y87.804 E0.72804
G1 X117.407 Y88.335 E0.76262
G1 X120.261 Y89.968 E0.87198
G1 X120.864 Y90.341 E0.89557
G1 X121.338 Y90.664 E0.91464
G1 X122.22 Y91.296 E0.95073
G1 X122.869 Y91.774 E0.97754
G1 X124.937 Y93.21 E1.06128
G1 X127.079 Y94.608 E1.14636
G1 X129.238 Y95.932 E1.23059
G1 X131.433 Y97.194 E1.3148
G1 X133.681 Y98.404 E1.39972
G1 X135.942 Y99.539 E1.48386
G1 X138.541 Y100.75 E1.57923
G1 X138.953 Y100.934 E1.59423
G1 X139.997 Y101.476 E1.63336
G1 X140.896 Y102.011 E1.66815
G1 X143.741 Y103.638 E1.77716
G1 X144.445 Y104.073 E1.80468
G1 X145.261 Y104.669 E1.83829
G1 X145.94 Y105.264 E1.86832
G1 X146.563 Y105.917 E1.89834
G1 X146.975 Y106.419 E1.91994
G1 X147.503 Y107.107 E1.94878
G1 X148.156 Y108.067 E1.9874
G1 X148.491 Y108.625 E2.00905
G1 X148.756 Y109.088 E2.02679
G1 X149.176 Y109.922 E2.05785
G1 X149.467 Y110.573 E2.08156
G1 X149.727 Y111.195 E2.10399
G1 X150.032 Y112.045 E2.13402
G1 X150.261 Y112.919 E2.16407
G1 X150.412 Y113.809 E2.1941
G1 X150.489 Y115.128 E2.23804
G1 X150.481 Y116.203 E2.2738
G1 X150.463 Y117.116 E2.30417
G1 X150.475 Y119.645 E2.38829
G1 X150.46 Y120.246 E2.40828
G1 X150.443 Y120.56 E2.41874
G1 X150.354 Y121.459 E2.44879
G1 X150.187 Y122.347 E2.47884
G1 X149.941 Y123.216 E2.50888
G1 X149.766 Y123.701 E2.52603
G1 X149.515 Y124.322 E2.54831
G1 X149.27 Y124.879 E2.56855
G1 X148.866 Y125.696 E2.59886
G1 X148.543 Y126.282 E2.62111
G1 X148.229 Y126.818 E2.64178
G1 X147.746 Y127.552 E2.671
G1 X147.38 Y128.059 E2.6918
G1 X146.977 Y128.589 E2.71394
G1 X146.392 Y129.277 E2.74398
G1 X145.748 Y129.91 E2.77401
G1 X144.895 Y130.599 E2.81048
G1 X144.65 Y130.776 E2.82054
G1 X143.637 Y131.421 E2.86048
G1 X143.193 Y131.668 E2.87738
G1 X140.924 Y132.971 E2.9644
G1 X140.455 Y133.257 E2.98267
G1 X139.77 Y133.652 E3.00897
G1 X138.912 Y134.089 E3.041
G1 X138.218 Y134.402 E3.06632
G1 X135.918 Y135.478 E3.15078
G1 X133.636 Y136.625 E3.23572
G1 X131.391 Y137.835 E3.32055
G1 X129.189 Y139.103 E3.40506
G1 X127.043 Y140.42 E3.48881
G1 X124.916 Y141.811 E3.57334
G1 X122.367 Y143.592 E3.67676
G1 X121.198 Y144.438 E3.72476
G1 X120.207 Y145.071 E3.76387
G1 X119.32 Y145.568 E3.79768
G1 X116.482 Y147.223 E3.90695
G1 X115.787 Y147.593 E3.93314
G1 X115.539 Y147.713 E3.94231
G1 X114.709 Y148.07 E3.97236
G1 X113.851 Y148.352 E4.0024
G1 X112.536 Y148.629 E4.04709
G1 X111.933 Y148.715 E4.06735
G1 X111.319 Y148.787 E4.08791
G1 X110.417 Y148.842 E4.11797
G1 X109.757 Y148.853 E4.13992
G1 X109.217 Y148.85 E4.15788
G1 X108.302 Y148.798 E4.18837
G1 X107.667 Y148.733 E4.2096
G1 X107.023 Y148.651 E4.23119
G1 X106.135 Y148.49 E4.26121
G1 X105.264 Y148.251 E4.29125
G1 X104.241 Y147.859 E4.32768
G1 X103.981 Y147.743 E4.33715
G1 X102.899 Y147.181 E4.37771
G1 X102.289 Y146.816 E4.40135
G1 X100.006 Y145.498 E4.48903
G1 X99.197 Y145.042 E4.51992
G1 X98.231 Y144.43 E4.55795
G1 X97.428 Y143.808 E4.59173
G1 X96.766 Y143.193 E4.62179
G1 X95.981 Y142.296 E4.66143
G1 X95.452 Y141.61 E4.69024
G1 X95.293 Y141.393 E4.69919
G1 X94.775 Y140.612 E4.73036
G1 X94.427 Y140.032 E4.75286
G1 X94.133 Y139.518 E4.77255
G1 X93.909 Y139.097 E4.78841
G1 X92.597 Y136.488 E4.88554
G1 X91.405 Y134.285 E4.96886
G1 X90.111 Y132.045 E5.0549
G1 X88.808 Y129.932 E5.13746
G1 X87.125 Y127.382 E5.23908
G1 X86.895 Y127.017 E5.25343
G1 X86.511 Y126.378 E5.27823
G1 X86.24 Y125.905 E5.29636
G1 X85.825 Y125.079 E5.3271
G1 X85.535 Y124.431 E5.35072
G1 X85.269 Y123.796 E5.37362
G1 X84.965 Y122.946 E5.40364
G1 X84.737 Y122.072 E5.43368
G1 X84.587 Y121.182 E5.4637
G1 X84.51 Y119.857 E5.50785
G1 X84.519 Y118.797 E5.5431
G1 X84.537 Y117.884 E5.57347
G1 X84.525 Y115.355 E5.65759
G1 X84.538 Y114.781 E5.67669
G1 X84.554 Y114.47 E5.68704
G1 X84.641 Y113.571 E5.71708
G1 X84.806 Y112.683 E5.74713
G1 X85.05 Y111.813 E5.77718
G1 X85.256 Y111.241 E5.7974
G1 X85.522 Y110.593 E5.8207
G1 X85.739 Y110.102 E5.83855
G1 X86.141 Y109.29 E5.86869
G1 X86.471 Y108.693 E5.89137
G1 X86.803 Y108.128 E5.91317
G1 X87.1 Y107.662 E5.93155
G1 X88.785 Y105.103 E6.03346
G1 X90.094 Y102.979 E6.11644
G1 X91.377 Y100.758 E6.20175
G1 X92.585 Y98.523 E6.28625
G1 X93.407 Y96.875 E6.3475
G1 X93.981 Y95.763 E6.38913
G1 X94.384 Y95.033 E6.41686
G1 X94.699 Y94.496 E6.43757
G1 X95.182 Y93.765 E6.46671
G1 X95.553 Y93.253 E6.48774
G1 X95.932 Y92.756 E6.50853
G1 X96.516 Y92.067 E6.53857
G0 F6000 X96.211 Y91.808
G1 F1200 X96.906 Y91.121 E6.57107
G1 X97.774 Y90.419 E6.6082
G1 X98.018 Y90.242 E6.61822
G1 X99.096 Y89.555 E6.66074
G1 X99.513 Y89.323 E6.67661
G1 X101.797 Y88.012 E6.7642
G1 X102.472 Y87.604 E6.79044
G1 X102.87 Y87.374 E6.80573
G1 X103.746 Y86.918 E6.83857
G1 X104.747 Y86.502 E6.87463
G1 X105.608 Y86.231 E6.90465
G1 X106.905 Y85.969 E6.94866
G1 X107.464 Y85.892 E6.96743
G1 X108.071 Y85.822 E6.98775
G1 X109.006 Y85.763 E7.01891
G1 X109.668 Y85.751 E7.04093
G1 X110.29 Y85.755 E7.06162
G1 X111.192 Y85.809 E7.09167
G1 X111.84 Y85.876 E7.11334
G1 X112.478 Y85.957 E7.13473
G1 X113.402 Y86.124 E7.16596
G1 X114.274 Y86.362 E7.19603
G1 X115.412 Y86.797 E7.23655
G1 X115.677 Y86.917 E7.24622
G1 X116.717 Y87.46 E7.28524
G1 X117.606 Y87.988 E7.31963
G1 X120.471 Y89.628 E7.42943
G1 X121.089 Y90.01 E7.4536
G1 X121.571 Y90.339 E7.47301
G1 X122.457 Y90.974 E7.50926
G1 X123.097 Y91.445 E7.53569
G1 X125.156 Y92.875 E7.61907
G1 X127.298 Y94.273 E7.70414
G1 X129.437 Y95.585 E7.7876
G1 X131.623 Y96.842 E7.87147
G1 X133.871 Y98.052 E7.95639
G1 X136.111 Y99.176 E8.03974
G1 X138.71 Y100.388 E8.13512
G1 X139.137 Y100.579 E8.15068
G1 X140.202 Y101.132 E8.19059
G1 X141.101 Y101.667 E8.22539
G1 X143.951 Y103.298 E8.3346
G1 X144.681 Y103.75 E8.36316
G1 X145.525 Y104.368 E8.39795
G1 X146.204 Y104.963 E8.42798
G1 X146.872 Y105.663 E8.46016
G1 X147.292 Y106.175 E8.48219
G1 X147.834 Y106.882 E8.51182
G1 X148.499 Y107.861 E8.55118
G1 X148.838 Y108.426 E8.5731
G1 X149.113 Y108.908 E8.59155
G1 X149.541 Y109.759 E8.62324
G1 X149.836 Y110.419 E8.64728
G1 X150.103 Y111.06 E8.67038
G1 X150.419 Y111.944 E8.7016
G1 X150.648 Y112.818 E8.73165
G1 X150.811 Y113.786 E8.7643
G1 X150.889 Y115.131 E8.80911
G1 X150.881 Y116.211 E8.84503
G1 X150.863 Y117.124 E8.8754
G1 X150.875 Y119.655 E8.95959
G1 X150.859 Y120.268 E8.97998
G1 X150.841 Y120.599 E8.99101
G1 X150.747 Y121.533 E9.02223
G1 X150.572 Y122.456 E9.05348
G1 X150.326 Y123.325 E9.08351
G1 X150.137 Y123.851 E9.1021
G1 X149.881 Y124.483 E9.12478
G1 X149.629 Y125.056 E9.1456
G1 X149.216 Y125.889 E9.17653
G1 X148.888 Y126.484 E9.19913
G1 X148.563 Y127.038 E9.22049
G1 X148.07 Y127.786 E9.25028
G1 X147.698 Y128.301 E9.27141
G1 X147.282 Y128.848 E9.29427
G1 X146.697 Y129.536 E9.32431
G1 X145.999 Y130.221 E9.35684
G1 X145.129 Y130.923 E9.39402
G1 X144.865 Y131.113 E9.40484
G1 X143.831 Y131.771 E9.4456
G1 X143.387 Y132.018 E9.4625
G1 X141.132 Y133.313 E9.54899
G1 X140.655 Y133.604 E9.56757
G1 X139.97 Y133.999 E9.59387
G1 X139.076 Y134.454 E9.62724
G1 X138.382 Y134.766 E9.65254
G1 X136.098 Y135.835 E9.73642
G1 X133.826 Y136.977 E9.82099
G1 X131.591 Y138.182 E9.90545
G1 X129.389 Y139.45 E9.98996
G1 X127.262 Y140.755 E10.07296
G1 X125.135 Y142.146 E10.15749
G1 X122.596 Y143.92 E10.26051
G1 X121.433 Y144.762 E10.30826
G1 X120.403 Y145.42 E10.34891
G1 X119.522 Y145.914 E10.38251
G1 X116.684 Y147.569 E10.49178
G1 X115.961 Y147.953 E10.51901
