;FLAVOR:Marlin
M117 Time Left 0h23m16s
;TIME:1396
;Filament used: 0.724212m
;Layer height: 0.16
;MINX:91.9
;MINY:93.5
;MINZ:0.2
;MAXX:143.1
;MAXY:142.5
;MAXZ:4
;POSTPROCESSED
;Generated with Cura_SteamEngine 5.3.1
M82 ;absolute extrusion mode
;;; Script based on an original created by tjjfvi (https://github.com/tjjfvi)
; An up-to-date version of the tjjfvi's original script can be found
; here:  https://csi.t6.fyi/
; Note - This script will only work in Cura V4.2 and above!
; --- Global Settings
; layer_height = 0.16
; smooth_spiralized_contours = True
; magic_mesh_surface_mode = normal
; machine_extruder_count = 1
; --- Single Extruder Settings
; speed_z_hop = 5
; retraction_amount = 5
; retraction_hop = 0.2
; retraction_hop_enabled = False
; retraction_enable = True
; retraction_speed = 45
; retraction_retract_speed = 45
; retraction_prime_speed = 45
; speed_travel = 150.0

;; Tue 13-06-2023 01:45:01

;; layer_height = 0.16
;; wall_thickness = 1.2000000000000002
;; retraction_enable = True
;; solid_layer_thickness = {solid_layer_thickness}
;; fill_density = {fill_density}
;; print_speed = {print_speed}
;; print_temperature = 200
;; print_temperature2 = {print_temperature2}
;; print_temperature3 = {print_temperature3}
;; print_temperature4 = {print_temperature4}
;; print_temperature5 = {print_temperature5}
;; print_bed_temperature = 50
;; support = 0
;; platform_adhesion = 0
;; support_dual_extrusion = {support_dual_extrusion}
;; wipe_tower = {wipe_tower}
;; wipe_tower_volume = {wipe_tower_volume}
;; ooze_shield = {ooze_shield}
;; filament_diameter = {filament_diameter}
;; filament_diameter2 = {filament_diameter2}
;; filament_diameter3 = {filament_diameter3}
;; filament_diameter4 = {filament_diameter4}
;; filament_diameter5 = {filament_diameter5}
;; filament_flow = {filament_flow}
;; nozzle_size = {nozzle_size}
;; retraction_speed = 45
;; retraction_amount = 5
;; retraction_dual_amount = {retraction_dual_amount}
;; retraction_min_travel = 1.5
;; retraction_combing = noskin
;; retraction_minimal_extrusion = {retraction_minimal_extrusion}
;; retraction_hop = 0.2
;; bottom_thickness = 0.8400000000000001
;; layer0_width_factor = {layer0_width_factor}
;; object_sink = {object_sink}
;; enable_skin = {enable_skin}
;; overlap_dual = {overlap_dual}
;; travel_speed = 150.0
;; bottom_layer_speed = {bottom_layer_speed}
;; infill_speed = {infill_speed}
;; solidarea_speed = {solidarea_speed}
;; inset0_speed = {inset0_speed}
;; insetx_speed = {insetx_speed}
;; cool_min_layer_time = 10
;; fan_enabled = {fan_enabled}
;; skirt_line_count = 3
;; skirt_gap = 10.0
;; skirt_minimal_length = {skirt_minimal_length}
;; fan_full_height = {fan_full_height}
;; fan_speed = {fan_speed}
;; fan_speed_max = {fan_speed_max}
;; cool_min_feedrate = {cool_min_feedrate}
;; cool_head_lift = {cool_head_lift}
;; solid_top = {solid_top}
;; solid_bottom = {solid_bottom}
;; fill_overlap = {fill_overlap}
;; perimeter_before_infill = {perimeter_before_infill}
;; support_type = buildplate
;; support_angle = 51
;; support_fill_rate = {support_fill_rate}
;; support_xy_distance = 0.8
;; support_z_distance = 0.16
;; spiralize = {spiralize}
;; simple_mode = {simple_mode}
;; bridge_speed = {bridge_speed}
;; brim_line_count = 20
;; raft_margin = 15
;; raft_line_spacing = {raft_line_spacing}
;; raft_base_thickness = 0.24
;; raft_base_linewidth = {raft_base_linewidth}
;; raft_interface_thickness = 0.24
;; raft_interface_linewidth = {raft_interface_linewidth}
;; raft_airgap_all = {raft_airgap_all}
;; raft_airgap = 0.3
;; raft_surface_layers = 2
;; raft_surface_thickness = 0.16
;; raft_surface_linewidth = {raft_surface_linewidth}
;; fix_horrible_union_all_type_a = {fix_horrible_union_all_type_a}
;; fix_horrible_union_all_type_b = {fix_horrible_union_all_type_b}
;; fix_horrible_use_open_bits = {fix_horrible_use_open_bits}
;; fix_horrible_extensive_stitching = {fix_horrible_extensive_stitching}
;; plugin_config = {plugin_config}
;; object_center_x = {object_center_x}
;; object_center_y = {object_center_y}
;; save_profile = {save_profile}
;; filament_cost_kg = {filament_cost_kg}
;; filament_cost_meter = {filament_cost_meter}
;; auto_detect_sd = {auto_detect_sd}
;; sdcard_rootfolder = {sdcard_rootfolder}
;; check_for_updates = {check_for_updates}
;; submit_slice_information = {submit_slice_information}
;; youmagine_token = {youmagine_token}
;; filament_physical_density = {filament_physical_density}
;; language = {language}
;; active_machine = {active_machine}
;; model_colour = {model_colour}
;; model_colour2 = {model_colour2}
;; model_colour3 = {model_colour3}
;; model_colour4 = {model_colour4}
;; printing_window = {printing_window}
;; window_maximized = {window_maximized}
;; window_pos_x = {window_pos_x}
;; window_pos_y = {window_pos_y}
;; window_width = {window_width}
;; window_height = {window_height}
;; window_normal_sash = {window_normal_sash}
;; last_run_version = {last_run_version}
;; machine_name = Creality Ender-3
;; machine_type = {machine_type}
;; machine_width = 235
;; machine_depth = 235
;; machine_height = 250
;; machine_center_is_zero = False
;; machine_shape = rectangular
;; ultimaker_extruder_upgrade = {ultimaker_extruder_upgrade}
;; has_heated_bed = {has_heated_bed}
;; gcode_flavor = {gcode_flavor}
;; extruder_amount = {extruder_amount}
;; extruder_offset_x1 = {extruder_offset_x1}
;; extruder_offset_y1 = {extruder_offset_y1}
;; extruder_offset_x2 = {extruder_offset_x2}
;; extruder_offset_y2 = {extruder_offset_y2}
;; extruder_offset_x3 = {extruder_offset_x3}
;; extruder_offset_y3 = {extruder_offset_y3}
;; extruder_offset_x4 = {extruder_offset_x4}
;; extruder_offset_y4 = {extruder_offset_y4}
;; steps_per_e = {steps_per_e}
;; serial_port = {serial_port}
;; serial_port_auto = {serial_port_auto}
;; serial_baud = {serial_baud}
;; serial_baud_auto = {serial_baud_auto}
;; extruder_head_size_min_x = {extruder_head_size_min_x}
;; extruder_head_size_min_y = {extruder_head_size_min_y}
;; extruder_head_size_max_x = {extruder_head_size_max_x}
;; extruder_head_size_max_y = {extruder_head_size_max_y}
;; extruder_head_size_height = {extruder_head_size_height}
;; machine_acceleration = 500
;; machine_max_xy_jerk = {machine_max_xy_jerk}
;; machine_max_z_jerk = {machine_max_z_jerk}
;; machine_max_e_jerk = {machine_max_e_jerk}

START_PRINT BED_TEMP=50 EXTRUDER_TEMP=200

;; Moved to OctoPrint

;;; M155
;;; M140 S100 ; 60 for PLA
;;; M104 S240 ; 200 for PLA
;;; G90 ;absolute positioning
;;; ; Ender 3 Custom Start G-code
;;; G92 E0 ; Reset Extruder
;;; G28 ; Home all axes
;;; M420 S1 ; Enable mesh
;;; G1 Z5.0 F3000 ; Move Z Axis up little to prevent scratching of Heat Bed
;;; G1 X1 Y20 Z0.3 F5000.0 ; Move to start position
;;; ; Need to be at temperature now
;;; M190 S100 ; S60
;;; M109 S240 ; S200
;;; G1 X1 Y200.0 Z0.3 F1500.0 E15 ; Draw the first line
;;; G1 X1.3 Y200.0 Z0.3 F5000.0 ; Move to side a little
;;; G1 X1.3 Y20 Z0.3 F1500.0 E30 ; Draw the second line
;;; G1 E28 ; Retract a little
;;; G1 E30 ; and back again
;;; G92 E0 ; Reset Extruder
;;; G1 Z1.0 F3000 ; Move Z Axis up little to prevent scratching of Heat Bed
;;; G1 X1.3 Y25 Z0.3 F5000.0 ; Move over to prevent blob squish
;;; G1 X5 Y25 Z0.3 F5000.0 ; Move over to prevent blob squish
;;; G1 X5 Y20 Z0.3 F5000.0 ; Move over to prevent blob squish
;;; G1 X1.3 Y20 Z0.3 F5000.0 ; Move over to prevent blob squish
;;; G1 X1.3 Y25 Z0.3 F5000.0 ; Move over to prevent blob squish
;;; G1 X5 Y25 Z0.3 F5000.0 ; Move over to prevent blob squish
;;; G1 X5 Y20 Z0.3 F5000.0 ; Move over to prevent blob squish
G92 E0
G92 E0
G1 F2700 E-5
;LAYER_COUNT:22
;LAYER:0
M107
G0 F6000 X95.893 Y97.106 Z0.2
;TYPE:SKIRT
G1 F2700 E0
G1 F1200 X96.575 Y96.514 E0.03004
G1 X97.307 Y95.985 E0.06008
G1 X98.083 Y95.523 E0.09011
G1 X98.897 Y95.132 E0.12015
G1 X99.742 Y94.813 E0.15019
G1 X100.612 Y94.571 E0.18022
G1 X101.5 Y94.407 E0.21026
G1 X102.623 Y94.313 E0.24774
G1 X103.23 Y94.3 E0.26793
G1 X131.393 Y94.3 E1.20464
G1 X132.237 Y94.311 E1.23271
G1 X133.139 Y94.364 E1.26277
G1 X134.032 Y94.496 E1.29279
G1 X134.91 Y94.707 E1.32282
G1 X135.766 Y94.995 E1.35286
G1 X136.593 Y95.357 E1.38289
G1 X137.385 Y95.792 E1.41294
G1 X138.136 Y96.294 E1.44299
G1 X138.839 Y96.861 E1.47303
G1 X139.489 Y97.488 E1.50306
G1 X140.081 Y98.17 E1.5331
G1 X140.611 Y98.901 E1.56313
G1 X141.073 Y99.677 E1.59317
G1 X141.466 Y100.49 E1.6232
G1 X141.784 Y101.335 E1.65323
G1 X142.027 Y102.205 E1.68328
G1 X142.192 Y103.093 E1.71332
G1 X142.287 Y104.223 E1.75103
G1 X142.3 Y104.83 E1.77123
G1 X142.299 Y129.904 E2.60519
G1 X142.289 Y130.633 E2.62944
G1 X142.237 Y131.534 E2.65946
G1 X142.105 Y132.428 E2.68952
G1 X141.894 Y133.306 E2.71955
G1 X141.607 Y134.162 E2.74958
G1 X141.245 Y134.99 E2.77963
G1 X140.812 Y135.782 E2.80966
G1 X140.31 Y136.533 E2.8397
G1 X139.743 Y137.236 E2.86974
G1 X139.117 Y137.887 E2.89978
G1 X138.435 Y138.479 E2.92982
G1 X137.704 Y139.009 E2.95985
G1 X136.929 Y139.472 E2.98987
G1 X136.155 Y139.848 E3.01849
G1 X133.863 Y140.844 E3.10161
G1 X133.02 Y141.167 E3.13164
G1 X132.151 Y141.414 E3.16169
G1 X131.264 Y141.583 E3.19172
G1 X130.14 Y141.683 E3.22925
G1 X129.47 Y141.7 E3.25154
G1 X105.734 Y141.699 E4.04101
G1 X105.025 Y141.687 E4.06459
G1 X104.124 Y141.631 E4.09462
G1 X103.231 Y141.497 E4.12465
G1 X102.353 Y141.283 E4.15471
G1 X101.13 Y140.842 E4.19795
G1 X98.842 Y139.847 E4.28093
G1 X98.031 Y139.45 E4.31096
G1 X97.258 Y138.984 E4.34098
G1 X96.529 Y138.45 E4.37104
G1 X95.85 Y137.855 E4.40107
G1 X95.226 Y137.201 E4.43113
G1 X94.663 Y136.495 E4.46117
G1 X94.165 Y135.743 E4.49116
G1 X93.735 Y134.948 E4.52123
G1 X93.376 Y134.119 E4.55127
G1 X93.093 Y133.262 E4.58129
G1 X92.887 Y132.383 E4.61132
G1 X92.759 Y131.489 E4.64136
G1 X92.715 Y130.81 E4.66399
G1 X92.7 Y130.171 E4.68525
G1 X92.701 Y105.021 E5.52174
G1 X92.711 Y104.356 E5.54386
G1 X92.765 Y103.454 E5.57391
G1 X92.898 Y102.561 E5.60394
G1 X93.109 Y101.683 E5.63398
G1 X93.398 Y100.827 E5.66403
G1 X93.761 Y100 E5.69407
G1 X94.195 Y99.209 E5.72407
G1 X94.698 Y98.458 E5.75414
G1 X95.266 Y97.756 E5.78417
G1 X95.893 Y97.106 E5.81421
G0 F6000 X95.605 Y96.828
G1 F1200 X96.313 Y96.212 E5.84542
G1 X97.102 Y95.641 E5.87782
G1 X97.878 Y95.179 E5.90785
G1 X98.724 Y94.771 E5.93909
G1 X99.635 Y94.428 E5.97147
G1 X100.539 Y94.178 E6.00267
G1 X101.467 Y94.008 E6.03405
G1 X102.614 Y93.913 E6.07233
G1 X103.221 Y93.9 E6.09252
G1 X131.398 Y93.9 E7.02969
G1 X132.26 Y93.912 E7.05836
G1 X133.197 Y93.968 E7.08958
G1 X134.09 Y94.1 E7.11961
G1 X135.038 Y94.328 E7.15204
G1 X135.894 Y94.616 E7.18208
G1 X136.786 Y95.006 E7.21446
G1 X137.578 Y95.441 E7.24451
G1 X138.358 Y95.961 E7.27569
G1 X139.117 Y96.573 E7.30812
G1 X139.767 Y97.2 E7.33816
G1 X140.405 Y97.935 E7.37053
G1 X140.955 Y98.696 E7.40176
G1 X141.417 Y99.472 E7.43179
G1 X141.84 Y100.349 E7.46418
G1 X142.169 Y101.227 E7.49536
G1 X142.42 Y102.132 E7.5266
G1 X142.591 Y103.059 E7.55795
G1 X142.686 Y104.189 E7.59567
G1 X142.7 Y104.83 E7.61699
G1 X142.699 Y129.909 E8.45113
G1 X142.688 Y130.656 E8.47597
G1 X142.633 Y131.592 E8.50716
G1 X142.501 Y132.486 E8.53722
G1 X142.283 Y133.399 E8.56844
G1 X141.974 Y134.322 E8.60081
G1 X141.612 Y135.15 E8.63087
G1 X141.145 Y136.004 E8.66324
G1 X140.643 Y136.755 E8.69328
G1 X140.054 Y137.487 E8.72453
G1 X139.379 Y138.189 E8.75692
G1 X138.67 Y138.803 E8.78812
G1 X137.939 Y139.333 E8.81815
G1 X137.104 Y139.832 E8.8505
G1 X136.314 Y140.215 E8.87971
G1 X134.006 Y141.218 E8.96341
G1 X133.163 Y141.541 E8.99343
G1 X132.226 Y141.807 E9.02583
G1 X131.339 Y141.976 E9.05586
G1 X130.15 Y142.083 E9.09557
G1 X129.48 Y142.1 E9.11786
G1 X105.727 Y142.099 E9.90789
G1 X105 Y142.086 E9.93207
G1 X104.065 Y142.027 E9.96323
G1 X103.136 Y141.886 E9.99448
G1 X102.258 Y141.672 E10.02454
G1 X100.97 Y141.209 E10.07006
G1 X98.666 Y140.206 E10.15364
G1 X97.824 Y139.793 E10.18483
G1 X97.051 Y139.327 E10.21485
G1 X96.265 Y138.751 E10.24726
G1 X95.586 Y138.156 E10.27729
G1 X94.913 Y137.45 E10.30973
G1 X94.329 Y136.716 E10.34093
G1 X93.831 Y135.964 E10.37093
G1 X93.383 Y135.138 E10.40218
G1 X92.996 Y134.244 E10.43458
G1 X92.713 Y133.387 E10.4646
G1 X92.491 Y132.44 E10.49695
G1 X92.363 Y131.546 E10.52699
G1 X92.315 Y130.819 E10.55122
G1 X92.3 Y130.171 E10.57278
G1 X92.301 Y105.015 E11.40947
G1 X92.312 Y104.332 E11.43219
G1 X92.369 Y103.395 E11.46342
G1 X92.502 Y102.502 E11.49344
G1 X92.73 Y101.555 E11.52584
G1 X93.019 Y100.699 E11.55589
G1 X93.41 Y99.808 E11.58825
G1 X93.844 Y99.017 E11.61826
G1 X94.387 Y98.206 E11.65072
G1 X94.978 Y97.478 E11.68191
G1 X95.605 Y96.828 E11.71195
G0 F6000 X95.342 Y96.526
G1 F1200 X96.05 Y95.91 E11.74316
G1 X96.897 Y95.297 E11.77794
G1 X97.673 Y94.835 E11.80798
G1 X98.583 Y94.397 E11.84157
G1 X99.528 Y94.042 E11.87514
G1 X100.432 Y93.792 E11.90634
G1 X101.434 Y93.609 E11.94022
G1 X102.605 Y93.513 E11.97929
G1 X103.212 Y93.5 E11.99949
G1 X131.404 Y93.5 E12.93716
G1 X132.284 Y93.513 E12.96643
G1 X133.255 Y93.572 E12.99878
G1 X134.184 Y93.711 E13.03003
G1 X135.132 Y93.939 E13.06246
G1 X136.054 Y94.249 E13.09481
G1 X136.979 Y94.655 E13.12841
G1 X137.771 Y95.09 E13.15846
G1 X138.58 Y95.628 E13.19078
G1 X139.395 Y96.285 E13.22559
G1 X140.045 Y96.912 E13.25563
G1 X140.707 Y97.673 E13.28918
G1 X141.299 Y98.491 E13.32276
G1 X141.761 Y99.267 E13.3528
G1 X142.215 Y100.209 E13.38758
G1 X142.544 Y101.087 E13.41877
G1 X142.813 Y102.059 E13.45231
G1 X142.99 Y103.025 E13.48498
G1 X143.085 Y104.155 E13.52269
G1 X143.1 Y104.83 E13.54515
G1 X143.099 Y129.915 E14.37948
G1 X143.087 Y130.679 E14.40489
G1 X143.029 Y131.65 E14.43725
G1 X142.897 Y132.544 E14.4673
G1 X142.672 Y133.492 E14.49971
G1 X142.341 Y134.482 E14.53443
G1 X141.979 Y135.31 E14.56448
G1 X141.478 Y136.226 E14.59921
G1 X140.955 Y137.006 E14.63044
G1 X140.366 Y137.738 E14.66169
G1 X139.641 Y138.491 E14.69646
G1 X138.905 Y139.127 E14.72881
G1 X138.174 Y139.657 E14.75884
G1 X137.278 Y140.192 E14.79355
G1 X136.473 Y140.582 E14.82331
G1 X134.149 Y141.592 E14.90759
G1 X133.306 Y141.915 E14.93761
G1 X132.301 Y142.2 E14.97236
G1 X131.414 Y142.369 E15.00239
G1 X130.16 Y142.483 E15.04427
G1 X129.48 Y142.5 E15.06689
G1 X105.72 Y142.499 E15.85715
G1 X104.975 Y142.485 E15.88194
G1 X104.04 Y142.426 E15.9131
G1 X103.041 Y142.275 E15.9467
G1 X102.163 Y142.061 E15.97676
G1 X100.81 Y141.576 E16.02456
G1 X98.49 Y140.565 E16.10874
G1 X97.617 Y140.136 E16.14109
G1 X96.844 Y139.67 E16.17111
G1 X96.001 Y139.052 E16.20587
G1 X95.296 Y138.432 E16.2371
G1 X94.623 Y137.726 E16.26954
G1 X93.995 Y136.937 E16.30308
G1 X93.479 Y136.155 E16.33424
G1 X93.031 Y135.329 E16.3655
G1 X92.616 Y134.369 E16.40028
G1 X92.333 Y133.512 E16.4303
G1 X92.095 Y132.497 E16.46497
G1 X91.967 Y131.603 E16.49501
G1 X91.915 Y130.828 E16.52085
G1 X91.9 Y130.171 E16.5427
G1 X91.901 Y105.009 E17.3796
G1 X91.913 Y104.308 E17.40291
G1 X91.973 Y103.336 E17.43531
G1 X92.106 Y102.443 E17.46533
G1 X92.341 Y101.461 E17.49892
G1 X92.64 Y100.571 E17.53015
G1 X93.059 Y99.616 E17.56483
G1 X93.493 Y98.825 E17.59484
G1 X94.076 Y97.954 E17.6297
G1 X94.69 Y97.2 E17.66204
G1 X95.342 Y96.526 E17.69323
G1 F2700 E12.69323
G0 F6000 X106.671 Y107.689
G1 F2700 E17.69323
G1 F1200 X106.802 Y107.589 E17.69871
G1 X106.96 Y107.523 E17.70441
G1 X107.126 Y107.501 E17.70998
G1 X107.293 Y107.523 E17.71558
G1 X107.45 Y107.589 E17.72124
G1 X107.583 Y107.69 E17.7268
G1 X107.687 Y107.827 E17.73252
G1 X107.749 Y107.975 E17.73786
G1 X107.771 Y108.145 E17.74356
G1 X107.75 Y108.31 E17.74909
G1 X107.683 Y108.471 E17.75489
G1 X107.583 Y108.601 E17.76035
G1 X107.448 Y108.704 E17.76599
G1 X107.294 Y108.768 E17.77154
G1 X107.125 Y108.79 E17.77721
G1 X106.962 Y108.769 E17.78267
G1 X106.801 Y108.702 E17.78847
