;FLAVOR:Marlin
M117 Time Left 1h29m00s
;TIME:5340
;Filament used: 3.40206m
;Layer height: 0.2
;MINX:80.075
;MINY:80.779
;MINZ:0.2
;MAXX:154.925
;MAXY:153.077
;MAXZ:20
;POSTPROCESSED
;Generated with Cura_SteamEngine 5.4.0-beta.1
;
;

;
;

M82 ;absolute extrusion mode
;;; Script based on an original created by tjjfvi (https://github.com/tjjfvi)
; An up-to-date version of the tjjfvi's original script can be found
; here:  https://csi.t6.fyi/
; Note - This script will only work in Cura V4.2 and above!
; --- Global Settings
; layer_height = 0.2
; smooth_spiralized_contours = True
; magic_mesh_surface_mode = normal
; machine_extruder_count = 1
; --- Single Extruder Settings
; speed_z_hop = 5
; retraction_amount = 5
; retraction_hop = 0.2
; retraction_hop_enabled = False
; retraction_enable = True
; retraction_speed = 45
; retraction_retract_speed = 45
; retraction_prime_speed = 45
; speed_travel = 150.0

;; Sun 18-06-2023 23:58:39

;; layer_height = 0.2
;; wall_thickness = 0.8
;; retraction_enable = True
;; solid_layer_thickness = {solid_layer_thickness}
;; fill_density = {fill_density}
;; print_speed = {print_speed}
;; print_temperature = 200
;; print_temperature2 = {print_temperature2}
;; print_temperature3 = {print_temperature3}
;; print_temperature4 = {print_temperature4}
;; print_temperature5 = {print_temperature5}
;; print_bed_temperature = 50
;; support = 0
;; platform_adhesion = 0
;; support_dual_extrusion = {support_dual_extrusion}
;; wipe_tower = {wipe_tower}
;; wipe_tower_volume = {wipe_tower_volume}
;; ooze_shield = {ooze_shield}
;; filament_diameter = {filament_diameter}
;; filament_diameter2 = {filament_diameter2}
;; filament_diameter3 = {filament_diameter3}
;; filament_diameter4 = {filament_diameter4}
;; filament_diameter5 = {filament_diameter5}
;; filament_flow = {filament_flow}
;; nozzle_size = {nozzle_size}
;; retraction_speed = 45
;; retraction_amount = 5
;; retraction_dual_amount = {retraction_dual_amount}
;; retraction_min_travel = 1.5
;; retraction_combing = noskin
;; retraction_minimal_extrusion = {retraction_minimal_extrusion}
;; retraction_hop = 0.2
;; bottom_thickness = 0.8
;; layer0_width_factor = {layer0_width_factor}
;; object_sink = {object_sink}
;; enable_skin = {enable_skin}
;; overlap_dual = {overlap_dual}
;; travel_speed = 150.0
;; bottom_layer_speed = {bottom_layer_speed}
;; infill_speed = {infill_speed}
;; solidarea_speed = {solidarea_speed}
;; inset0_speed = {inset0_speed}
;; insetx_speed = {insetx_speed}
;; cool_min_layer_time = 10
;; fan_enabled = {fan_enabled}
;; skirt_line_count = 3
;; skirt_gap = 10.0
;; skirt_minimal_length = {skirt_minimal_length}
;; fan_full_height = {fan_full_height}
;; fan_speed = {fan_speed}
;; fan_speed_max = {fan_speed_max}
;; cool_min_feedrate = {cool_min_feedrate}
;; cool_head_lift = {cool_head_lift}
;; solid_top = {solid_top}
;; solid_bottom = {solid_bottom}
;; fill_overlap = {fill_overlap}
;; perimeter_before_infill = {perimeter_before_infill}
;; support_type = buildplate
;; support_angle = 45
;; support_fill_rate = {support_fill_rate}
;; support_xy_distance = 0.8
;; support_z_distance = 0.2
;; spiralize = {spiralize}
;; simple_mode = {simple_mode}
;; bridge_speed = {bridge_speed}
;; brim_line_count = 20
;; raft_margin = 15
;; raft_line_spacing = {raft_line_spacing}
;; raft_base_thickness = 0.24
;; raft_base_linewidth = {raft_base_linewidth}
;; raft_interface_thickness = 0.30000000000000004
;; raft_interface_linewidth = {raft_interface_linewidth}
;; raft_airgap_all = {raft_airgap_all}
;; raft_airgap = 0.3
;; raft_surface_layers = 2
;; raft_surface_thickness = 0.2
;; raft_surface_linewidth = {raft_surface_linewidth}
;; fix_horrible_union_all_type_a = {fix_horrible_union_all_type_a}
;; fix_horrible_union_all_type_b = {fix_horrible_union_all_type_b}
;; fix_horrible_use_open_bits = {fix_horrible_use_open_bits}
;; fix_horrible_extensive_stitching = {fix_horrible_extensive_stitching}
;; plugin_config = {plugin_config}
;; object_center_x = {object_center_x}
;; object_center_y = {object_center_y}
;; save_profile = {save_profile}
;; filament_cost_kg = {filament_cost_kg}
;; filament_cost_meter = {filament_cost_meter}
;; auto_detect_sd = {auto_detect_sd}
;; sdcard_rootfolder = {sdcard_rootfolder}
;; check_for_updates = {check_for_updates}
;; submit_slice_information = {submit_slice_information}
;; youmagine_token = {youmagine_token}
;; filament_physical_density = {filament_physical_density}
;; language = {language}
;; active_machine = {active_machine}
;; model_colour = {model_colour}
;; model_colour2 = {model_colour2}
;; model_colour3 = {model_colour3}
;; model_colour4 = {model_colour4}
;; printing_window = {printing_window}
;; window_maximized = {window_maximized}
;; window_pos_x = {window_pos_x}
;; window_pos_y = {window_pos_y}
;; window_width = {window_width}
;; window_height = {window_height}
;; window_normal_sash = {window_normal_sash}
;; last_run_version = {last_run_version}
;; machine_name = Creality Ender-3
;; machine_type = {machine_type}
;; machine_width = 235
;; machine_depth = 235
;; machine_height = 250
;; machine_center_is_zero = False
;; machine_shape = rectangular
;; ultimaker_extruder_upgrade = {ultimaker_extruder_upgrade}
;; has_heated_bed = {has_heated_bed}
;; gcode_flavor = {gcode_flavor}
;; extruder_amount = {extruder_amount}
;; extruder_offset_x1 = {extruder_offset_x1}
;; extruder_offset_y1 = {extruder_offset_y1}
;; extruder_offset_x2 = {extruder_offset_x2}
;; extruder_offset_y2 = {extruder_offset_y2}
;; extruder_offset_x3 = {extruder_offset_x3}
;; extruder_offset_y3 = {extruder_offset_y3}
;; extruder_offset_x4 = {extruder_offset_x4}
;; extruder_offset_y4 = {extruder_offset_y4}
;; steps_per_e = {steps_per_e}
;; serial_port = {serial_port}
;; serial_port_auto = {serial_port_auto}
;; serial_baud = {serial_baud}
;; serial_baud_auto = {serial_baud_auto}
;; extruder_head_size_min_x = {extruder_head_size_min_x}
;; extruder_head_size_min_y = {extruder_head_size_min_y}
;; extruder_head_size_max_x = {extruder_head_size_max_x}
;; extruder_head_size_max_y = {extruder_head_size_max_y}
;; extruder_head_size_height = {extruder_head_size_height}
;; machine_acceleration = 500
;; machine_max_xy_jerk = {machine_max_xy_jerk}
;; machine_max_z_jerk = {machine_max_z_jerk}
;; machine_max_e_jerk = {machine_max_e_jerk}

START_PRINT BED_TEMP=50 EXTRUDER_TEMP=200

;; Moved to OctoPrint

;;; M155
;;; M140 S100 ; 60 for PLA
;;; M104 S240 ; 200 for PLA
;;; G90 ;absolute positioning
;;; ; Ender 3 Custom Start G-code
;;; G92 E0 ; Reset Extruder
;;; G28 ; Home all axes
;;; M420 S1 ; Enable mesh
;;; G1 Z5.0 F3000 ; Move Z Axis up little to prevent scratching of Heat Bed
;;; G1 X1 Y20 Z0.3 F5000.0 ; Move to start position
;;; ; Need to be at temperature now
;;; M190 S100 ; S60
;;; M109 S240 ; S200
;;; G1 X1 Y200.0 Z0.3 F1500.0 E15 ; Draw the first line
;;; G1 X1.3 Y200.0 Z0.3 F5000.0 ; Move to side a little
;;; G1 X1.3 Y20 Z0.3 F1500.0 E30 ; Draw the second line
;;; G1 E28 ; Retract a little
;;; G1 E30 ; and back again
;;; G92 E0 ; Reset Extruder
;;; G1 Z1.0 F3000 ; Move Z Axis up little to prevent scratching of Heat Bed
;;; G1 X1.3 Y25 Z0.3 F5000.0 ; Move over to prevent blob squish
;;; G1 X5 Y25 Z0.3 F5000.0 ; Move over to prevent blob squish
;;; G1 X5 Y20 Z0.3 F5000.0 ; Move over to prevent blob squish
;;; G1 X1.3 Y20 Z0.3 F5000.0 ; Move over to prevent blob squish
;;; G1 X1.3 Y25 Z0.3 F5000.0 ; Move over to prevent blob squish
;;; G1 X5 Y25 Z0.3 F5000.0 ; Move over to prevent blob squish
;;; G1 X5 Y20 Z0.3 F5000.0 ; Move over to prevent blob squish
G92 E0
G92 E0
G1 F2700 E-5
;LAYER_COUNT:100
;LAYER:0
M107
G0 F6000 X84.198 Y83.992 Z0.2
;TYPE:SKIRT
G1 F2700 E0
G1 F1200 X84.934 Y83.355 E0.03237
G1 X85.69 Y82.807 E0.06343
G1 X86.292 Y82.437 E0.08693
G1 X86.628 Y82.245 E0.0998
G1 X87.463 Y81.816 E0.13103
G1 X88.399 Y81.437 E0.16461
G1 X89.297 Y81.163 E0.19584
G1 X90.295 Y80.953 E0.22976
G1 X91.54 Y80.821 E0.2714
G1 X92.339 Y80.788 E0.298
G1 X92.859 Y80.779 E0.3153
G1 X93.762 Y80.802 E0.34534
G1 X94.801 Y80.921 E0.38012
G1 X95.755 Y81.121 E0.41254
G1 X96.686 Y81.405 E0.44492
G1 X97.589 Y81.768 E0.47729
G1 X98.444 Y82.203 E0.50919
G1 X99.441 Y82.772 E0.54738
G1 X101.68 Y84.008 E0.63244
G1 X103.931 Y85.17 E0.71669
G1 X106.211 Y86.266 E0.80083
G1 X108.495 Y87.285 E0.88402
G1 X110.846 Y88.256 E0.96862
G1 X113.215 Y89.155 E1.05289
G1 X115.567 Y89.974 E1.13573
G1 X117.962 Y90.733 E1.21929
G1 X120.377 Y91.423 E1.30283
G1 X122.809 Y92.044 E1.38631
G1 X125.262 Y92.598 E1.46995
G1 X127.748 Y93.086 E1.55422
G1 X130.243 Y93.504 E1.63836
G1 X132.717 Y93.843 E1.72141
G1 X135.239 Y94.119 E1.8058
G1 X137.744 Y94.322 E1.88939
G1 X140.24 Y94.451 E1.97251
G1 X142.753 Y94.513 E2.05612
G1 X143.961 Y94.528 E2.0963
G1 X144.935 Y94.583 E2.12875
G1 X145.828 Y94.713 E2.15876
G1 X146.844 Y94.954 E2.19349
G1 X147.767 Y95.263 E2.22587
G1 X148.66 Y95.655 E2.2583
G1 X149.513 Y96.122 E2.29065
G1 X150.323 Y96.664 E2.32307
G1 X151.08 Y97.275 E2.35542
G1 X151.783 Y97.951 E2.38786
G1 X152.42 Y98.685 E2.42018
G1 X152.952 Y99.415 E2.45023
G1 X153.659 Y100.622 E2.49675
G1 X154.121 Y101.638 E2.53387
G1 X154.456 Y102.592 E2.5675
G1 X154.693 Y103.536 E2.59988
G1 X154.846 Y104.496 E2.63221
G1 X154.912 Y105.394 E2.66216
G1 X154.925 Y106.015 E2.68282
G1 X154.915 Y110.35 E2.827
G1 X154.914 Y132.809 E3.57399
G1 X154.925 Y136.402 E3.69349
G1 X154.912 Y137.425 E3.72752
G1 X154.855 Y138.397 E3.7599
G1 X154.711 Y139.361 E3.79232
G1 X154.482 Y140.307 E3.8247
G1 X154.172 Y141.229 E3.85705
G1 X153.78 Y142.121 E3.88946
G1 X153.33 Y142.945 E3.92068
G1 X152.769 Y143.784 E3.95425
G1 X152.158 Y144.541 E3.98661
G1 X151.532 Y145.193 E4.01667
G1 X150.587 Y146.008 E4.05817
G1 X149.676 Y146.65 E4.09524
G1 X148.863 Y147.121 E4.12649
G1 X147.933 Y147.552 E4.16059
G1 X146.671 Y147.982 E4.20493
G1 X145.576 Y148.276 E4.24264
G1 X143.543 Y148.785 E4.31234
G1 X132.948 Y151.482 E4.67597
G1 X130.143 Y152.208 E4.77234
G1 X129.38 Y152.395 E4.79847
G1 X128.424 Y152.583 E4.83088
G1 X127.457 Y152.684 E4.86321
G1 X126.554 Y152.702 E4.89325
G1 X125.093 Y152.573 E4.94204
G1 X123.99 Y152.401 E4.97917
G1 X121.484 Y152.041 E5.06337
G1 X118.988 Y151.756 E5.14693
G1 X116.437 Y151.535 E5.23209
G1 X113.974 Y151.394 E5.31415
G1 X111.41 Y151.319 E5.39946
G1 X108.923 Y151.317 E5.48218
G1 X106.387 Y151.386 E5.56656
G1 X103.905 Y151.523 E5.64924
G1 X101.38 Y151.735 E5.73351
G1 X98.898 Y152.016 E5.81659
G1 X96.351 Y152.376 E5.90215
G1 X93.154 Y152.924 E6.01003
G1 X92.189 Y153.043 E6.04237
G1 X91.287 Y153.077 E6.07239
G1 X90.243 Y153.022 E6.10716
G1 X89.349 Y152.896 E6.13719
G1 X88.38 Y152.679 E6.17022
G1 X87.345 Y152.356 E6.20628
G1 X86.446 Y151.984 E6.23864
G1 X85.582 Y151.535 E6.27103
G1 X84.791 Y151.031 E6.30222
G1 X83.989 Y150.415 E6.33586
G1 X83.324 Y149.804 E6.36589
G1 X82.621 Y149.031 E6.40065
G1 X82.054 Y148.283 E6.43186
G1 X81.517 Y147.429 E6.46542
G1 X81.075 Y146.561 E6.49781
G1 X80.712 Y145.658 E6.53018
G1 X80.448 Y144.794 E6.56023
G1 X80.233 Y143.77 E6.59503
G1 X80.12 Y142.816 E6.62698
G1 X80.092 Y142.176 E6.64829
G1 X80.075 Y140.9 E6.69074
G1 X80.085 Y137.978 E6.78792
G1 X80.083 Y110.231 E7.71079
G1 X80.096 Y109.34 E7.74043
G1 X80.148 Y108.438 E7.77048
G1 X80.42 Y105.339 E7.87395
G1 X80.558 Y102.892 E7.95547
G1 X80.633 Y100.299 E8.04175
G1 X80.642 Y98.979 E8.08565
G1 X80.643 Y93.059 E8.28255
G1 X80.656 Y92.317 E8.30723
G1 X80.716 Y91.347 E8.33956
G1 X80.85 Y90.446 E8.36985
G1 X80.962 Y89.87 E8.38937
G1 X81.182 Y88.958 E8.42057
G1 X81.502 Y88.003 E8.45407
G1 X81.864 Y87.175 E8.48413
G1 X82.365 Y86.257 E8.51891
G1 X82.909 Y85.449 E8.55131
G1 X83.521 Y84.693 E8.58366
G1 X84.198 Y83.992 E8.61607
G0 F6000 X84.46 Y84.294
G1 F1200 X85.169 Y83.679 E8.64729
G1 X85.9 Y83.148 E8.67734
G1 X86.491 Y82.784 E8.70043
G1 X86.811 Y82.601 E8.71269
G1 X87.614 Y82.187 E8.74274
G1 X88.516 Y81.82 E8.77513
G1 X89.414 Y81.546 E8.80635
G1 X90.337 Y81.351 E8.83773
G1 X91.557 Y81.221 E8.87854
G1 X92.346 Y81.188 E8.9048
G1 X92.849 Y81.179 E8.92153
G1 X93.752 Y81.202 E8.95158
G1 X94.72 Y81.313 E8.98399
G1 X95.639 Y81.504 E9.0152
G1 X96.537 Y81.776 E9.04641
G1 X97.408 Y82.125 E9.07762
G1 X98.263 Y82.56 E9.10953
G1 X99.248 Y83.122 E9.14725
G1 X101.496 Y84.363 E9.23265
G1 X103.758 Y85.531 E9.31732
G1 X106.038 Y86.627 E9.40146
G1 X108.342 Y87.655 E9.48538
G1 X110.693 Y88.626 E9.56998
G1 X113.083 Y89.533 E9.655
G1 X115.435 Y90.352 E9.73784
G1 X117.852 Y91.118 E9.82217
G1 X120.273 Y91.81 E9.90591
G1 X122.71 Y92.432 E9.98957
G1 X125.185 Y92.991 E10.07396
G1 X127.677 Y93.48 E10.15842
G1 X130.177 Y93.898 E10.24273
G1 X132.674 Y94.241 E10.32656
G1 X135.2 Y94.517 E10.41107
G1 X137.712 Y94.72 E10.4949
G1 X140.23 Y94.851 E10.57876
G1 X142.743 Y94.913 E10.66237
G1 X143.939 Y94.927 E10.70215
G1 X144.877 Y94.979 E10.73339
G1 X145.77 Y95.109 E10.76341
G1 X146.717 Y95.333 E10.79578
G1 X147.607 Y95.63 E10.82698
G1 X148.468 Y96.006 E10.85823
G1 X149.291 Y96.455 E10.88941
G1 X150.072 Y96.976 E10.92064
G1 X150.803 Y97.564 E10.95184
G1 X151.481 Y98.214 E10.98308
G1 X152.097 Y98.921 E11.01427
G1 X152.629 Y99.651 E11.04431
G1 X153.295 Y100.788 E11.08814
G1 X153.757 Y101.804 E11.12526
G1 X154.068 Y102.69 E11.15649
G1 X154.298 Y103.6 E11.18771
G1 X154.447 Y104.526 E11.2189
G1 X154.512 Y105.402 E11.24812
G1 X154.525 Y106.014 E11.26848
G1 X154.515 Y110.349 E11.41266
G1 X154.514 Y132.808 E12.15965
G1 X154.525 Y136.397 E12.27902
G1 X154.513 Y137.402 E12.31245
G1 X154.459 Y138.339 E12.34367
G1 X154.322 Y139.268 E12.3749
G1 X154.103 Y140.18 E12.4061
G1 X153.805 Y141.069 E12.43728
G1 X153.429 Y141.929 E12.4685
G1 X152.979 Y142.753 E12.49973
G1 X152.457 Y143.533 E12.53094
G1 X151.869 Y144.264 E12.56215
G1 X151.243 Y144.916 E12.59221
G1 X150.326 Y145.705 E12.63245
G1 X149.475 Y146.304 E12.66706
G1 X148.694 Y146.758 E12.6971
G1 X147.804 Y147.173 E12.72977
G1 X146.542 Y147.603 E12.77411
G1 X145.479 Y147.888 E12.81071
G1 X143.444 Y148.397 E12.88048
G1 X132.849 Y151.095 E13.24412
G1 X130.048 Y151.82 E13.34035
G1 X129.302 Y152.003 E13.3659
G1 X128.382 Y152.185 E13.39709
G1 X127.449 Y152.284 E13.4283
G1 X126.546 Y152.302 E13.45834
G1 X125.155 Y152.178 E13.50479
G1 X124.047 Y152.005 E13.54209
G1 X121.541 Y151.645 E13.62629
G1 X119.022 Y151.357 E13.71062
G1 X116.471 Y151.137 E13.79578
G1 X113.986 Y150.994 E13.87857
G1 X111.422 Y150.919 E13.96388
G1 X108.912 Y150.917 E14.04737
G1 X106.376 Y150.986 E14.13175
G1 X103.872 Y151.125 E14.21516
G1 X101.347 Y151.337 E14.29943
G1 X98.842 Y151.62 E14.38328
G1 X96.295 Y151.98 E14.46884
G1 X93.105 Y152.527 E14.57649
G1 X92.174 Y152.643 E14.60769
G1 X91.272 Y152.677 E14.63771
G1 X90.299 Y152.626 E14.67012
G1 X89.405 Y152.5 E14.70015
G1 X88.499 Y152.297 E14.73103
G1 X87.497 Y151.986 E14.76592
G1 X86.63 Y151.629 E14.79711
G1 X85.796 Y151.197 E14.82835
G1 X85.034 Y150.713 E14.85837
G1 X84.26 Y150.12 E14.8908
G1 X83.595 Y149.509 E14.92084
G1 X82.94 Y148.789 E14.95321
G1 X82.373 Y148.041 E14.98443
G1 X81.873 Y147.247 E15.01564
G1 X81.446 Y146.411 E15.04686
G1 X81.095 Y145.541 E15.07807
G1 X80.831 Y144.677 E15.10811
G1 X80.63 Y143.723 E15.14054
G1 X80.52 Y142.798 E15.17152
G1 X80.492 Y142.171 E15.1924
G1 X80.475 Y140.901 E15.23464
G1 X80.485 Y137.979 E15.33183
G1 X80.483 Y110.236 E16.25456
G1 X80.495 Y109.363 E16.2836
G1 X80.546 Y108.473 E16.31325
G1 X80.818 Y105.374 E16.41672
G1 X80.958 Y102.904 E16.49901
G1 X81.033 Y100.311 E16.58529
G1 X81.042 Y98.982 E16.62949
G1 X81.043 Y93.066 E16.82626
G1 X81.055 Y92.341 E16.85037
G1 X81.112 Y91.406 E16.88153
G1 X81.243 Y90.522 E16.91125
G1 X81.351 Y89.964 E16.93016
G1 X81.571 Y89.052 E16.96136
G1 X81.869 Y88.163 E16.99255
G1 X82.231 Y87.335 E17.0226
