;FLAVOR:Marlin
M117 Time Left 1h29m19s
;TIME:5359
;Filament used: 3.40207m
;Layer height: 0.2
;MINX:10.075
;MINY:10.779
;MINZ:0.2
;MAXX:84.926
;MAXY:83.077
;MAXZ:20
;POSTPROCESSED
;Generated with Cura_SteamEngine 5.4.0-beta.1
;
;

;
;

M82 ;absolute extrusion mode
;;; Script based on an original created by tjjfvi (https://github.com/tjjfvi)
; An up-to-date version of the tjjfvi's original script can be found
; here:  https://csi.t6.fyi/
; Note - This script will only work in Cura V4.2 and above!
; --- Global Settings
; layer_height = 0.2
; smooth_spiralized_contours = True
; magic_mesh_surface_mode = normal
; machine_extruder_count = 1
; --- Single Extruder Settings
; speed_z_hop = 5
; retraction_amount = 5
; retraction_hop = 0.2
; retraction_hop_enabled = False
; retraction_enable = True
; retraction_speed = 45
; retraction_retract_speed = 45
; retraction_prime_speed = 45
; speed_travel = 150.0

;; Mon 19-06-2023 09:29:03

;; layer_height = 0.2
;; wall_thickness = 0.8
;; retraction_enable = True
;; solid_layer_thickness = {solid_layer_thickness}
;; fill_density = {fill_density}
;; print_speed = {print_speed}
;; print_temperature = 200
;; print_temperature2 = {print_temperature2}
;; print_temperature3 = {print_temperature3}
;; print_temperature4 = {print_temperature4}
;; print_temperature5 = {print_temperature5}
;; print_bed_temperature = 50
;; support = 0
;; platform_adhesion = 0
;; support_dual_extrusion = {support_dual_extrusion}
;; wipe_tower = {wipe_tower}
;; wipe_tower_volume = {wipe_tower_volume}
;; ooze_shield = {ooze_shield}
;; filament_diameter = {filament_diameter}
;; filament_diameter2 = {filament_diameter2}
;; filament_diameter3 = {filament_diameter3}
;; filament_diameter4 = {filament_diameter4}
;; filament_diameter5 = {filament_diameter5}
;; filament_flow = {filament_flow}
;; nozzle_size = {nozzle_size}
;; retraction_speed = 45
;; retraction_amount = 5
;; retraction_dual_amount = {retraction_dual_amount}
;; retraction_min_travel = 1.5
;; retraction_combing = noskin
;; retraction_minimal_extrusion = {retraction_minimal_extrusion}
;; retraction_hop = 0.2
;; bottom_thickness = 0.8
;; layer0_width_factor = {layer0_width_factor}
;; object_sink = {object_sink}
;; enable_skin = {enable_skin}
;; overlap_dual = {overlap_dual}
;; travel_speed = 150.0
;; bottom_layer_speed = {bottom_layer_speed}
;; infill_speed = {infill_speed}
;; solidarea_speed = {solidarea_speed}
;; inset0_speed = {inset0_speed}
;; insetx_speed = {insetx_speed}
;; cool_min_layer_time = 10
;; fan_enabled = {fan_enabled}
;; skirt_line_count = 3
;; skirt_gap = 10.0
;; skirt_minimal_length = {skirt_minimal_length}
;; fan_full_height = {fan_full_height}
;; fan_speed = {fan_speed}
;; fan_speed_max = {fan_speed_max}
;; cool_min_feedrate = {cool_min_feedrate}
;; cool_head_lift = {cool_head_lift}
;; solid_top = {solid_top}
;; solid_bottom = {solid_bottom}
;; fill_overlap = {fill_overlap}
;; perimeter_before_infill = {perimeter_before_infill}
;; support_type = buildplate
;; support_angle = 45
;; support_fill_rate = {support_fill_rate}
;; support_xy_distance = 0.8
;; support_z_distance = 0.2
;; spiralize = {spiralize}
;; simple_mode = {simple_mode}
;; bridge_speed = {bridge_speed}
;; brim_line_count = 20
;; raft_margin = 15
;; raft_line_spacing = {raft_line_spacing}
;; raft_base_thickness = 0.24
;; raft_base_linewidth = {raft_base_linewidth}
;; raft_interface_thickness = 0.30000000000000004
;; raft_interface_linewidth = {raft_interface_linewidth}
;; raft_airgap_all = {raft_airgap_all}
;; raft_airgap = 0.3
;; raft_surface_layers = 2
;; raft_surface_thickness = 0.2
;; raft_surface_linewidth = {raft_surface_linewidth}
;; fix_horrible_union_all_type_a = {fix_horrible_union_all_type_a}
;; fix_horrible_union_all_type_b = {fix_horrible_union_all_type_b}
;; fix_horrible_use_open_bits = {fix_horrible_use_open_bits}
;; fix_horrible_extensive_stitching = {fix_horrible_extensive_stitching}
;; plugin_config = {plugin_config}
;; object_center_x = {object_center_x}
;; object_center_y = {object_center_y}
;; save_profile = {save_profile}
;; filament_cost_kg = {filament_cost_kg}
;; filament_cost_meter = {filament_cost_meter}
;; auto_detect_sd = {auto_detect_sd}
;; sdcard_rootfolder = {sdcard_rootfolder}
;; check_for_updates = {check_for_updates}
;; submit_slice_information = {submit_slice_information}
;; youmagine_token = {youmagine_token}
;; filament_physical_density = {filament_physical_density}
;; language = {language}
;; active_machine = {active_machine}
;; model_colour = {model_colour}
;; model_colour2 = {model_colour2}
;; model_colour3 = {model_colour3}
;; model_colour4 = {model_colour4}
;; printing_window = {printing_window}
;; window_maximized = {window_maximized}
;; window_pos_x = {window_pos_x}
;; window_pos_y = {window_pos_y}
;; window_width = {window_width}
;; window_height = {window_height}
;; window_normal_sash = {window_normal_sash}
;; last_run_version = {last_run_version}
;; machine_name = Creality Ender-3
;; machine_type = {machine_type}
;; machine_width = 235
;; machine_depth = 235
;; machine_height = 250
;; machine_center_is_zero = False
;; machine_shape = rectangular
;; ultimaker_extruder_upgrade = {ultimaker_extruder_upgrade}
;; has_heated_bed = {has_heated_bed}
;; gcode_flavor = {gcode_flavor}
;; extruder_amount = {extruder_amount}
;; extruder_offset_x1 = {extruder_offset_x1}
;; extruder_offset_y1 = {extruder_offset_y1}
;; extruder_offset_x2 = {extruder_offset_x2}
;; extruder_offset_y2 = {extruder_offset_y2}
;; extruder_offset_x3 = {extruder_offset_x3}
;; extruder_offset_y3 = {extruder_offset_y3}
;; extruder_offset_x4 = {extruder_offset_x4}
;; extruder_offset_y4 = {extruder_offset_y4}
;; steps_per_e = {steps_per_e}
;; serial_port = {serial_port}
;; serial_port_auto = {serial_port_auto}
;; serial_baud = {serial_baud}
;; serial_baud_auto = {serial_baud_auto}
;; extruder_head_size_min_x = {extruder_head_size_min_x}
;; extruder_head_size_min_y = {extruder_head_size_min_y}
;; extruder_head_size_max_x = {extruder_head_size_max_x}
;; extruder_head_size_max_y = {extruder_head_size_max_y}
;; extruder_head_size_height = {extruder_head_size_height}
;; machine_acceleration = 500
;; machine_max_xy_jerk = {machine_max_xy_jerk}
;; machine_max_z_jerk = {machine_max_z_jerk}
;; machine_max_e_jerk = {machine_max_e_jerk}

START_PRINT BED_TEMP=50 EXTRUDER_TEMP=200

;; Moved to OctoPrint

;;; M155
;;; M140 S100 ; 60 for PLA
;;; M104 S240 ; 200 for PLA
;;; G90 ;absolute positioning
;;; ; Ender 3 Custom Start G-code
;;; G92 E0 ; Reset Extruder
;;; G28 ; Home all axes
;;; M420 S1 ; Enable mesh
;;; G1 Z5.0 F3000 ; Move Z Axis up little to prevent scratching of Heat Bed
;;; G1 X1 Y20 Z0.3 F5000.0 ; Move to start position
;;; ; Need to be at temperature now
;;; M190 S100 ; S60
;;; M109 S240 ; S200
;;; G1 X1 Y200.0 Z0.3 F1500.0 E15 ; Draw the first line
;;; G1 X1.3 Y200.0 Z0.3 F5000.0 ; Move to side a little
;;; G1 X1.3 Y20 Z0.3 F1500.0 E30 ; Draw the second line
;;; G1 E28 ; Retract a little
;;; G1 E30 ; and back again
;;; G92 E0 ; Reset Extruder
;;; G1 Z1.0 F3000 ; Move Z Axis up little to prevent scratching of Heat Bed
;;; G1 X1.3 Y25 Z0.3 F5000.0 ; Move over to prevent blob squish
;;; G1 X5 Y25 Z0.3 F5000.0 ; Move over to prevent blob squish
;;; G1 X5 Y20 Z0.3 F5000.0 ; Move over to prevent blob squish
;;; G1 X1.3 Y20 Z0.3 F5000.0 ; Move over to prevent blob squish
;;; G1 X1.3 Y25 Z0.3 F5000.0 ; Move over to prevent blob squish
;;; G1 X5 Y25 Z0.3 F5000.0 ; Move over to prevent blob squish
;;; G1 X5 Y20 Z0.3 F5000.0 ; Move over to prevent blob squish
G92 E0
G92 E0
G1 F2700 E-5
;LAYER_COUNT:100
;LAYER:0
M107
G0 F6000 X14.198 Y13.992 Z0.2
;TYPE:SKIRT
G1 F2700 E0
G1 F1200 X14.934 Y13.355 E0.03237
G1 X15.69 Y12.807 E0.06343
G1 X16.292 Y12.437 E0.08693
G1 X16.628 Y12.245 E0.0998
G1 X17.463 Y11.816 E0.13103
G1 X18.399 Y11.437 E0.16461
G1 X19.297 Y11.163 E0.19584
G1 X20.295 Y10.953 E0.22976
G1 X21.54 Y10.821 E0.2714
G1 X22.339 Y10.788 E0.298
G1 X22.859 Y10.779 E0.3153
G1 X23.762 Y10.802 E0.34534
G1 X24.801 Y10.921 E0.38012
G1 X25.755 Y11.121 E0.41254
G1 X26.686 Y11.405 E0.44492
G1 X27.589 Y11.768 E0.47729
G1 X28.444 Y12.203 E0.50919
G1 X29.441 Y12.772 E0.54738
G1 X31.68 Y14.008 E0.63244
G1 X33.931 Y15.17 E0.71669
G1 X36.211 Y16.266 E0.80083
G1 X38.495 Y17.285 E0.88402
G1 X40.846 Y18.256 E0.96862
G1 X43.215 Y19.155 E1.05289
G1 X45.567 Y19.974 E1.13573
G1 X47.962 Y20.733 E1.21929
G1 X50.377 Y21.423 E1.30283
G1 X52.809 Y22.044 E1.38631
G1 X55.262 Y22.598 E1.46995
G1 X57.748 Y23.086 E1.55422
G1 X60.243 Y23.504 E1.63836
G1 X62.717 Y23.843 E1.72141
G1 X65.239 Y24.119 E1.8058
G1 X67.744 Y24.322 E1.88939
G1 X70.24 Y24.451 E1.97251
G1 X72.751 Y24.513 E2.05606
G1 X73.97 Y24.529 E2.0966
G1 X74.942 Y24.585 E2.12899
G1 X75.906 Y24.729 E2.1614
G1 X76.852 Y24.957 E2.19377
G1 X77.775 Y25.267 E2.22615
G1 X78.667 Y25.659 E2.25856
G1 X79.491 Y26.109 E2.28979
G1 X80.33 Y26.67 E2.32336
G1 X81.087 Y27.281 E2.35571
G1 X81.739 Y27.906 E2.38575
G1 X82.426 Y28.694 E2.42052
G1 X83.002 Y29.49 E2.4532
G1 X83.642 Y30.587 E2.49544
G1 X84.134 Y31.673 E2.5351
G1 X84.456 Y32.593 E2.56752
G1 X84.693 Y33.537 E2.59989
G1 X84.842 Y34.466 E2.63118
G1 X84.915 Y35.556 E2.66752
G1 X84.926 Y36.296 E2.69213
G1 X84.915 Y40.354 E2.8271
G1 X84.914 Y62.807 E3.57389
G1 X84.925 Y66.402 E3.69346
G1 X84.912 Y67.425 E3.72749
G1 X84.855 Y68.397 E3.75988
G1 X84.711 Y69.361 E3.79229
G1 X84.482 Y70.307 E3.82467
G1 X84.172 Y71.229 E3.85702
G1 X83.78 Y72.121 E3.88943
G1 X83.33 Y72.945 E3.92065
G1 X82.769 Y73.784 E3.95422
G1 X82.158 Y74.541 E3.98658
G1 X81.532 Y75.193 E4.01664
G1 X80.587 Y76.008 E4.05815
G1 X79.676 Y76.65 E4.09521
G1 X78.863 Y77.121 E4.12646
G1 X77.933 Y77.552 E4.16056
G1 X76.671 Y77.982 E4.2049
G1 X75.576 Y78.276 E4.24261
G1 X73.543 Y78.785 E4.31232
G1 X62.948 Y81.482 E4.67594
G1 X60.143 Y82.208 E4.77231
G1 X59.38 Y82.395 E4.79844
G1 X58.424 Y82.583 E4.83085
G1 X57.457 Y82.684 E4.86318
G1 X56.554 Y82.702 E4.89322
G1 X55.093 Y82.573 E4.94201
G1 X53.99 Y82.401 E4.97914
G1 X51.484 Y82.041 E5.06334
G1 X48.988 Y81.756 E5.1469
G1 X46.437 Y81.535 E5.23206
G1 X43.974 Y81.394 E5.31412
G1 X41.41 Y81.319 E5.39943
G1 X38.923 Y81.317 E5.48215
G1 X36.387 Y81.386 E5.56653
G1 X33.905 Y81.523 E5.64921
G1 X31.38 Y81.735 E5.73348
G1 X28.898 Y82.016 E5.81656
G1 X26.351 Y82.376 E5.90212
G1 X23.154 Y82.924 E6.01
G1 X22.189 Y83.043 E6.04234
G1 X21.287 Y83.077 E6.07236
G1 X20.243 Y83.022 E6.10713
G1 X19.349 Y82.896 E6.13716
G1 X18.38 Y82.679 E6.17019
G1 X17.345 Y82.356 E6.20625
G1 X16.446 Y81.984 E6.23861
G1 X15.582 Y81.535 E6.271
G1 X14.791 Y81.031 E6.30219
G1 X13.989 Y80.415 E6.33583
G1 X13.324 Y79.804 E6.36586
G1 X12.621 Y79.031 E6.40062
G1 X12.054 Y78.283 E6.43183
G1 X11.517 Y77.429 E6.46539
G1 X11.075 Y76.561 E6.49778
G1 X10.712 Y75.658 E6.53015
G1 X10.448 Y74.794 E6.5602
G1 X10.233 Y73.77 E6.595
G1 X10.12 Y72.816 E6.62696
G1 X10.092 Y72.176 E6.64826
G1 X10.075 Y70.9 E6.69071
G1 X10.085 Y67.978 E6.78789
G1 X10.083 Y40.231 E7.71076
G1 X10.096 Y39.34 E7.7404
G1 X10.148 Y38.438 E7.77045
G1 X10.42 Y35.339 E7.87392
G1 X10.558 Y32.892 E7.95544
G1 X10.633 Y30.299 E8.04172
G1 X10.642 Y28.979 E8.08562
G1 X10.643 Y23.059 E8.28252
G1 X10.656 Y22.317 E8.3072
G1 X10.716 Y21.347 E8.33953
G1 X10.85 Y20.446 E8.36982
G1 X10.962 Y19.87 E8.38934
G1 X11.182 Y18.958 E8.42054
G1 X11.502 Y18.003 E8.45404
G1 X11.864 Y17.175 E8.4841
G1 X12.365 Y16.257 E8.51888
G1 X12.909 Y15.449 E8.55128
G1 X13.521 Y14.693 E8.58363
G1 X14.198 Y13.992 E8.61605
G0 F6000 X14.46 Y14.294
G1 F1200 X15.169 Y13.679 E8.64726
G1 X15.9 Y13.148 E8.67731
G1 X16.491 Y12.784 E8.7004
G1 X16.811 Y12.601 E8.71266
G1 X17.614 Y12.187 E8.74271
G1 X18.516 Y11.82 E8.7751
G1 X19.414 Y11.546 E8.80632
G1 X20.337 Y11.351 E8.8377
G1 X21.557 Y11.221 E8.87851
G1 X22.346 Y11.188 E8.90477
G1 X22.849 Y11.179 E8.92151
G1 X23.752 Y11.202 E8.95155
G1 X24.72 Y11.313 E8.98396
G1 X25.639 Y11.504 E9.01518
G1 X26.537 Y11.776 E9.04638
G1 X27.408 Y12.125 E9.07759
G1 X28.263 Y12.56 E9.1095
G1 X29.248 Y13.122 E9.14722
G1 X31.496 Y14.363 E9.23262
G1 X33.758 Y15.531 E9.31729
G1 X36.038 Y16.627 E9.40143
G1 X38.342 Y17.655 E9.48535
G1 X40.693 Y18.626 E9.56995
G1 X43.083 Y19.533 E9.65497
G1 X45.435 Y20.352 E9.73781
G1 X47.852 Y21.118 E9.82214
G1 X50.273 Y21.81 E9.90588
G1 X52.71 Y22.432 E9.98954
G1 X55.185 Y22.991 E10.07393
G1 X57.677 Y23.48 E10.1584
G1 X60.177 Y23.898 E10.2427
G1 X62.674 Y24.241 E10.32653
G1 X65.2 Y24.517 E10.41105
G1 X67.712 Y24.72 E10.49487
G1 X70.23 Y24.851 E10.57873
G1 X72.741 Y24.913 E10.66227
G1 X73.947 Y24.928 E10.70239
G1 X74.884 Y24.981 E10.7336
G1 X75.813 Y25.118 E10.76483
G1 X76.725 Y25.336 E10.79602
G1 X77.615 Y25.634 E10.82724
G1 X78.475 Y26.01 E10.85846
G1 X79.299 Y26.46 E10.88968
G1 X80.079 Y26.982 E10.9209
G1 X80.81 Y27.57 E10.9521
G1 X81.462 Y28.195 E10.98214
G1 X82.102 Y28.929 E11.01453
G1 X82.656 Y29.692 E11.04589
G1 X83.296 Y30.789 E11.08813
G1 X83.757 Y31.805 E11.12524
G1 X84.068 Y32.691 E11.15647
G1 X84.298 Y33.601 E11.18769
G1 X84.443 Y34.493 E11.21775
G1 X84.515 Y35.562 E11.25339
G1 X84.526 Y36.295 E11.27777
G1 X84.515 Y40.353 E11.41274
G1 X84.514 Y62.807 E12.15956
G1 X84.525 Y66.397 E12.27897
G1 X84.513 Y67.402 E12.31239
G1 X84.459 Y68.339 E12.34361
G1 X84.322 Y69.268 E12.37484
G1 X84.103 Y70.18 E12.40604
G1 X83.805 Y71.069 E12.43722
G1 X83.429 Y71.929 E12.46844
G1 X82.979 Y72.753 E12.49967
G1 X82.457 Y73.533 E12.53089
G1 X81.869 Y74.264 E12.56209
G1 X81.243 Y74.916 E12.59215
G1 X80.326 Y75.705 E12.63239
G1 X79.475 Y76.304 E12.667
G1 X78.694 Y76.758 E12.69705
G1 X77.804 Y77.173 E12.72971
G1 X76.542 Y77.603 E12.77405
G1 X75.479 Y77.888 E12.81066
G1 X73.444 Y78.397 E12.88043
G1 X62.849 Y81.095 E13.24406
G1 X60.048 Y81.82 E13.34029
G1 X59.302 Y82.003 E13.36584
G1 X58.382 Y82.185 E13.39703
G1 X57.449 Y82.284 E13.42824
G1 X56.546 Y82.302 E13.45828
G1 X55.155 Y82.178 E13.50473
G1 X54.047 Y82.005 E13.54203
G1 X51.541 Y81.645 E13.62623
G1 X49.022 Y81.357 E13.71056
G1 X46.471 Y81.137 E13.79572
G1 X43.986 Y80.994 E13.87851
G1 X41.422 Y80.919 E13.96383
G1 X38.912 Y80.917 E14.04731
G1 X36.376 Y80.986 E14.13169
G1 X33.872 Y81.125 E14.2151
G1 X31.347 Y81.337 E14.29938
G1 X28.842 Y81.62 E14.38322
G1 X26.295 Y81.98 E14.46878
G1 X23.105 Y82.527 E14.57643
G1 X22.174 Y82.643 E14.60763
G1 X21.272 Y82.677 E14.63765
G1 X20.299 Y82.626 E14.67006
G1 X19.405 Y82.5 E14.70009
G1 X18.499 Y82.297 E14.73097
G1 X17.497 Y81.986 E14.76586
G1 X16.63 Y81.629 E14.79705
G1 X15.796 Y81.197 E14.82829
G1 X15.034 Y80.713 E14.85831
G1 X14.26 Y80.12 E14.89074
G1 X13.595 Y79.509 E14.92078
G1 X12.94 Y78.789 E14.95315
G1 X12.373 Y78.041 E14.98437
G1 X11.873 Y77.247 E15.01558
G1 X11.446 Y76.411 E15.0468
G1 X11.095 Y75.541 E15.07801
G1 X10.831 Y74.677 E15.10806
G1 X10.63 Y73.723 E15.14048
G1 X10.52 Y72.798 E15.17146
G1 X10.492 Y72.171 E15.19234
G1 X10.475 Y70.901 E15.23458
G1 X10.485 Y67.979 E15.33177
G1 X10.483 Y40.236 E16.25451
G1 X10.495 Y39.363 E16.28354
G1 X10.546 Y38.473 E16.31319
G1 X10.818 Y35.374 E16.41666
G1 X10.958 Y32.904 E16.49895
G1 X11.033 Y30.311 E16.58523
G1 X11.042 Y28.982 E16.62943
G1 X11.043 Y23.066 E16.8262
G1 X11.055 Y22.341 E16.85032
G1 X11.112 Y21.406 E16.88147
G1 X11.243 Y20.522 E16.91119
G1 X11.351 Y19.964 E16.9301
G1 X11.571 Y19.052 E16.9613
G1 X11.869 Y18.163 E16.99249
G1 X12.231 Y17.335 E17.02254
G1 X12.697 Y16.48 E17.05493
G1 X13.22 Y15.7 E17.08617
G1 X13.809 Y14.97 E17.11736
G1 X14.46 Y14.294 E17.14858
G0 F6000 X14.723 Y14.596
G1 F1200 X15.404 Y14.003 E17.17861
G1 X16.135 Y13.472 E17.20866
G1 X16.69 Y13.131 E17.23033
G1 X16.994 Y12.957 E17.24198
G1 X17.797 Y12.543 E17.27203
