;FLAVOR:Marlin
M117 Time Left 0h12m47s
;TIME:767
;Filament used: 0.432021m
;Layer height: 0.16
;MINX:92.146
;MINY:95.888
;MINZ:0.2
;MAXX:142.854
;MAXY:139.112
;MAXZ:5.4
;POSTPROCESSED
;Generated with Cura_SteamEngine 5.3.1
M82 ;absolute extrusion mode
;;; Script based on an original created by tjjfvi (https://github.com/tjjfvi)
; An up-to-date version of the tjjfvi's original script can be found
; here:  https://csi.t6.fyi/
; Note - This script will only work in Cura V4.2 and above!
; --- Global Settings
; layer_height = 0.16
; smooth_spiralized_contours = True
; magic_mesh_surface_mode = normal
; machine_extruder_count = 1
; --- Single Extruder Settings
; speed_z_hop = 5
; retraction_amount = 5
; retraction_hop = 0.2
; retraction_hop_enabled = False
; retraction_enable = True
; retraction_speed = 45
; retraction_retract_speed = 45
; retraction_prime_speed = 45
; speed_travel = 150.0

;; Mon 12-06-2023 12:11:06

;; layer_height = 0.16
;; wall_thickness = 1.2000000000000002
;; retraction_enable = True
;; solid_layer_thickness = {solid_layer_thickness}
;; fill_density = {fill_density}
;; print_speed = {print_speed}
;; print_temperature = 200
;; print_temperature2 = {print_temperature2}
;; print_temperature3 = {print_temperature3}
;; print_temperature4 = {print_temperature4}
;; print_temperature5 = {print_temperature5}
;; print_bed_temperature = 50
;; support = 0
;; platform_adhesion = 0
;; support_dual_extrusion = {support_dual_extrusion}
;; wipe_tower = {wipe_tower}
;; wipe_tower_volume = {wipe_tower_volume}
;; ooze_shield = {ooze_shield}
;; filament_diameter = {filament_diameter}
;; filament_diameter2 = {filament_diameter2}
;; filament_diameter3 = {filament_diameter3}
;; filament_diameter4 = {filament_diameter4}
;; filament_diameter5 = {filament_diameter5}
;; filament_flow = {filament_flow}
;; nozzle_size = {nozzle_size}
;; retraction_speed = 45
;; retraction_amount = 5
;; retraction_dual_amount = {retraction_dual_amount}
;; retraction_min_travel = 1.5
;; retraction_combing = noskin
;; retraction_minimal_extrusion = {retraction_minimal_extrusion}
;; retraction_hop = 0.2
;; bottom_thickness = 0.8400000000000001
;; layer0_width_factor = {layer0_width_factor}
;; object_sink = {object_sink}
;; enable_skin = {enable_skin}
;; overlap_dual = {overlap_dual}
;; travel_speed = 150.0
;; bottom_layer_speed = {bottom_layer_speed}
;; infill_speed = {infill_speed}
;; solidarea_speed = {solidarea_speed}
;; inset0_speed = {inset0_speed}
;; insetx_speed = {insetx_speed}
;; cool_min_layer_time = 10
;; fan_enabled = {fan_enabled}
;; skirt_line_count = 3
;; skirt_gap = 10.0
;; skirt_minimal_length = {skirt_minimal_length}
;; fan_full_height = {fan_full_height}
;; fan_speed = {fan_speed}
;; fan_speed_max = {fan_speed_max}
;; cool_min_feedrate = {cool_min_feedrate}
;; cool_head_lift = {cool_head_lift}
;; solid_top = {solid_top}
;; solid_bottom = {solid_bottom}
;; fill_overlap = {fill_overlap}
;; perimeter_before_infill = {perimeter_before_infill}
;; support_type = buildplate
;; support_angle = 51
;; support_fill_rate = {support_fill_rate}
;; support_xy_distance = 0.8
;; support_z_distance = 0.16
;; spiralize = {spiralize}
;; simple_mode = {simple_mode}
;; bridge_speed = {bridge_speed}
;; brim_line_count = 20
;; raft_margin = 15
;; raft_line_spacing = {raft_line_spacing}
;; raft_base_thickness = 0.24
;; raft_base_linewidth = {raft_base_linewidth}
;; raft_interface_thickness = 0.24
;; raft_interface_linewidth = {raft_interface_linewidth}
;; raft_airgap_all = {raft_airgap_all}
;; raft_airgap = 0.3
;; raft_surface_layers = 2
;; raft_surface_thickness = 0.16
;; raft_surface_linewidth = {raft_surface_linewidth}
;; fix_horrible_union_all_type_a = {fix_horrible_union_all_type_a}
;; fix_horrible_union_all_type_b = {fix_horrible_union_all_type_b}
;; fix_horrible_use_open_bits = {fix_horrible_use_open_bits}
;; fix_horrible_extensive_stitching = {fix_horrible_extensive_stitching}
;; plugin_config = {plugin_config}
;; object_center_x = {object_center_x}
;; object_center_y = {object_center_y}
;; save_profile = {save_profile}
;; filament_cost_kg = {filament_cost_kg}
;; filament_cost_meter = {filament_cost_meter}
;; auto_detect_sd = {auto_detect_sd}
;; sdcard_rootfolder = {sdcard_rootfolder}
;; check_for_updates = {check_for_updates}
;; submit_slice_information = {submit_slice_information}
;; youmagine_token = {youmagine_token}
;; filament_physical_density = {filament_physical_density}
;; language = {language}
;; active_machine = {active_machine}
;; model_colour = {model_colour}
;; model_colour2 = {model_colour2}
;; model_colour3 = {model_colour3}
;; model_colour4 = {model_colour4}
;; printing_window = {printing_window}
;; window_maximized = {window_maximized}
;; window_pos_x = {window_pos_x}
;; window_pos_y = {window_pos_y}
;; window_width = {window_width}
;; window_height = {window_height}
;; window_normal_sash = {window_normal_sash}
;; last_run_version = {last_run_version}
;; machine_name = Creality Ender-3
;; machine_type = {machine_type}
;; machine_width = 235
;; machine_depth = 235
;; machine_height = 250
;; machine_center_is_zero = False
;; machine_shape = rectangular
;; ultimaker_extruder_upgrade = {ultimaker_extruder_upgrade}
;; has_heated_bed = {has_heated_bed}
;; gcode_flavor = {gcode_flavor}
;; extruder_amount = {extruder_amount}
;; extruder_offset_x1 = {extruder_offset_x1}
;; extruder_offset_y1 = {extruder_offset_y1}
;; extruder_offset_x2 = {extruder_offset_x2}
;; extruder_offset_y2 = {extruder_offset_y2}
;; extruder_offset_x3 = {extruder_offset_x3}
;; extruder_offset_y3 = {extruder_offset_y3}
;; extruder_offset_x4 = {extruder_offset_x4}
;; extruder_offset_y4 = {extruder_offset_y4}
;; steps_per_e = {steps_per_e}
;; serial_port = {serial_port}
;; serial_port_auto = {serial_port_auto}
;; serial_baud = {serial_baud}
;; serial_baud_auto = {serial_baud_auto}
;; extruder_head_size_min_x = {extruder_head_size_min_x}
;; extruder_head_size_min_y = {extruder_head_size_min_y}
;; extruder_head_size_max_x = {extruder_head_size_max_x}
;; extruder_head_size_max_y = {extruder_head_size_max_y}
;; extruder_head_size_height = {extruder_head_size_height}
;; machine_acceleration = 500
;; machine_max_xy_jerk = {machine_max_xy_jerk}
;; machine_max_z_jerk = {machine_max_z_jerk}
;; machine_max_e_jerk = {machine_max_e_jerk}

START_PRINT BED_TEMP=50 EXTRUDER_TEMP=200

;; Moved to OctoPrint

;;; M155
;;; M140 S100 ; 60 for PLA
;;; M104 S240 ; 200 for PLA
;;; G90 ;absolute positioning
;;; ; Ender 3 Custom Start G-code
;;; G92 E0 ; Reset Extruder
;;; G28 ; Home all axes
;;; M420 S1 ; Enable mesh
;;; G1 Z5.0 F3000 ; Move Z Axis up little to prevent scratching of Heat Bed
;;; G1 X1 Y20 Z0.3 F5000.0 ; Move to start position
;;; ; Need to be at temperature now
;;; M190 S100 ; S60
;;; M109 S240 ; S200
;;; G1 X1 Y200.0 Z0.3 F1500.0 E15 ; Draw the first line
;;; G1 X1.3 Y200.0 Z0.3 F5000.0 ; Move to side a little
;;; G1 X1.3 Y20 Z0.3 F1500.0 E30 ; Draw the second line
;;; G1 E28 ; Retract a little
;;; G1 E30 ; and back again
;;; G92 E0 ; Reset Extruder
;;; G1 Z1.0 F3000 ; Move Z Axis up little to prevent scratching of Heat Bed
;;; G1 X1.3 Y25 Z0.3 F5000.0 ; Move over to prevent blob squish
;;; G1 X5 Y25 Z0.3 F5000.0 ; Move over to prevent blob squish
;;; G1 X5 Y20 Z0.3 F5000.0 ; Move over to prevent blob squish
;;; G1 X1.3 Y20 Z0.3 F5000.0 ; Move over to prevent blob squish
;;; G1 X1.3 Y25 Z0.3 F5000.0 ; Move over to prevent blob squish
;;; G1 X5 Y25 Z0.3 F5000.0 ; Move over to prevent blob squish
;;; G1 X5 Y20 Z0.3 F5000.0 ; Move over to prevent blob squish
G92 E0
G92 E0
G1 F2700 E-5
;LAYER_COUNT:28
;LAYER:0
M107
G0 F6000 X96.127 Y99.505 Z0.2
;TYPE:SKIRT
G1 F2700 E0
G1 F1200 X96.808 Y98.912 E0.03003
G1 X97.54 Y98.382 E0.06009
G1 X98.315 Y97.919 E0.09012
G1 X99.128 Y97.526 E0.12015
G1 X99.973 Y97.206 E0.1502
G1 X100.842 Y96.963 E0.18022
G1 X101.73 Y96.797 E0.21026
G1 X102.869 Y96.701 E0.24828
G1 X103.476 Y96.688 E0.26847
G1 X131.147 Y96.688 E1.18882
G1 X131.991 Y96.699 E1.21689
G1 X132.893 Y96.752 E1.24694
G1 X133.786 Y96.884 E1.27697
G1 X134.664 Y97.095 E1.307
G1 X135.52 Y97.383 E1.33704
G1 X136.347 Y97.745 E1.36706
G1 X137.139 Y98.18 E1.39712
G1 X137.89 Y98.682 E1.42716
G1 X138.593 Y99.249 E1.4572
G1 X139.243 Y99.876 E1.48724
G1 X139.835 Y100.558 E1.51728
G1 X140.365 Y101.289 E1.54731
G1 X140.827 Y102.065 E1.57735
G1 X141.22 Y102.878 E1.60738
G1 X141.538 Y103.723 E1.63741
G1 X141.781 Y104.593 E1.66745
G1 X141.946 Y105.481 E1.69749
G1 X142.041 Y106.611 E1.73521
G1 X142.054 Y107.218 E1.7554
G1 X142.053 Y127.502 E2.43005
G1 X142.044 Y128.229 E2.45423
G1 X141.993 Y129.131 E2.48428
G1 X141.862 Y130.025 E2.51434
G1 X141.653 Y130.903 E2.54435
G1 X141.367 Y131.76 E2.5744
G1 X141.006 Y132.588 E2.60445
G1 X140.574 Y133.38 E2.63445
G1 X140.073 Y134.132 E2.66451
G1 X139.507 Y134.836 E2.69455
G1 X138.882 Y135.487 E2.72457
G1 X138.201 Y136.081 E2.75462
G1 X137.47 Y136.612 E2.78467
G1 X136.696 Y137.076 E2.81469
G1 X135.883 Y137.47 E2.84474
G1 X135.039 Y137.79 E2.87476
G1 X134.169 Y138.035 E2.90482
G1 X133.282 Y138.201 E2.93483
G1 X132.131 Y138.299 E2.97325
G1 X131.524 Y138.312 E2.99345
G1 X103.721 Y138.311 E3.91818
G1 X103.023 Y138.302 E3.9414
G1 X102.122 Y138.251 E3.97141
G1 X101.228 Y138.119 E4.00147
G1 X100.35 Y137.91 E4.03149
G1 X99.493 Y137.623 E4.06155
G1 X98.666 Y137.262 E4.09156
G1 X97.873 Y136.829 E4.12161
G1 X97.122 Y136.328 E4.15164
G1 X96.418 Y135.762 E4.18168
G1 X95.767 Y135.136 E4.21172
G1 X95.174 Y134.455 E4.24175
G1 X94.644 Y133.724 E4.27179
G1 X94.18 Y132.949 E4.30183
G1 X93.786 Y132.136 E4.33188
G1 X93.466 Y131.292 E4.3619
G1 X93.222 Y130.422 E4.39195
G1 X93.056 Y129.534 E4.422
G1 X92.959 Y128.379 E4.46055
G1 X92.946 Y127.77 E4.48081
G1 X92.947 Y107.424 E5.15752
G1 X92.956 Y106.759 E5.17964
G1 X93.008 Y105.857 E5.20969
G1 X93.14 Y104.964 E5.23971
G1 X93.35 Y104.086 E5.26974
G1 X93.637 Y103.229 E5.2998
G1 X93.999 Y102.402 E5.32983
G1 X94.432 Y101.61 E5.35985
G1 X94.934 Y100.859 E5.38989
G1 X95.501 Y100.155 E5.41996
G1 X96.127 Y99.505 E5.44997
G0 F6000 X95.864 Y99.203
G1 F1200 X96.545 Y98.61 E5.48001
G1 X97.305 Y98.058 E5.51125
G1 X98.141 Y97.559 E5.54363
G1 X98.986 Y97.152 E5.57483
G1 X99.831 Y96.832 E5.60488
G1 X100.768 Y96.57 E5.63724
G1 X101.696 Y96.398 E5.66863
G1 X102.835 Y96.302 E5.70665
G1 X103.467 Y96.288 E5.72767
G1 X131.152 Y96.288 E6.64848
G1 X132.014 Y96.3 E6.67715
G1 X132.951 Y96.356 E6.70837
G1 X133.844 Y96.488 E6.7384
G1 X134.792 Y96.716 E6.77083
G1 X135.648 Y97.004 E6.80087
G1 X136.54 Y97.394 E6.83324
G1 X137.332 Y97.829 E6.8633
G1 X138.112 Y98.349 E6.89448
G1 X138.871 Y98.961 E6.92691
G1 X139.521 Y99.588 E6.95694
G1 X140.159 Y100.323 E6.98932
G1 X140.709 Y101.084 E7.02055
G1 X141.171 Y101.86 E7.05058
G1 X141.594 Y102.737 E7.08297
G1 X141.923 Y103.615 E7.11415
G1 X142.174 Y104.52 E7.14539
G1 X142.345 Y105.447 E7.17674
G1 X142.44 Y106.577 E7.21446
G1 X142.454 Y107.218 E7.23578
G1 X142.453 Y127.507 E7.9106
G1 X142.443 Y128.252 E7.93538
G1 X142.389 Y129.189 E7.9666
G1 X142.258 Y130.083 E7.99665
G1 X142.042 Y130.996 E8.02785
G1 X141.734 Y131.92 E8.06025
G1 X141.373 Y132.748 E8.09029
G1 X140.907 Y133.602 E8.12265
G1 X140.385 Y134.383 E8.15389
G1 X139.819 Y135.087 E8.18394
G1 X139.171 Y135.764 E8.21511
G1 X138.436 Y136.405 E8.24754
G1 X137.705 Y136.936 E8.27759
G1 X136.902 Y137.419 E8.30876
G1 X136.025 Y137.844 E8.34117
G1 X135.181 Y138.164 E8.3712
G1 X134.243 Y138.428 E8.40361
G1 X133.316 Y138.6 E8.43496
G1 X132.165 Y138.698 E8.47339
G1 X131.524 Y138.712 E8.49471
G1 X103.716 Y138.711 E9.41961
G1 X103 Y138.701 E9.44342
G1 X102.064 Y138.647 E9.47461
G1 X101.17 Y138.515 E9.50467
G1 X100.257 Y138.299 E9.53587
G1 X99.333 Y137.99 E9.56828
G1 X98.506 Y137.629 E9.59829
G1 X97.651 Y137.162 E9.63069
G1 X96.871 Y136.64 E9.66191
G1 X96.167 Y136.074 E9.69195
G1 X95.465 Y135.399 E9.72434
G1 X94.872 Y134.718 E9.75438
G1 X94.32 Y133.959 E9.78559
G1 X93.82 Y133.123 E9.81799
G1 X93.412 Y132.278 E9.8492
G1 X93.092 Y131.434 E9.87922
G1 X92.829 Y130.496 E9.91162
G1 X92.657 Y129.567 E9.94305
G1 X92.559 Y128.388 E9.98239
G1 X92.546 Y127.77 E10.00295
G1 X92.547 Y107.419 E10.67983
G1 X92.557 Y106.736 E10.70255
G1 X92.612 Y105.799 E10.73377
G1 X92.744 Y104.906 E10.76379
G1 X92.961 Y103.993 E10.79501
G1 X93.258 Y103.102 E10.82624
G1 X93.648 Y102.21 E10.85862
G1 X94.099 Y101.388 E10.88981
G1 X94.622 Y100.608 E10.92104
G1 X95.189 Y99.904 E10.95111
G1 X95.864 Y99.203 E10.98347
G0 F6000 X95.601 Y98.901
G1 F1200 X96.282 Y98.308 E11.01351
G1 X97.07 Y97.734 E11.04593
G1 X97.967 Y97.199 E11.08067
G1 X98.844 Y96.778 E11.11303
G1 X99.689 Y96.458 E11.14308
G1 X100.695 Y96.177 E11.17782
G1 X101.662 Y95.999 E11.21052
G1 X102.801 Y95.903 E11.24854
G1 X103.458 Y95.888 E11.2704
G1 X131.158 Y95.888 E12.1917
G1 X132.038 Y95.901 E12.22098
G1 X133.009 Y95.96 E12.25333
G1 X133.938 Y96.099 E12.28457
G1 X134.886 Y96.327 E12.317
G1 X135.808 Y96.637 E12.34936
G1 X136.733 Y97.043 E12.38296
G1 X137.525 Y97.478 E12.41301
G1 X138.334 Y98.016 E12.44532
G1 X139.149 Y98.673 E12.48014
G1 X139.799 Y99.3 E12.51018
G1 X140.461 Y100.061 E12.54373
G1 X141.053 Y100.879 E12.57731
G1 X141.515 Y101.655 E12.60735
G1 X141.969 Y102.597 E12.64213
G1 X142.298 Y103.475 E12.67331
G1 X142.567 Y104.447 E12.70686
G1 X142.744 Y105.413 E12.73952
G1 X142.839 Y106.543 E12.77724
G1 X142.854 Y107.218 E12.7997
G1 X142.853 Y127.512 E13.47468
G1 X142.842 Y128.275 E13.50006
G1 X142.785 Y129.247 E13.53244
G1 X142.654 Y130.141 E13.56249
G1 X142.431 Y131.088 E13.59485
G1 X142.101 Y132.08 E13.62962
G1 X141.74 Y132.908 E13.65967
G1 X141.24 Y133.824 E13.69438
G1 X140.697 Y134.634 E13.72681
G1 X140.131 Y135.338 E13.75685
G1 X139.46 Y136.041 E13.78918
G1 X138.671 Y136.729 E13.824
G1 X137.94 Y137.26 E13.85405
G1 X137.108 Y137.762 E13.88637
G1 X136.167 Y138.218 E13.92114
G1 X135.323 Y138.538 E13.95117
G1 X134.351 Y138.813 E13.98476
G1 X133.35 Y138.999 E14.01863
G1 X132.199 Y139.097 E14.05705
G1 X131.524 Y139.112 E14.0795
G1 X103.71 Y139.111 E15.0046
G1 X102.977 Y139.1 E15.02898
G1 X102.006 Y139.043 E15.06134
G1 X101.112 Y138.911 E15.09139
G1 X100.13 Y138.678 E15.12496
G1 X99.173 Y138.357 E15.15853
G1 X98.346 Y137.996 E15.18855
G1 X97.459 Y137.513 E15.22214
G1 X96.62 Y136.952 E15.25571
G1 X95.916 Y136.386 E15.28575
G1 X95.163 Y135.662 E15.32049
G1 X94.57 Y134.981 E15.35053
G1 X93.977 Y134.164 E15.38411
G1 X93.46 Y133.297 E15.41768
G1 X93.038 Y132.42 E15.45005
G1 X92.718 Y131.576 E15.48007
G1 X92.444 Y130.604 E15.51366
G1 X92.258 Y129.6 E15.54762
G1 X92.16 Y128.421 E15.58697
G1 X92.146 Y127.77 E15.60863
G1 X92.147 Y107.413 E16.2857
G1 X92.158 Y106.713 E16.30899
G1 X92.216 Y105.741 E16.34138
G1 X92.348 Y104.848 E16.3714
G1 X92.572 Y103.901 E16.40377
G1 X92.891 Y102.942 E16.43738
G1 X93.281 Y102.05 E16.46976
G1 X93.748 Y101.196 E16.50213
G1 X94.31 Y100.357 E16.53572
G1 X94.877 Y99.653 E16.56579
G1 X95.601 Y98.901 E16.60051
G1 F2700 E11.60051
G0 F6000 X106.102 Y110.075
;TYPE:SUPPORT-INTERFACE
G1 F2700 E16.60051
G1 F1200 X106.498 Y109.787 E16.61679
G1 X106.986 Y109.787 E16.63302
G1 X107.089 Y109.861 E16.63724
G1 X107.192 Y109.787 E16.64146
G1 X107.681 Y109.787 E16.65772
G1 X107.797 Y109.871 E16.66249
G1 X107.913 Y109.787 E16.66725
G1 X108.401 Y109.787 E16.68348
G1 X108.492 Y109.854 E16.68724
G1 X108.583 Y109.787 E16.691
G1 X109.429 Y109.787 E16.71914
G1 X109.825 Y110.075 E16.73542
G1 X109.976 Y110.537 E16.75159
G1 X109.825 Y111.001 E16.76782
G1 X109.429 Y111.289 E16.7841
G1 X108.583 Y111.289 E16.81224
G1 X108.492 Y111.222 E16.816
G1 X108.401 Y111.289 E16.81976
G1 X107.913 Y111.289 E16.83599
G1 X107.797 Y111.205 E16.84075
G1 X107.681 Y111.289 E16.84552
