;FLAVOR:Marlin
M117 Time Left 0h20m25s
;TIME:1225
;Filament used: 0.665276m
;Layer height: 0.16
;MINX:91.9
;MINY:93.5
;MINZ:0.2
;MAXX:143.1
;MAXY:141.5
;MAXZ:4
;POSTPROCESSED
;Generated with Cura_SteamEngine 5.3.1
M82 ;absolute extrusion mode
;;; Script based on an original created by tjjfvi (https://github.com/tjjfvi)
; An up-to-date version of the tjjfvi's original script can be found
; here:  https://csi.t6.fyi/
; Note - This script will only work in Cura V4.2 and above!
; --- Global Settings
; layer_height = 0.16
; smooth_spiralized_contours = True
; magic_mesh_surface_mode = normal
; machine_extruder_count = 1
; --- Single Extruder Settings
; speed_z_hop = 5
; retraction_amount = 5
; retraction_hop = 0.2
; retraction_hop_enabled = False
; retraction_enable = True
; retraction_speed = 45
; retraction_retract_speed = 45
; retraction_prime_speed = 45
; speed_travel = 150.0

;; Tue 13-06-2023 09:13:31

;; layer_height = 0.16
;; wall_thickness = 1.2000000000000002
;; retraction_enable = True
;; solid_layer_thickness = {solid_layer_thickness}
;; fill_density = {fill_density}
;; print_speed = {print_speed}
;; print_temperature = 200
;; print_temperature2 = {print_temperature2}
;; print_temperature3 = {print_temperature3}
;; print_temperature4 = {print_temperature4}
;; print_temperature5 = {print_temperature5}
;; print_bed_temperature = 50
;; support = 0
;; platform_adhesion = 0
;; support_dual_extrusion = {support_dual_extrusion}
;; wipe_tower = {wipe_tower}
;; wipe_tower_volume = {wipe_tower_volume}
;; ooze_shield = {ooze_shield}
;; filament_diameter = {filament_diameter}
;; filament_diameter2 = {filament_diameter2}
;; filament_diameter3 = {filament_diameter3}
;; filament_diameter4 = {filament_diameter4}
;; filament_diameter5 = {filament_diameter5}
;; filament_flow = {filament_flow}
;; nozzle_size = {nozzle_size}
;; retraction_speed = 45
;; retraction_amount = 5
;; retraction_dual_amount = {retraction_dual_amount}
;; retraction_min_travel = 1.5
;; retraction_combing = noskin
;; retraction_minimal_extrusion = {retraction_minimal_extrusion}
;; retraction_hop = 0.2
;; bottom_thickness = 0.8400000000000001
;; layer0_width_factor = {layer0_width_factor}
;; object_sink = {object_sink}
;; enable_skin = {enable_skin}
;; overlap_dual = {overlap_dual}
;; travel_speed = 150.0
;; bottom_layer_speed = {bottom_layer_speed}
;; infill_speed = {infill_speed}
;; solidarea_speed = {solidarea_speed}
;; inset0_speed = {inset0_speed}
;; insetx_speed = {insetx_speed}
;; cool_min_layer_time = 10
;; fan_enabled = {fan_enabled}
;; skirt_line_count = 3
;; skirt_gap = 10.0
;; skirt_minimal_length = {skirt_minimal_length}
;; fan_full_height = {fan_full_height}
;; fan_speed = {fan_speed}
;; fan_speed_max = {fan_speed_max}
;; cool_min_feedrate = {cool_min_feedrate}
;; cool_head_lift = {cool_head_lift}
;; solid_top = {solid_top}
;; solid_bottom = {solid_bottom}
;; fill_overlap = {fill_overlap}
;; perimeter_before_infill = {perimeter_before_infill}
;; support_type = buildplate
;; support_angle = 51
;; support_fill_rate = {support_fill_rate}
;; support_xy_distance = 0.8
;; support_z_distance = 0.16
;; spiralize = {spiralize}
;; simple_mode = {simple_mode}
;; bridge_speed = {bridge_speed}
;; brim_line_count = 20
;; raft_margin = 15
;; raft_line_spacing = {raft_line_spacing}
;; raft_base_thickness = 0.24
;; raft_base_linewidth = {raft_base_linewidth}
;; raft_interface_thickness = 0.24
;; raft_interface_linewidth = {raft_interface_linewidth}
;; raft_airgap_all = {raft_airgap_all}
;; raft_airgap = 0.3
;; raft_surface_layers = 2
;; raft_surface_thickness = 0.16
;; raft_surface_linewidth = {raft_surface_linewidth}
;; fix_horrible_union_all_type_a = {fix_horrible_union_all_type_a}
;; fix_horrible_union_all_type_b = {fix_horrible_union_all_type_b}
;; fix_horrible_use_open_bits = {fix_horrible_use_open_bits}
;; fix_horrible_extensive_stitching = {fix_horrible_extensive_stitching}
;; plugin_config = {plugin_config}
;; object_center_x = {object_center_x}
;; object_center_y = {object_center_y}
;; save_profile = {save_profile}
;; filament_cost_kg = {filament_cost_kg}
;; filament_cost_meter = {filament_cost_meter}
;; auto_detect_sd = {auto_detect_sd}
;; sdcard_rootfolder = {sdcard_rootfolder}
;; check_for_updates = {check_for_updates}
;; submit_slice_information = {submit_slice_information}
;; youmagine_token = {youmagine_token}
;; filament_physical_density = {filament_physical_density}
;; language = {language}
;; active_machine = {active_machine}
;; model_colour = {model_colour}
;; model_colour2 = {model_colour2}
;; model_colour3 = {model_colour3}
;; model_colour4 = {model_colour4}
;; printing_window = {printing_window}
;; window_maximized = {window_maximized}
;; window_pos_x = {window_pos_x}
;; window_pos_y = {window_pos_y}
;; window_width = {window_width}
;; window_height = {window_height}
;; window_normal_sash = {window_normal_sash}
;; last_run_version = {last_run_version}
;; machine_name = Creality Ender-3
;; machine_type = {machine_type}
;; machine_width = 235
;; machine_depth = 235
;; machine_height = 250
;; machine_center_is_zero = False
;; machine_shape = rectangular
;; ultimaker_extruder_upgrade = {ultimaker_extruder_upgrade}
;; has_heated_bed = {has_heated_bed}
;; gcode_flavor = {gcode_flavor}
;; extruder_amount = {extruder_amount}
;; extruder_offset_x1 = {extruder_offset_x1}
;; extruder_offset_y1 = {extruder_offset_y1}
;; extruder_offset_x2 = {extruder_offset_x2}
;; extruder_offset_y2 = {extruder_offset_y2}
;; extruder_offset_x3 = {extruder_offset_x3}
;; extruder_offset_y3 = {extruder_offset_y3}
;; extruder_offset_x4 = {extruder_offset_x4}
;; extruder_offset_y4 = {extruder_offset_y4}
;; steps_per_e = {steps_per_e}
;; serial_port = {serial_port}
;; serial_port_auto = {serial_port_auto}
;; serial_baud = {serial_baud}
;; serial_baud_auto = {serial_baud_auto}
;; extruder_head_size_min_x = {extruder_head_size_min_x}
;; extruder_head_size_min_y = {extruder_head_size_min_y}
;; extruder_head_size_max_x = {extruder_head_size_max_x}
;; extruder_head_size_max_y = {extruder_head_size_max_y}
;; extruder_head_size_height = {extruder_head_size_height}
;; machine_acceleration = 500
;; machine_max_xy_jerk = {machine_max_xy_jerk}
;; machine_max_z_jerk = {machine_max_z_jerk}
;; machine_max_e_jerk = {machine_max_e_jerk}

START_PRINT BED_TEMP=50 EXTRUDER_TEMP=200

;; Moved to OctoPrint

;;; M155
;;; M140 S100 ; 60 for PLA
;;; M104 S240 ; 200 for PLA
;;; G90 ;absolute positioning
;;; ; Ender 3 Custom Start G-code
;;; G92 E0 ; Reset Extruder
;;; G28 ; Home all axes
;;; M420 S1 ; Enable mesh
;;; G1 Z5.0 F3000 ; Move Z Axis up little to prevent scratching of Heat Bed
;;; G1 X1 Y20 Z0.3 F5000.0 ; Move to start position
;;; ; Need to be at temperature now
;;; M190 S100 ; S60
;;; M109 S240 ; S200
;;; G1 X1 Y200.0 Z0.3 F1500.0 E15 ; Draw the first line
;;; G1 X1.3 Y200.0 Z0.3 F5000.0 ; Move to side a little
;;; G1 X1.3 Y20 Z0.3 F1500.0 E30 ; Draw the second line
;;; G1 E28 ; Retract a little
;;; G1 E30 ; and back again
;;; G92 E0 ; Reset Extruder
;;; G1 Z1.0 F3000 ; Move Z Axis up little to prevent scratching of Heat Bed
;;; G1 X1.3 Y25 Z0.3 F5000.0 ; Move over to prevent blob squish
;;; G1 X5 Y25 Z0.3 F5000.0 ; Move over to prevent blob squish
;;; G1 X5 Y20 Z0.3 F5000.0 ; Move over to prevent blob squish
;;; G1 X1.3 Y20 Z0.3 F5000.0 ; Move over to prevent blob squish
;;; G1 X1.3 Y25 Z0.3 F5000.0 ; Move over to prevent blob squish
;;; G1 X5 Y25 Z0.3 F5000.0 ; Move over to prevent blob squish
;;; G1 X5 Y20 Z0.3 F5000.0 ; Move over to prevent blob squish
G92 E0
G92 E0
G1 F2700 E-5
;LAYER_COUNT:22
;LAYER:0
M107
G0 F6000 X95.881 Y97.117 Z0.2
;TYPE:SKIRT
G1 F2700 E0
G1 F1200 X96.562 Y96.524 E0.03003
G1 X97.294 Y95.994 E0.06009
G1 X98.069 Y95.531 E0.09012
G1 X98.882 Y95.138 E0.12015
G1 X99.727 Y94.818 E0.1502
G1 X100.596 Y94.575 E0.18022
G1 X101.484 Y94.409 E0.21026
G1 X102.623 Y94.313 E0.24828
G1 X103.23 Y94.3 E0.26847
G1 X131.393 Y94.3 E1.20518
G1 X132.237 Y94.311 E1.23325
G1 X133.139 Y94.364 E1.26331
G1 X134.032 Y94.496 E1.29333
G1 X134.91 Y94.707 E1.32336
G1 X135.766 Y94.995 E1.3534
G1 X136.593 Y95.357 E1.38343
G1 X137.385 Y95.792 E1.41348
G1 X138.136 Y96.294 E1.44353
G1 X138.839 Y96.861 E1.47357
G1 X139.489 Y97.488 E1.5036
G1 X140.081 Y98.17 E1.53364
G1 X140.611 Y98.901 E1.56367
G1 X141.073 Y99.677 E1.59371
G1 X141.466 Y100.49 E1.62374
G1 X141.784 Y101.335 E1.65377
G1 X142.027 Y102.205 E1.68382
G1 X142.192 Y103.093 E1.71386
G1 X142.287 Y104.223 E1.75157
G1 X142.3 Y104.83 E1.77177
G1 X142.299 Y129.89 E2.60527
G1 X142.29 Y130.617 E2.62945
G1 X142.239 Y131.519 E2.6595
G1 X142.108 Y132.413 E2.68955
G1 X141.899 Y133.291 E2.71957
G1 X141.613 Y134.148 E2.74962
G1 X141.252 Y134.976 E2.77966
G1 X140.82 Y135.768 E2.80967
G1 X140.319 Y136.52 E2.83972
G1 X139.753 Y137.224 E2.86976
G1 X139.128 Y137.875 E2.89978
G1 X138.447 Y138.469 E2.92984
G1 X137.716 Y139 E2.95989
G1 X136.942 Y139.464 E2.9899
G1 X136.129 Y139.858 E3.01995
G1 X135.285 Y140.178 E3.04997
G1 X134.415 Y140.423 E3.08003
G1 X133.528 Y140.589 E3.11005
G1 X132.377 Y140.687 E3.14847
G1 X131.667 Y140.699 E3.17209
G1 X130.473 Y140.687 E3.2118
G1 X129.408 Y140.621 E3.24729
G1 X126.371 Y140.271 E3.34897
G1 X123.83 Y140.055 E3.43379
G1 X121.298 Y139.913 E3.51814
G1 X118.764 Y139.842 E3.60245
G1 X116.23 Y139.842 E3.68673
G1 X113.666 Y139.915 E3.77205
G1 X111.16 Y140.058 E3.85553
G1 X108.651 Y140.272 E3.93928
G1 X107.029 Y140.468 E3.99362
G1 X106.701 Y140.493 E4.00457
G1 X105.549 Y140.625 E4.04313
G1 X104.677 Y140.687 E4.07221
G1 X103.991 Y140.7 E4.09503
G1 X102.83 Y140.691 E4.13364
G1 X101.928 Y140.644 E4.16369
G1 X101.034 Y140.517 E4.19372
G1 X100.154 Y140.312 E4.22377
G1 X99.296 Y140.03 E4.25381
G1 X98.467 Y139.673 E4.28383
G1 X97.672 Y139.244 E4.31388
G1 X96.918 Y138.746 E4.34393
G1 X96.212 Y138.184 E4.37394
G1 X95.557 Y137.562 E4.40399
G1 X94.961 Y136.884 E4.43401
G1 X94.427 Y136.156 E4.46404
G1 X93.959 Y135.383 E4.4941
G1 X93.561 Y134.572 E4.52414
G1 X93.237 Y133.729 E4.55418
G1 X92.988 Y132.861 E4.58422
G1 X92.817 Y131.974 E4.61426
G1 X92.713 Y130.767 E4.65455
G1 X92.7 Y130.158 E4.67481
G1 X92.701 Y105.036 E5.51038
G1 X92.71 Y104.371 E5.5325
G1 X92.762 Y103.469 E5.56255
G1 X92.894 Y102.576 E5.59257
G1 X93.104 Y101.698 E5.6226
G1 X93.391 Y100.841 E5.65266
G1 X93.753 Y100.014 E5.68268
G1 X94.186 Y99.222 E5.7127
G1 X94.688 Y98.471 E5.74275
G1 X95.255 Y97.767 E5.77281
G1 X95.881 Y97.117 E5.80283
G0 F6000 X95.618 Y96.815
G1 F1200 X96.299 Y96.222 E5.83286
G1 X97.059 Y95.67 E5.8641
G1 X97.895 Y95.171 E5.89649
G1 X98.74 Y94.764 E5.92768
G1 X99.585 Y94.444 E5.95773
G1 X100.522 Y94.182 E5.99009
G1 X101.45 Y94.01 E6.02148
G1 X102.589 Y93.914 E6.0595
G1 X103.221 Y93.9 E6.08053
G1 X131.398 Y93.9 E7.0177
G1 X132.26 Y93.912 E7.04637
G1 X133.197 Y93.968 E7.07759
G1 X134.09 Y94.1 E7.10762
G1 X135.038 Y94.328 E7.14005
G1 X135.894 Y94.616 E7.17008
G1 X136.786 Y95.006 E7.20246
G1 X137.578 Y95.441 E7.23252
G1 X138.358 Y95.961 E7.2637
G1 X139.117 Y96.573 E7.29613
G1 X139.767 Y97.2 E7.32616
G1 X140.405 Y97.935 E7.35854
G1 X140.955 Y98.696 E7.38976
G1 X141.417 Y99.472 E7.4198
G1 X141.84 Y100.349 E7.45219
G1 X142.169 Y101.227 E7.48337
G1 X142.42 Y102.132 E7.51461
G1 X142.591 Y103.059 E7.54596
G1 X142.686 Y104.189 E7.58368
G1 X142.7 Y104.83 E7.605
G1 X142.699 Y129.895 E8.43867
G1 X142.689 Y130.64 E8.46345
G1 X142.635 Y131.577 E8.49467
G1 X142.504 Y132.471 E8.52472
G1 X142.288 Y133.384 E8.55592
G1 X141.98 Y134.308 E8.58832
G1 X141.619 Y135.136 E8.61836
G1 X141.153 Y135.99 E8.65072
G1 X140.631 Y136.771 E8.68196
G1 X140.065 Y137.475 E8.71201
G1 X139.417 Y138.152 E8.74318
G1 X138.682 Y138.793 E8.77561
G1 X137.951 Y139.324 E8.80566
G1 X137.148 Y139.807 E8.83683
G1 X136.271 Y140.232 E8.86924
G1 X135.427 Y140.552 E8.89927
G1 X134.489 Y140.816 E8.93168
G1 X133.562 Y140.988 E8.96303
G1 X132.411 Y141.086 E9.00146
G1 X131.663 Y141.099 E9.02634
G1 X130.448 Y141.086 E9.06675
G1 X129.362 Y141.018 E9.10294
G1 X126.337 Y140.67 E9.20422
G1 X123.796 Y140.453 E9.28904
G1 X121.287 Y140.313 E9.37262
G1 X118.753 Y140.242 E9.45693
G1 X116.241 Y140.242 E9.54048
G1 X113.677 Y140.315 E9.6258
G1 X111.194 Y140.457 E9.70852
G1 X108.685 Y140.671 E9.79227
G1 X107.059 Y140.867 E9.84674
G1 X106.731 Y140.892 E9.85768
G1 X105.577 Y141.024 E9.89631
G1 X104.685 Y141.087 E9.92606
G1 X103.988 Y141.1 E9.94924
G1 X102.809 Y141.09 E9.98846
G1 X101.872 Y141.04 E10.01967
G1 X100.943 Y140.907 E10.05088
G1 X100.063 Y140.702 E10.08093
G1 X99.171 Y140.41 E10.11215
G1 X98.277 Y140.025 E10.14453
G1 X97.452 Y139.578 E10.17573
G1 X96.669 Y139.059 E10.20698
G1 X95.963 Y138.497 E10.23699
G1 X95.257 Y137.826 E10.26939
G1 X94.638 Y137.121 E10.30059
G1 X94.104 Y136.393 E10.33062
G1 X93.6 Y135.559 E10.36303
G1 X93.188 Y134.716 E10.39424
G1 X92.864 Y133.873 E10.42428
G1 X92.595 Y132.937 E10.45667
G1 X92.418 Y132.008 E10.48812
G1 X92.314 Y130.801 E10.52842
G1 X92.3 Y130.158 E10.54981
G1 X92.301 Y105.031 E11.38553
G1 X92.311 Y104.348 E11.40825
G1 X92.366 Y103.411 E11.43947
G1 X92.498 Y102.518 E11.4695
G1 X92.715 Y101.605 E11.50071
G1 X93.012 Y100.714 E11.53195
G1 X93.402 Y99.822 E11.56433
G1 X93.853 Y99 E11.59551
G1 X94.376 Y98.22 E11.62675
G1 X94.943 Y97.516 E11.65681
G1 X95.618 Y96.815 E11.68918
G0 F6000 X95.355 Y96.513
G1 F1200 X96.036 Y95.92 E11.71921
G1 X96.824 Y95.346 E11.75164
G1 X97.721 Y94.811 E11.78637
G1 X98.598 Y94.39 E11.81873
G1 X99.443 Y94.07 E11.84878
G1 X100.449 Y93.789 E11.88352
G1 X101.416 Y93.611 E11.91623
G1 X102.555 Y93.515 E11.95424
G1 X103.212 Y93.5 E11.9761
G1 X131.404 Y93.5 E12.91377
G1 X132.284 Y93.513 E12.94304
G1 X133.255 Y93.572 E12.9754
G1 X134.184 Y93.711 E13.00664
G1 X135.132 Y93.939 E13.03907
G1 X136.054 Y94.249 E13.07142
G1 X136.979 Y94.655 E13.10502
G1 X137.771 Y95.09 E13.13508
G1 X138.58 Y95.628 E13.16739
G1 X139.395 Y96.285 E13.20221
G1 X140.045 Y96.912 E13.23225
G1 X140.707 Y97.673 E13.26579
G1 X141.299 Y98.491 E13.29938
G1 X141.761 Y99.267 E13.32942
G1 X142.215 Y100.209 E13.3642
G1 X142.544 Y101.087 E13.39538
G1 X142.813 Y102.059 E13.42893
G1 X142.99 Y103.025 E13.46159
G1 X143.085 Y104.155 E13.49931
G1 X143.1 Y104.83 E13.52176
G1 X143.099 Y129.9 E14.35559
G1 X143.088 Y130.663 E14.38097
G1 X143.031 Y131.635 E14.41336
G1 X142.9 Y132.529 E14.44341
G1 X142.677 Y133.476 E14.47577
G1 X142.347 Y134.468 E14.51054
G1 X141.986 Y135.296 E14.54058
G1 X141.486 Y136.212 E14.57529
G1 X140.943 Y137.022 E14.60773
G1 X140.377 Y137.726 E14.63777
G1 X139.706 Y138.429 E14.6701
G1 X138.917 Y139.117 E14.70491
G1 X138.186 Y139.648 E14.73496
G1 X137.354 Y140.15 E14.76728
G1 X136.413 Y140.606 E14.80206
G1 X135.569 Y140.926 E14.83208
G1 X134.597 Y141.201 E14.86568
G1 X133.596 Y141.387 E14.89954
G1 X132.445 Y141.485 E14.93797
G1 X131.659 Y141.499 E14.96411
G1 X130.423 Y141.485 E15.00522
G1 X129.316 Y141.415 E15.04212
G1 X126.303 Y141.069 E15.14299
G1 X123.762 Y140.851 E15.22781
G1 X121.276 Y140.713 E15.31063
G1 X118.742 Y140.642 E15.39494
G1 X116.252 Y140.642 E15.47776
G1 X113.688 Y140.715 E15.56307
G1 X111.228 Y140.856 E15.64502
G1 X108.719 Y141.07 E15.72878
G1 X107.089 Y141.266 E15.78338
G1 X106.761 Y141.291 E15.79432
G1 X105.605 Y141.423 E15.83302
G1 X104.692 Y141.487 E15.86346
G1 X103.985 Y141.5 E15.88698
G1 X102.788 Y141.489 E15.9268
G1 X101.815 Y141.436 E15.95921
G1 X100.852 Y141.297 E15.99157
G1 X99.972 Y141.092 E16.02162
G1 X99.047 Y140.79 E16.05398
G1 X98.086 Y140.377 E16.08877
G1 X97.261 Y139.93 E16.11998
G1 X96.42 Y139.372 E16.15355
G1 X95.687 Y138.787 E16.18474
G1 X94.956 Y138.09 E16.21834
G1 X94.315 Y137.358 E16.2507
G1 X93.781 Y136.63 E16.28073
G1 X93.241 Y135.735 E16.31549
