;FLAVOR:Marlin
M117 Time Left 1h07m20s
;TIME:4040
;Filament used: 2.24991m
;Layer height: 0.16
;MINX:78.5
;MINY:74.014
;MINZ:0.2
;MAXX:167.88
;MAXY:160.986
;MAXZ:14.92
;POSTPROCESSED
;Generated with Cura_SteamEngine 5.3.1
M82 ;absolute extrusion mode
;;; Script based on an original created by tjjfvi (https://github.com/tjjfvi)
; An up-to-date version of the tjjfvi's original script can be found
; here:  https://csi.t6.fyi/
; Note - This script will only work in Cura V4.2 and above!
; --- Global Settings
; layer_height = 0.16
; smooth_spiralized_contours = True
; magic_mesh_surface_mode = normal
; machine_extruder_count = 1
; --- Single Extruder Settings
; speed_z_hop = 5
; retraction_amount = 5
; retraction_hop = 0.2
; retraction_hop_enabled = False
; retraction_enable = True
; retraction_speed = 45
; retraction_retract_speed = 45
; retraction_prime_speed = 45
; speed_travel = 150.0

;; Sun 11-06-2023 15:49:20

;; layer_height = 0.16
;; wall_thickness = 1.2000000000000002
;; retraction_enable = True
;; solid_layer_thickness = {solid_layer_thickness}
;; fill_density = {fill_density}
;; print_speed = {print_speed}
;; print_temperature = 200
;; print_temperature2 = {print_temperature2}
;; print_temperature3 = {print_temperature3}
;; print_temperature4 = {print_temperature4}
;; print_temperature5 = {print_temperature5}
;; print_bed_temperature = 50
;; support = 0
;; platform_adhesion = 0
;; support_dual_extrusion = {support_dual_extrusion}
;; wipe_tower = {wipe_tower}
;; wipe_tower_volume = {wipe_tower_volume}
;; ooze_shield = {ooze_shield}
;; filament_diameter = {filament_diameter}
;; filament_diameter2 = {filament_diameter2}
;; filament_diameter3 = {filament_diameter3}
;; filament_diameter4 = {filament_diameter4}
;; filament_diameter5 = {filament_diameter5}
;; filament_flow = {filament_flow}
;; nozzle_size = {nozzle_size}
;; retraction_speed = 45
;; retraction_amount = 5
;; retraction_dual_amount = {retraction_dual_amount}
;; retraction_min_travel = 1.5
;; retraction_combing = noskin
;; retraction_minimal_extrusion = {retraction_minimal_extrusion}
;; retraction_hop = 0.2
;; bottom_thickness = 0.8400000000000001
;; layer0_width_factor = {layer0_width_factor}
;; object_sink = {object_sink}
;; enable_skin = {enable_skin}
;; overlap_dual = {overlap_dual}
;; travel_speed = 150.0
;; bottom_layer_speed = {bottom_layer_speed}
;; infill_speed = {infill_speed}
;; solidarea_speed = {solidarea_speed}
;; inset0_speed = {inset0_speed}
;; insetx_speed = {insetx_speed}
;; cool_min_layer_time = 10
;; fan_enabled = {fan_enabled}
;; skirt_line_count = 3
;; skirt_gap = 10.0
;; skirt_minimal_length = {skirt_minimal_length}
;; fan_full_height = {fan_full_height}
;; fan_speed = {fan_speed}
;; fan_speed_max = {fan_speed_max}
;; cool_min_feedrate = {cool_min_feedrate}
;; cool_head_lift = {cool_head_lift}
;; solid_top = {solid_top}
;; solid_bottom = {solid_bottom}
;; fill_overlap = {fill_overlap}
;; perimeter_before_infill = {perimeter_before_infill}
;; support_type = everywhere
;; support_angle = 51
;; support_fill_rate = {support_fill_rate}
;; support_xy_distance = 0.8
;; support_z_distance = 0.16
;; spiralize = {spiralize}
;; simple_mode = {simple_mode}
;; bridge_speed = {bridge_speed}
;; brim_line_count = 20
;; raft_margin = 15
;; raft_line_spacing = {raft_line_spacing}
;; raft_base_thickness = 0.24
;; raft_base_linewidth = {raft_base_linewidth}
;; raft_interface_thickness = 0.24
;; raft_interface_linewidth = {raft_interface_linewidth}
;; raft_airgap_all = {raft_airgap_all}
;; raft_airgap = 0.3
;; raft_surface_layers = 2
;; raft_surface_thickness = 0.16
;; raft_surface_linewidth = {raft_surface_linewidth}
;; fix_horrible_union_all_type_a = {fix_horrible_union_all_type_a}
;; fix_horrible_union_all_type_b = {fix_horrible_union_all_type_b}
;; fix_horrible_use_open_bits = {fix_horrible_use_open_bits}
;; fix_horrible_extensive_stitching = {fix_horrible_extensive_stitching}
;; plugin_config = {plugin_config}
;; object_center_x = {object_center_x}
;; object_center_y = {object_center_y}
;; save_profile = {save_profile}
;; filament_cost_kg = {filament_cost_kg}
;; filament_cost_meter = {filament_cost_meter}
;; auto_detect_sd = {auto_detect_sd}
;; sdcard_rootfolder = {sdcard_rootfolder}
;; check_for_updates = {check_for_updates}
;; submit_slice_information = {submit_slice_information}
;; youmagine_token = {youmagine_token}
;; filament_physical_density = {filament_physical_density}
;; language = {language}
;; active_machine = {active_machine}
;; model_colour = {model_colour}
;; model_colour2 = {model_colour2}
;; model_colour3 = {model_colour3}
;; model_colour4 = {model_colour4}
;; printing_window = {printing_window}
;; window_maximized = {window_maximized}
;; window_pos_x = {window_pos_x}
;; window_pos_y = {window_pos_y}
;; window_width = {window_width}
;; window_height = {window_height}
;; window_normal_sash = {window_normal_sash}
;; last_run_version = {last_run_version}
;; machine_name = Creality Ender-3
;; machine_type = {machine_type}
;; machine_width = 235
;; machine_depth = 235
;; machine_height = 250
;; machine_center_is_zero = False
;; machine_shape = rectangular
;; ultimaker_extruder_upgrade = {ultimaker_extruder_upgrade}
;; has_heated_bed = {has_heated_bed}
;; gcode_flavor = {gcode_flavor}
;; extruder_amount = {extruder_amount}
;; extruder_offset_x1 = {extruder_offset_x1}
;; extruder_offset_y1 = {extruder_offset_y1}
;; extruder_offset_x2 = {extruder_offset_x2}
;; extruder_offset_y2 = {extruder_offset_y2}
;; extruder_offset_x3 = {extruder_offset_x3}
;; extruder_offset_y3 = {extruder_offset_y3}
;; extruder_offset_x4 = {extruder_offset_x4}
;; extruder_offset_y4 = {extruder_offset_y4}
;; steps_per_e = {steps_per_e}
;; serial_port = {serial_port}
;; serial_port_auto = {serial_port_auto}
;; serial_baud = {serial_baud}
;; serial_baud_auto = {serial_baud_auto}
;; extruder_head_size_min_x = {extruder_head_size_min_x}
;; extruder_head_size_min_y = {extruder_head_size_min_y}
;; extruder_head_size_max_x = {extruder_head_size_max_x}
;; extruder_head_size_max_y = {extruder_head_size_max_y}
;; extruder_head_size_height = {extruder_head_size_height}
;; machine_acceleration = 500
;; machine_max_xy_jerk = {machine_max_xy_jerk}
;; machine_max_z_jerk = {machine_max_z_jerk}
;; machine_max_e_jerk = {machine_max_e_jerk}

START_PRINT BED_TEMP=50 EXTRUDER_TEMP=200

;; Moved to OctoPrint

;;; M155
;;; M140 S100 ; 60 for PLA
;;; M104 S240 ; 200 for PLA
;;; G90 ;absolute positioning
;;; ; Ender 3 Custom Start G-code
;;; G92 E0 ; Reset Extruder
;;; G28 ; Home all axes
;;; M420 S1 ; Enable mesh
;;; G1 Z5.0 F3000 ; Move Z Axis up little to prevent scratching of Heat Bed
;;; G1 X1 Y20 Z0.3 F5000.0 ; Move to start position
;;; ; Need to be at temperature now
;;; M190 S100 ; S60
;;; M109 S240 ; S200
;;; G1 X1 Y200.0 Z0.3 F1500.0 E15 ; Draw the first line
;;; G1 X1.3 Y200.0 Z0.3 F5000.0 ; Move to side a little
;;; G1 X1.3 Y20 Z0.3 F1500.0 E30 ; Draw the second line
;;; G1 E28 ; Retract a little
;;; G1 E30 ; and back again
;;; G92 E0 ; Reset Extruder
;;; G1 Z1.0 F3000 ; Move Z Axis up little to prevent scratching of Heat Bed
;;; G1 X1.3 Y25 Z0.3 F5000.0 ; Move over to prevent blob squish
;;; G1 X5 Y25 Z0.3 F5000.0 ; Move over to prevent blob squish
;;; G1 X5 Y20 Z0.3 F5000.0 ; Move over to prevent blob squish
;;; G1 X1.3 Y20 Z0.3 F5000.0 ; Move over to prevent blob squish
;;; G1 X1.3 Y25 Z0.3 F5000.0 ; Move over to prevent blob squish
;;; G1 X5 Y25 Z0.3 F5000.0 ; Move over to prevent blob squish
;;; G1 X5 Y20 Z0.3 F5000.0 ; Move over to prevent blob squish
G92 E0
G92 E0
G1 F2700 E-5
;LAYER_COUNT:84
;LAYER:0
M107
G0 F6000 X94.436 Y80.187 Z0.2
;TYPE:SKIRT
G1 F2700 E0
G1 F1200 X95.026 Y79.503 E0.03004
G1 X95.673 Y78.873 E0.06008
G1 X96.105 Y78.51 E0.07885
G1 X96.734 Y78.01 E0.10557
G1 X97.401 Y77.508 E0.13334
G1 X98.148 Y77.001 E0.16337
G1 X98.938 Y76.562 E0.19343
G1 X99.43 Y76.333 E0.21147
G1 X100.121 Y76.033 E0.23653
G1 X100.89 Y75.721 E0.26413
G1 X101.742 Y75.423 E0.29415
G1 X102.618 Y75.201 E0.32421
G1 X103.163 Y75.104 E0.34262
G1 X103.942 Y74.987 E0.36882
G1 X104.822 Y74.879 E0.39831
G1 X105.723 Y74.814 E0.42836
G1 X106.56 Y74.825 E0.4562
G1 X109.501 Y74.946 E0.5541
G1 X112.037 Y74.974 E0.63845
G1 X114.549 Y74.931 E0.72201
G1 X116.999 Y74.821 E0.80358
G1 X117.902 Y74.821 E0.83362
G1 X118.601 Y74.875 E0.85693
G1 X119.389 Y74.964 E0.88331
G1 X120.22 Y75.079 E0.91121
G1 X121.107 Y75.248 E0.94124
G1 X121.976 Y75.494 E0.97128
G1 X122.504 Y75.685 E0.98996
G1 X123.255 Y75.981 E1.01681
G1 X124.891 Y76.682 E1.07601
G1 X127.313 Y77.687 E1.16322
G1 X129.698 Y78.599 E1.24815
G1 X132.095 Y79.438 E1.33262
G1 X134.518 Y80.21 E1.4172
G1 X136.932 Y80.904 E1.50074
G1 X139.393 Y81.538 E1.58526
G1 X141.932 Y82.115 E1.67186
G1 X144.381 Y82.599 E1.75489
G1 X146.843 Y83.014 E1.83794
G1 X150.086 Y83.45 E1.94677
G1 X151.405 Y83.618 E1.99099
G1 X152.294 Y83.771 E2.021
G1 X153.343 Y84.059 E2.05718
G1 X153.859 Y84.231 E2.07527
G1 X154.711 Y84.541 E2.10542
G1 X155.543 Y84.891 E2.13544
G1 X156.464 Y85.387 E2.17024
G1 X157.187 Y85.831 E2.19846
G1 X157.681 Y86.152 E2.21805
G1 X158.415 Y86.677 E2.24807
G1 X159.241 Y87.399 E2.28455
G1 X159.631 Y87.779 E2.30267
G1 X160.233 Y88.395 E2.33131
G1 X160.832 Y89.072 E2.36138
G1 X161.442 Y89.909 E2.39583
G1 X161.9 Y90.619 E2.42393
G1 X162.208 Y91.125 E2.44363
G1 X162.643 Y91.916 E2.47365
G1 X163.059 Y92.882 E2.50864
G1 X163.36 Y93.709 E2.53791
G1 X163.545 Y94.264 E2.55737
G1 X163.792 Y95.133 E2.58741
G1 X163.986 Y96.201 E2.62352
G1 X164.085 Y97.013 E2.65072
G1 X164.203 Y98.219 E2.69103
G1 X164.503 Y100.899 E2.78072
G1 X164.854 Y103.386 E2.86426
G1 X165.283 Y105.91 E2.94941
G1 X165.767 Y108.347 E3.03205
G1 X166.55 Y111.706 E3.14677
G1 X166.74 Y112.455 E3.17247
G1 X166.923 Y113.34 E3.20252
G1 X167.004 Y113.969 E3.22362
G1 X167.032 Y114.256 E3.23321
G1 X167.079 Y115.372 E3.27036
G1 X167.066 Y116.402 E3.30462
G1 X167.08 Y119.704 E3.41445
G1 X167.053 Y120.559 E3.4429
G1 X166.941 Y121.555 E3.47623
G1 X166.761 Y122.44 E3.50627
G1 X166.503 Y123.306 E3.53633
G1 X166.314 Y123.808 E3.55417
G1 X165.99 Y124.605 E3.58278
G1 X165.464 Y125.705 E3.62334
G1 X165.124 Y126.319 E3.64668
G1 X164.855 Y126.782 E3.66449
G1 X164.332 Y127.579 E3.6962
G1 X163.963 Y128.087 E3.71708
G1 X163.595 Y128.571 E3.7373
G1 X163.013 Y129.262 E3.76735
G1 X162.179 Y130.07 E3.80597
G1 X161.63 Y130.544 E3.8301
G1 X159.641 Y132.318 E3.91874
G1 X157.836 Y134.02 E4.00125
G1 X156.014 Y135.841 E4.08693
G1 X154.288 Y137.664 E4.17043
G1 X152.584 Y139.571 E4.25549
G1 X150.939 Y141.518 E4.34027
G1 X149.387 Y143.466 E4.42311
G1 X147.848 Y145.512 E4.50826
G1 X145.736 Y148.53 E4.63078
G1 X144.848 Y149.857 E4.68388
G1 X144.313 Y150.584 E4.7139
G1 X143.715 Y151.261 E4.74395
G1 X143.06 Y151.883 E4.77399
G1 X142.643 Y152.227 E4.79197
G1 X142.126 Y152.63 E4.81377
G1 X141.694 Y152.951 E4.83167
G1 X140.933 Y153.456 E4.86205
G1 X140.377 Y153.79 E4.88362
G1 X139.912 Y154.056 E4.90144
G1 X139.078 Y154.476 E4.9325
G1 X138.427 Y154.767 E4.95622
G1 X137.785 Y155.035 E4.97936
G1 X136.935 Y155.338 E5.00937
G1 X136.025 Y155.573 E5.04063
G1 X133.694 Y156.062 E5.11985
G1 X131.199 Y156.654 E5.20513
G1 X128.717 Y157.319 E5.2906
G1 X126.336 Y158.028 E5.37323
G1 X123.856 Y158.846 E5.46008
G1 X122.234 Y159.421 E5.51732
G1 X121.37 Y159.685 E5.54737
G1 X120.348 Y159.894 E5.58206
G1 X119.567 Y160.012 E5.60833
G1 X118.684 Y160.121 E5.63793
G1 X117.784 Y160.186 E5.66794
G1 X116.945 Y160.175 E5.69585
G1 X113.999 Y160.054 E5.79391
G1 X111.463 Y160.026 E5.87827
G1 X108.951 Y160.069 E5.96183
G1 X106.501 Y160.179 E6.0434
G1 X105.598 Y160.179 E6.07343
G1 X104.899 Y160.125 E6.09675
G1 X104.111 Y160.036 E6.12312
G1 X103.28 Y159.921 E6.15103
G1 X102.393 Y159.752 E6.18106
G1 X101.524 Y159.506 E6.2111
G1 X100.986 Y159.311 E6.23013
G1 X100.255 Y159.022 E6.25628
G1 X99.492 Y158.698 E6.28385
G1 X98.679 Y158.305 E6.31388
G1 X97.904 Y157.841 E6.34392
G1 X97.455 Y157.527 E6.36215
G1 X96.6 Y156.889 E6.39763
G1 X96.187 Y156.564 E6.41511
G1 X95.503 Y155.974 E6.44515
G1 X94.873 Y155.327 E6.47519
G1 X94.51 Y154.895 E6.49396
G1 X94.01 Y154.266 E6.52068
G1 X93.488 Y153.572 E6.54956
G1 X92.982 Y152.824 E6.5796
G1 X92.722 Y152.373 E6.59691
G1 X92.197 Y151.408 E6.63345
G1 X91.816 Y150.683 E6.66069
G1 X90.582 Y148.491 E6.74436
G1 X89.276 Y146.319 E6.82865
G1 X87.89 Y144.152 E6.91421
G1 X86.463 Y142.054 E6.9986
G1 X84.983 Y140.006 E7.08264
G1 X83.415 Y137.962 E7.16833
G1 X82.629 Y136.977 E7.21024
G1 X82.05 Y136.175 E7.24314
G1 X81.749 Y135.712 E7.26151
G1 X81.289 Y134.963 E7.29074
G1 X80.855 Y134.172 E7.32075
G1 X80.45 Y133.233 E7.35476
G1 X80.262 Y132.729 E7.37265
G1 X79.95 Y131.806 E7.40506
G1 X79.705 Y130.937 E7.43509
G1 X79.518 Y129.903 E7.47004
G1 X79.416 Y129.074 E7.49782
G1 X79.356 Y128.459 E7.51837
G1 X79.309 Y127.599 E7.54702
G1 X79.3 Y126.841 E7.57223
G1 X79.301 Y108.061 E8.19685
G1 X79.311 Y107.363 E8.22007
G1 X79.357 Y106.535 E8.24765
G1 X79.447 Y105.648 E8.27731
G1 X79.519 Y105.087 E8.29612
G1 X79.673 Y104.197 E8.32616
G1 X79.961 Y103.154 E8.36215
G1 X80.226 Y102.374 E8.38955
G1 X80.426 Y101.828 E8.40889
G1 X80.774 Y100.994 E8.43895
G1 X81.289 Y100.036 E8.47512
G1 X81.708 Y99.354 E8.50174
G1 X82.042 Y98.838 E8.52219
G1 X82.554 Y98.118 E8.55157
G1 X83.053 Y97.478 E8.57856
G1 X83.871 Y96.454 E8.62216
G1 X85.405 Y94.418 E8.70694
G1 X86.883 Y92.338 E8.79181
G1 X88.298 Y90.222 E8.87647
G1 X89.644 Y88.079 E8.96064
G1 X90.924 Y85.909 E9.04444
G1 X92.109 Y83.767 E9.12586
G1 X92.671 Y82.719 E9.16541
G1 X93.132 Y81.943 E9.19543
G1 X93.461 Y81.472 E9.21454
G1 X94.111 Y80.6 E9.25071
G1 X94.436 Y80.187 E9.26819
G0 F6000 X94.133 Y79.926
G1 F1200 X94.747 Y79.216 E9.29941
G1 X95.394 Y78.586 E9.32945
G1 X95.856 Y78.197 E9.34954
G1 X96.493 Y77.69 E9.37662
G1 X97.176 Y77.177 E9.40503
G1 X97.954 Y76.651 E9.43626
G1 X98.769 Y76.199 E9.46726
G1 X99.271 Y75.966 E9.48567
G1 X99.971 Y75.662 E9.51105
G1 X100.758 Y75.343 E9.53929
G1 X101.61 Y75.045 E9.56931
G1 X102.52 Y74.813 E9.60055
G1 X103.104 Y74.708 E9.62028
G1 X103.893 Y74.59 E9.64682
G1 X104.793 Y74.48 E9.67698
G1 X105.728 Y74.414 E9.70815
G1 X106.576 Y74.425 E9.73636
G1 X109.517 Y74.546 E9.83426
G1 X112.034 Y74.574 E9.91798
G1 X114.531 Y74.531 E10.00104
G1 X116.981 Y74.421 E10.08261
G1 X117.933 Y74.422 E10.11428
G1 X118.646 Y74.478 E10.13806
G1 X119.444 Y74.568 E10.16477
G1 X120.295 Y74.686 E10.19335
G1 X121.216 Y74.863 E10.22454
G1 X122.085 Y75.109 E10.25458
G1 X122.651 Y75.313 E10.27459
G1 X123.413 Y75.613 E10.30183
G1 X125.049 Y76.315 E10.36104
G1 X127.456 Y77.313 E10.44771
G1 X129.836 Y78.223 E10.53245
G1 X132.227 Y79.06 E10.61671
G1 X134.635 Y79.828 E10.70078
G1 X137.037 Y80.518 E10.7839
G1 X139.482 Y81.148 E10.86787
G1 X142.021 Y81.725 E10.95448
G1 X144.46 Y82.207 E11.03717
G1 X146.902 Y82.619 E11.11954
G1 X150.137 Y83.053 E11.2281
G1 X151.473 Y83.224 E11.27289
G1 X152.4 Y83.385 E11.30419
G1 X153.449 Y83.673 E11.34037
G1 X153.996 Y83.855 E11.35954
G1 X154.866 Y84.172 E11.39034
G1 X155.698 Y84.522 E11.42036
G1 X156.673 Y85.046 E11.45718
G1 X157.405 Y85.496 E11.48575
G1 X157.914 Y85.827 E11.50595
G1 X158.648 Y86.352 E11.53596
G1 X159.52 Y87.113 E11.57446
G1 X159.917 Y87.499 E11.59288
G1 X160.533 Y88.13 E11.6222
G1 X161.132 Y88.807 E11.65227
G1 X161.778 Y89.692 E11.68871
G1 X162.242 Y90.411 E11.71717
G1 X162.558 Y90.932 E11.73744
G1 X162.993 Y91.723 E11.76747
G1 X163.435 Y92.745 E11.8045
G1 X163.739 Y93.583 E11.83415
G1 X163.93 Y94.155 E11.85421
G1 X164.186 Y95.062 E11.88555
G1 X164.38 Y96.13 E11.92166
G1 X164.483 Y96.974 E11.94994
G1 X164.601 Y98.175 E11.99007
G1 X164.901 Y100.855 E12.07977
G1 X165.248 Y103.319 E12.16253
